P2
# Imagem modificada por peaga
286 422
255
94 87 73 94 88 77 81 62 44 114 112 78 60 22 29 33 42 38 32 58 55 32 26 28 21 11 39 63 32 56 54 49 39 52 83 85 86 68 67 85 75 68 59 74 60 35 33 47 36 23 34 67 22 23 31 64 38 32 16 20 40 30 25 24 17 20 20 17 37 51 31 24 20 24 26 35 24 29 36 31 21 19 30 28 20 35 19 41 59 19 46 40 40 64 40 77 129 75 49 39 45 33 39 64 67 41 39 53 41 37 45 36 20 29 21 33 36 13 38 39 33 30 35 33 26 24 24 25 22 24 21 18 20 23 25 24 33 27 22 21 28 40 36 29 30 31 26 25 27 23 24 27 21 25 23 19 20 21 22 30 29 33 37 32 24 30 44 36 30 23 21 22 22 21 19 20 21 22 20 19 23 24 19 17 16 21 21 20 22 20 17 20 26 33 33 32 52 40 29 25 26 40 43 37 52 63 48 32 31 28 45 77 70 40 41 40 44 59 70 71 74 82 73 88 85 63 78 54 31 36 36 31 29 31 29 25 27 26 16 33 56 27 35 45 31 25 31 16 35 34 61 70 60 47 48 79 90 71 52 46 62 71 42 55 60 13 21 22 35 69 31 30 41 45 41 52 71 65 48 64 102 139 52 100 99 65 
85 95 81 86 88 87 71 69 73 79 82 68 61 50 54 53 38 38 45 48 45 33 28 33 32 26 34 40 51 61 71 61 48 48 74 75 76 69 71 63 52 58 52 52 49 36 32 35 32 27 29 36 26 24 30 36 34 23 22 25 30 34 25 19 19 20 19 23 31 31 25 24 22 25 28 30 27 26 25 23 18 16 17 22 32 37 28 37 49 44 36 37 38 43 49 75 90 77 66 50 43 38 38 42 43 34 35 40 38 36 37 32 26 25 27 32 29 25 33 39 30 27 32 32 29 26 24 24 24 27 30 27 24 25 26 26 29 28 24 27 37 47 46 37 29 30 31 28 24 22 22 23 22 22 21 20 19 19 24 33 37 37 36 34 29 31 37 34 27 22 20 20 20 20 19 19 19 19 19 22 27 26 21 16 14 16 17 19 24 29 25 23 29 36 40 50 65 54 36 28 28 34 43 51 56 53 46 34 32 37 49 62 63 57 61 63 63 63 64 63 67 74 80 93 85 71 61 45 35 31 27 26 26 30 31 27 25 23 21 29 41 35 29 32 33 33 30 27 38 52 60 61 60 70 66 78 85 86 75 65 55 42 32 40 46 43 26 20 33 47 40 38 39 43 46 58 62 67 70 80 95 90 76 85 86 59 
163 130 96 94 109 100 86 91 94 90 65 56 61 64 76 66 42 31 31 33 36 33 25 36 43 43 38 30 31 49 58 55 41 47 54 68 53 52 57 62 54 46 46 50 45 34 27 28 30 28 26 27 25 24 21 27 19 21 18 25 34 34 30 22 19 21 21 24 25 25 23 22 25 25 26 27 25 26 24 19 16 14 14 23 33 39 30 30 44 42 35 28 32 35 50 75 83 67 59 51 45 48 40 35 25 24 27 29 27 27 25 25 22 23 25 27 25 22 31 36 29 23 27 28 29 28 24 23 25 28 33 35 30 25 24 23 24 23 22 25 36 48 53 44 34 31 32 31 28 24 22 21 20 22 21 20 20 22 29 37 38 37 35 34 33 32 35 33 26 23 21 20 21 20 19 19 19 19 20 23 27 26 20 15 15 16 17 19 26 32 32 27 33 44 54 65 73 60 44 35 34 35 41 49 48 43 42 38 33 41 50 54 59 76 84 88 72 60 59 62 60 68 83 91 87 73 53 42 36 28 26 26 28 27 30 31 25 23 27 32 37 30 27 36 40 40 31 25 39 54 58 48 57 62 62 60 74 80 84 78 60 41 24 27 43 44 37 26 35 48 46 47 61 61 60 60 54 59 77 86 79 72 60 74 77 66 
149 132 116 107 103 102 84 96 103 94 73 55 65 77 93 74 44 29 26 28 36 33 26 30 50 58 51 26 25 33 52 53 33 32 52 58 60 54 67 56 56 54 58 60 57 35 26 25 26 26 27 26 25 25 23 22 25 20 24 27 27 32 25 22 21 23 21 22 25 22 24 25 21 23 23 21 25 40 37 26 21 18 20 27 31 33 33 31 39 41 38 31 25 31 47 83 88 71 59 51 41 41 37 26 22 19 25 26 25 25 25 22 22 20 23 23 22 22 26 34 27 23 24 26 29 28 26 25 25 25 33 36 29 23 21 21 21 21 20 21 27 37 46 42 33 31 32 30 29 26 23 21 21 24 23 22 23 29 38 41 40 35 33 35 35 34 36 33 28 25 23 24 24 22 19 19 19 20 21 22 23 23 19 15 15 17 19 20 24 32 31 29 35 48 68 76 68 59 52 48 42 36 36 39 37 38 46 39 34 38 45 49 60 83 104 92 69 59 67 67 63 62 72 75 76 64 48 40 38 31 29 32 30 29 36 41 34 32 40 45 36 26 34 48 56 47 33 30 41 53 55 46 47 52 34 33 42 53 62 71 64 45 30 24 31 40 32 33 39 45 43 51 64 66 61 51 37 47 64 76 82 74 61 62 69 89 
153 127 109 111 104 89 78 80 97 105 99 79 72 88 98 76 38 29 28 27 33 31 20 25 39 57 52 28 21 30 55 50 32 23 27 45 62 70 63 61 49 50 49 57 48 39 33 28 25 25 26 25 25 25 24 26 30 30 27 26 23 22 23 23 24 24 22 22 19 27 26 21 24 22 24 24 32 62 65 35 28 25 24 26 24 28 39 42 43 45 40 39 28 26 46 81 98 81 72 58 39 29 27 25 22 23 23 25 26 26 24 25 22 20 21 22 23 23 25 29 28 24 23 23 27 27 28 28 27 25 29 33 26 18 18 20 20 20 20 21 25 34 41 39 32 32 32 28 26 25 22 20 19 22 23 25 30 37 43 46 44 38 34 34 35 35 36 36 32 29 26 26 28 24 20 19 19 20 21 21 20 21 22 18 16 18 20 22 24 28 31 31 34 52 77 80 63 53 59 61 51 35 28 31 35 44 53 52 38 35 40 45 58 89 105 90 69 69 79 77 60 53 51 53 51 51 40 39 41 37 35 34 30 29 40 51 43 43 58 61 40 28 41 60 61 54 42 40 52 57 54 50 56 50 29 26 30 38 47 52 49 41 32 28 28 30 29 35 38 34 34 41 51 48 45 38 30 33 41 54 79 76 66 49 63 94 
102 77 82 100 94 82 65 73 86 121 130 103 77 79 94 65 37 35 31 28 30 27 20 22 34 51 49 30 24 33 53 50 30 28 27 22 36 55 58 42 47 48 40 30 36 40 47 45 33 27 26 25 25 26 24 27 31 30 26 24 24 27 28 27 24 23 22 22 22 32 40 25 24 35 38 28 37 75 72 41 28 28 27 26 22 26 37 51 49 49 48 44 34 34 51 88 100 82 71 59 38 26 23 25 27 30 24 22 25 25 25 25 23 20 20 22 23 25 26 30 30 25 21 21 24 26 28 28 24 23 26 27 22 17 17 19 19 20 21 22 25 31 37 36 31 30 32 29 26 23 21 19 19 22 22 27 35 38 41 46 49 43 36 33 33 33 35 37 35 31 27 27 27 24 20 20 20 19 19 20 18 21 25 23 18 19 22 23 25 30 33 34 42 60 83 76 54 49 60 68 62 39 27 30 36 44 57 59 50 43 41 46 60 85 96 85 76 82 87 79 58 46 45 42 43 46 41 39 40 41 41 34 29 30 40 51 48 51 72 74 55 44 54 66 63 56 45 53 62 61 59 65 77 69 48 42 49 49 45 40 34 32 33 34 30 28 32 41 37 29 31 38 39 38 31 31 25 35 30 35 63 66 50 45 62 103 
133 80 64 92 96 79 63 63 83 123 142 118 80 71 69 48 34 39 34 31 32 30 26 23 33 44 45 31 25 34 51 37 29 34 35 28 27 41 53 46 42 48 37 25 24 31 40 42 33 26 24 24 24 23 22 22 25 24 25 30 33 34 27 23 19 20 23 24 27 40 50 40 31 44 45 36 34 65 72 42 34 36 37 33 27 25 32 37 44 43 47 44 37 35 53 79 97 76 58 49 38 32 25 23 32 41 34 24 25 26 26 26 24 22 22 23 24 27 30 34 35 28 19 18 22 24 24 23 21 21 22 22 20 18 17 19 20 22 22 20 21 25 30 31 30 29 31 33 29 23 20 20 22 27 26 29 37 38 38 44 49 47 39 35 33 33 33 37 37 32 25 25 25 23 22 23 23 21 19 19 18 21 27 28 22 20 21 23 27 34 36 34 45 66 84 74 53 56 62 69 68 47 34 33 37 42 52 61 61 52 46 51 62 76 83 77 75 78 82 74 56 43 43 44 47 54 56 50 41 38 39 35 32 35 42 55 59 66 82 86 73 67 70 67 58 48 43 49 59 60 63 81 100 85 54 51 50 53 45 32 30 37 43 47 38 28 38 46 37 26 26 30 33 32 38 31 37 50 45 39 57 60 51 51 53 62 
131 81 65 76 95 82 60 55 72 128 153 128 90 66 51 31 29 40 35 34 38 41 37 31 31 35 39 33 29 35 43 32 25 37 38 25 26 42 54 58 35 29 25 22 17 17 23 22 23 20 20 21 20 18 17 19 21 22 27 34 36 31 24 17 17 20 22 26 22 37 51 52 40 39 38 30 28 54 60 45 42 42 45 44 37 29 27 27 31 33 36 46 44 40 37 69 86 74 58 45 40 38 29 21 30 42 37 26 26 27 25 26 25 24 23 23 24 27 32 36 37 31 21 18 20 21 20 19 20 21 20 20 22 21 18 19 21 24 24 21 20 23 26 27 28 28 32 37 33 25 23 24 26 32 31 30 34 37 38 41 45 47 46 43 43 38 33 34 37 31 24 23 23 21 22 25 27 24 20 19 19 20 27 31 25 21 19 22 28 38 38 36 44 70 85 76 65 69 71 73 74 59 42 37 39 43 47 61 65 58 49 53 62 67 73 70 65 63 69 66 51 38 34 37 38 51 64 65 54 42 38 38 37 40 47 64 73 77 86 83 78 78 78 66 50 42 38 46 53 62 73 94 109 92 68 61 59 60 49 40 51 59 69 71 60 40 43 42 29 23 26 30 35 49 55 57 48 60 51 39 53 53 50 50 52 52 
91 71 48 58 76 79 59 41 61 129 171 142 89 64 42 23 30 45 37 36 43 51 50 51 42 36 34 34 30 34 38 28 25 32 31 21 23 29 53 62 42 19 18 17 19 21 26 31 29 25 21 21 19 15 15 19 22 23 28 32 33 30 26 21 21 21 20 22 19 25 46 53 50 35 28 28 36 47 50 41 39 38 43 46 42 32 28 30 32 33 36 46 58 54 40 58 83 78 58 41 40 38 27 23 26 35 29 25 27 29 27 27 26 25 24 23 23 25 29 32 32 30 24 19 18 19 19 19 21 21 20 20 22 22 19 19 22 26 27 23 24 29 28 25 26 27 33 41 38 30 26 26 26 33 35 32 32 36 38 36 37 43 49 53 54 47 35 32 33 27 22 21 20 19 19 21 24 23 21 20 19 20 26 30 28 25 23 28 35 43 44 39 46 69 86 78 73 79 85 84 85 70 50 42 45 49 51 62 70 64 58 60 66 69 76 72 61 57 61 57 43 31 28 28 29 39 54 68 66 54 51 45 40 41 48 67 77 78 77 65 57 66 72 64 48 42 41 45 61 77 82 88 91 80 68 65 66 68 64 74 94 94 93 95 80 58 49 36 22 23 30 31 40 53 71 68 60 58 57 45 49 45 44 49 50 56 
43 48 39 38 65 82 71 54 57 125 170 148 88 48 45 25 37 61 52 44 44 48 65 66 62 44 33 30 28 31 36 26 25 26 22 20 29 26 30 50 40 26 16 18 15 25 32 38 39 31 24 23 21 17 16 17 21 22 29 32 33 33 31 29 25 22 20 19 22 24 39 52 44 44 41 32 41 48 43 35 34 33 34 38 38 29 25 32 43 38 40 44 56 51 47 56 75 68 52 40 41 34 24 24 27 32 25 24 28 32 30 30 28 25 24 23 23 24 26 26 26 26 24 21 19 19 18 19 19 19 18 20 22 22 22 22 22 25 26 24 26 32 31 26 25 28 35 44 44 35 27 24 25 31 38 37 37 40 37 32 29 34 43 49 51 44 32 28 28 24 22 21 19 18 16 15 17 20 20 20 20 23 27 30 31 33 33 39 44 49 45 37 43 65 84 80 77 89 98 96 86 68 51 50 58 66 70 80 81 75 73 72 73 75 83 75 63 58 57 46 33 27 27 31 34 41 44 56 62 63 67 51 42 42 50 67 75 76 75 55 45 58 69 63 47 43 41 53 62 71 69 66 60 56 56 68 75 89 92 104 116 98 84 80 67 52 48 34 24 25 27 29 29 41 54 62 51 56 56 45 45 45 49 50 44 17 
31 36 30 26 47 66 69 60 52 102 150 137 91 58 50 39 41 60 52 48 46 67 76 78 67 48 36 29 32 32 39 33 23 33 26 31 37 34 22 33 36 25 20 26 22 18 23 30 31 25 24 22 23 20 16 18 18 23 30 31 30 33 37 35 29 26 23 24 25 33 32 43 55 69 61 50 28 35 33 28 31 30 29 31 33 29 26 28 37 39 40 42 39 40 39 52 52 49 42 42 54 38 22 21 27 32 30 23 26 29 29 28 27 24 23 23 23 24 24 25 25 25 23 21 19 18 17 17 17 17 17 20 23 24 24 26 23 21 22 21 24 29 31 28 29 30 37 47 49 38 26 23 25 30 34 36 36 36 32 26 24 27 31 36 37 32 27 24 26 23 23 22 19 18 16 13 14 18 20 19 21 26 29 28 33 40 43 49 50 48 41 31 35 60 79 80 79 98 108 97 75 58 49 54 68 82 98 107 100 90 86 81 75 76 79 70 59 58 55 40 29 26 30 36 47 47 42 42 53 67 71 57 47 48 54 67 74 74 75 58 42 53 63 59 44 39 58 63 63 57 47 48 44 44 57 76 96 98 95 105 96 78 69 64 53 43 50 43 34 32 37 32 28 36 46 54 60 62 59 39 37 57 63 52 56 59 
33 38 33 30 29 44 48 40 41 81 113 116 84 61 55 34 32 38 36 35 54 76 94 71 47 34 28 27 25 29 35 52 45 39 48 46 41 32 26 33 35 31 40 38 33 25 25 34 42 44 35 35 27 26 22 18 20 23 27 27 28 34 41 40 36 28 28 35 30 33 42 49 69 93 100 64 57 31 29 24 23 24 25 27 31 32 29 27 30 31 37 37 32 30 42 45 43 39 37 53 61 39 23 22 25 36 34 28 25 27 26 26 23 22 22 22 23 24 24 25 26 26 23 22 20 19 18 19 18 17 17 20 23 23 26 27 24 20 18 19 22 26 29 33 35 36 38 44 47 39 27 26 28 28 28 27 26 28 25 24 25 23 25 28 27 25 22 24 24 22 21 20 18 18 18 15 15 17 19 19 21 27 29 24 31 43 48 51 47 41 32 25 28 51 69 70 79 96 102 83 62 48 45 54 65 86 107 119 114 106 98 86 80 77 77 67 62 59 53 41 31 28 29 41 49 49 34 37 48 59 65 54 55 56 60 72 75 85 85 66 47 46 55 54 45 48 61 66 61 57 59 55 49 49 56 77 85 79 81 86 77 71 67 61 58 61 69 56 35 32 41 39 33 35 45 53 64 71 64 39 34 62 72 67 64 77 
75 47 40 30 35 43 58 48 52 88 106 102 87 64 48 29 27 28 23 30 47 85 92 63 34 29 27 26 23 23 44 59 75 50 48 48 38 25 26 29 34 39 45 48 32 28 28 42 59 63 63 56 46 35 29 24 20 21 21 22 24 31 35 36 31 33 35 40 51 46 45 50 62 85 100 87 67 65 32 28 22 22 29 26 28 26 29 28 27 25 26 29 30 32 48 51 38 37 40 50 55 34 27 28 28 35 36 33 32 30 29 26 24 24 25 26 28 29 29 28 28 27 24 21 20 20 20 20 19 17 18 21 23 23 23 25 23 20 18 20 23 26 32 37 44 41 36 36 38 34 29 30 30 28 26 23 21 20 21 22 23 23 23 24 25 23 22 21 21 19 19 19 19 20 22 20 17 18 19 19 21 26 26 21 28 41 47 48 40 32 25 22 30 47 58 62 73 90 87 69 54 46 48 56 61 72 91 108 113 114 109 100 95 94 89 80 73 64 54 44 38 34 32 42 52 44 35 38 44 50 51 52 56 64 67 75 79 85 91 67 44 39 38 43 40 48 60 57 62 89 105 109 92 80 86 86 77 70 70 74 69 63 67 60 65 77 73 53 31 27 41 43 38 37 39 44 54 61 53 45 45 67 87 86 78 48 
45 34 27 28 28 50 70 80 81 105 118 108 89 72 47 25 32 25 20 27 58 85 101 70 41 31 37 29 28 22 36 79 87 89 52 53 43 30 29 31 31 35 40 34 26 30 32 37 51 63 73 81 68 50 38 30 23 20 18 20 22 27 31 29 33 34 36 56 70 75 48 45 46 72 81 77 71 69 49 31 26 29 29 29 26 29 27 28 25 21 18 21 26 34 55 54 40 38 36 44 41 28 30 33 29 31 33 37 40 37 33 31 28 28 29 31 34 35 34 31 30 27 23 21 20 20 20 20 18 17 19 22 23 22 21 22 23 22 20 21 24 30 37 42 44 40 32 30 31 29 27 28 27 27 28 26 22 19 19 20 21 22 22 22 25 26 24 21 19 18 18 20 20 20 22 22 19 19 20 20 21 23 22 19 27 39 43 43 35 29 23 21 33 48 53 53 62 73 72 64 58 54 57 64 62 59 70 87 103 113 116 115 118 115 102 94 79 64 51 42 41 41 38 42 46 40 38 39 41 45 48 48 58 70 75 76 71 72 69 57 40 42 34 28 28 44 58 51 67 107 142 157 144 135 128 119 100 76 68 62 56 55 48 45 57 60 49 36 25 31 47 51 32 30 31 41 47 43 49 43 45 72 94 94 84 50 
16 19 22 23 19 30 70 77 78 95 103 94 78 61 42 32 31 28 19 26 51 78 96 80 45 36 40 47 50 58 55 80 115 100 84 57 47 43 32 30 32 31 31 24 26 34 35 39 40 48 61 75 62 46 37 33 29 26 24 25 26 29 30 31 31 36 39 58 88 95 82 51 46 59 84 58 66 78 61 36 24 21 33 27 29 30 40 32 24 19 16 18 22 33 56 58 47 35 43 33 29 30 33 31 30 30 30 35 40 38 34 33 31 31 33 34 36 36 33 31 28 25 23 22 22 21 20 18 17 17 19 21 22 23 22 22 23 23 23 25 26 31 38 41 38 33 28 28 29 28 26 25 23 24 28 29 26 22 21 20 20 21 20 20 25 29 27 22 19 18 19 22 23 20 21 20 19 20 21 21 20 20 18 17 25 35 36 36 34 33 30 27 35 51 56 53 52 55 63 66 67 62 64 70 69 62 66 74 85 99 107 107 105 100 86 70 58 50 41 33 35 43 44 42 38 36 38 38 43 47 47 45 53 63 74 81 74 69 65 51 48 59 47 28 31 46 55 52 67 103 135 155 154 139 141 136 128 102 74 68 70 60 38 39 42 39 33 25 24 36 51 48 29 14 20 35 41 45 47 48 40 58 74 82 77 75 
54 32 24 24 23 41 54 58 57 58 71 67 46 47 36 29 29 21 16 22 34 58 79 74 46 35 57 72 91 95 98 83 82 87 60 47 47 38 34 28 34 36 29 29 27 32 37 40 41 40 47 47 39 29 30 33 33 34 33 29 28 30 30 27 35 34 42 61 82 100 96 78 55 60 67 65 60 93 56 41 36 44 42 42 34 39 43 44 27 19 16 17 22 37 62 64 61 61 43 43 36 43 41 35 32 32 29 30 33 31 30 32 32 32 33 33 32 31 29 28 26 23 22 22 23 22 20 17 16 17 18 19 20 22 24 23 23 23 27 30 30 29 34 36 32 28 27 28 30 30 29 26 23 21 24 28 28 25 23 21 20 20 18 18 23 27 25 21 19 19 19 25 28 24 21 20 19 20 21 20 19 18 16 16 22 29 31 31 32 38 39 34 35 46 54 54 52 52 60 66 60 53 59 74 87 91 90 83 76 81 86 78 70 66 56 47 38 38 36 28 29 40 46 44 39 39 38 42 55 58 50 45 43 49 59 77 79 67 62 54 55 71 58 45 54 58 54 53 65 87 113 120 109 102 113 123 134 120 92 85 82 59 43 35 38 34 31 32 32 33 46 46 25 12 22 37 38 46 56 48 45 52 54 73 67 41 
46 36 39 29 35 42 50 41 42 53 55 48 38 34 34 31 25 15 18 18 31 48 64 63 57 65 70 80 83 85 85 71 52 48 44 37 35 36 26 25 31 33 28 27 24 27 31 31 32 33 34 32 25 25 29 36 35 38 40 33 27 27 30 33 35 52 55 59 62 81 94 89 70 64 64 62 72 95 71 61 68 60 55 42 34 26 42 38 27 21 19 18 22 38 51 57 59 65 58 40 46 48 44 33 32 32 30 29 28 26 26 29 30 31 32 30 29 27 26 25 24 21 20 21 23 22 20 16 15 16 17 17 17 19 22 22 21 23 29 34 33 29 30 33 30 29 30 31 32 32 30 27 24 23 24 28 29 27 24 21 21 21 19 19 21 22 20 20 22 20 19 26 30 26 23 21 19 20 20 18 17 18 17 17 20 27 31 31 30 36 42 40 35 39 46 47 48 51 59 57 47 39 48 68 91 110 117 105 89 80 74 63 54 53 48 45 39 39 38 32 31 42 49 45 42 41 39 50 69 68 52 46 43 41 49 65 68 56 48 45 47 64 54 56 69 63 57 57 85 108 123 108 88 91 88 88 96 95 96 92 79 54 38 40 37 37 37 30 26 28 32 38 29 26 27 39 36 31 35 39 59 52 56 65 77 54 
43 47 52 39 34 42 33 38 52 64 59 44 36 31 30 36 31 23 22 40 45 60 82 81 89 96 86 57 49 48 49 47 34 34 34 35 34 30 27 22 29 31 31 28 30 32 29 30 25 29 33 39 30 31 38 34 34 34 37 32 28 32 38 45 55 56 64 54 51 68 92 93 83 68 62 67 76 102 87 76 78 55 30 30 28 26 31 37 23 20 21 22 27 37 37 30 47 53 54 43 41 52 37 30 31 31 30 28 26 24 24 26 27 29 30 29 28 27 25 24 24 22 21 21 22 21 19 17 16 16 17 16 14 16 19 21 22 27 35 37 32 28 29 32 30 30 32 32 34 32 29 26 26 27 29 31 30 28 25 23 23 22 21 20 20 18 17 22 27 22 20 24 26 23 21 20 19 19 19 18 17 18 18 19 22 29 37 38 36 39 45 49 43 43 47 43 40 40 44 45 38 31 36 51 73 98 112 112 106 94 83 72 63 59 57 50 43 39 38 34 35 45 51 44 40 38 40 59 79 71 52 46 43 42 50 55 58 59 53 47 49 56 47 57 66 54 56 87 115 135 131 109 90 89 92 64 49 56 78 85 75 57 47 42 39 37 36 29 22 24 26 34 39 37 48 54 33 21 18 53 64 65 59 72 66 44 
61 54 54 40 37 35 28 38 62 67 60 42 32 25 29 39 44 45 46 57 72 91 86 88 94 92 81 61 40 38 41 32 28 27 27 31 34 30 26 28 37 41 32 35 30 29 30 25 27 28 42 52 55 51 49 42 27 25 26 27 30 36 51 50 45 59 59 57 63 68 84 91 78 65 71 78 78 99 83 60 50 30 21 30 30 26 35 36 28 25 22 28 40 41 34 27 35 57 47 42 46 49 44 32 31 33 29 28 24 24 22 24 25 27 28 27 26 27 26 24 24 24 22 20 21 20 20 17 18 19 20 17 15 14 17 19 26 35 43 38 30 25 27 32 30 30 29 32 40 35 30 28 29 31 33 33 31 28 25 24 23 22 21 21 20 17 16 24 28 23 21 22 21 18 19 19 19 21 20 18 18 18 18 21 24 31 41 45 46 47 54 58 55 55 55 47 37 33 35 38 37 32 30 37 54 66 77 86 99 104 100 94 82 70 63 52 40 34 33 31 33 45 53 48 43 39 49 70 80 63 53 48 50 45 44 45 52 63 71 71 63 58 54 55 59 51 64 90 113 111 117 103 88 94 78 54 38 34 50 67 71 63 52 42 30 27 31 22 20 20 21 22 34 44 65 78 55 22 37 60 80 73 72 77 69 55 
29 41 45 48 46 37 33 37 52 57 48 40 27 25 25 40 56 55 48 64 81 75 71 51 46 55 59 58 44 37 36 36 28 21 29 37 37 37 39 45 56 52 40 34 32 29 26 30 24 27 34 50 50 49 45 34 26 23 25 25 27 35 39 39 33 38 57 62 54 53 60 84 81 66 67 79 72 83 84 47 29 29 40 40 30 24 29 36 32 30 29 39 50 44 29 30 44 59 58 43 42 51 47 37 33 32 31 27 24 21 20 23 25 26 26 24 23 24 25 25 25 24 20 17 17 18 17 17 18 21 22 20 16 14 15 21 27 38 44 38 27 24 27 31 31 29 31 43 51 43 34 32 34 34 33 32 31 27 24 23 23 22 22 22 21 18 18 25 28 24 21 21 19 18 18 18 20 23 23 20 19 19 21 24 27 32 38 44 46 51 58 63 64 65 64 53 39 34 32 33 35 32 32 38 44 52 55 60 72 81 91 95 83 66 54 44 29 27 28 28 34 54 63 58 51 47 58 70 62 53 53 69 65 52 39 32 43 66 82 90 73 61 48 50 56 71 85 91 86 82 97 104 87 69 62 57 53 49 52 62 69 66 57 43 27 24 28 27 17 18 19 25 33 53 67 82 69 38 53 82 83 75 81 79 70 99 
49 39 51 55 60 42 27 39 57 52 42 36 28 25 31 40 53 77 55 54 62 54 35 22 19 23 36 46 37 29 33 36 31 30 53 58 56 50 50 51 55 45 33 32 33 29 30 31 29 23 29 40 42 42 36 26 24 25 25 26 29 31 31 30 32 31 40 50 54 33 53 89 92 72 78 75 58 77 93 57 43 41 47 46 30 22 26 26 28 28 29 36 50 36 22 23 38 54 50 43 39 45 47 42 36 33 32 32 27 21 19 23 26 26 24 22 20 21 23 24 26 25 21 17 16 15 15 14 16 19 22 21 19 16 18 22 29 36 41 36 29 26 28 30 30 32 40 55 57 41 33 34 38 39 35 33 31 27 24 23 22 22 22 21 21 20 22 29 29 26 23 20 19 18 18 18 22 26 25 21 20 22 25 30 30 32 37 40 41 49 56 57 60 64 59 53 42 34 31 27 26 30 37 41 44 50 58 57 48 46 55 65 61 49 42 30 24 23 28 37 53 67 65 56 50 46 56 62 51 43 65 83 84 56 34 32 46 65 86 90 77 61 56 59 79 100 107 91 71 69 94 101 79 58 57 60 60 57 51 51 59 59 60 48 28 20 27 26 17 21 33 45 62 69 66 70 66 62 83 92 84 78 83 70 69 75 
59 55 50 66 65 43 29 42 75 77 46 40 37 37 39 44 66 94 73 46 40 27 19 21 22 14 26 40 37 37 36 41 36 43 67 65 51 43 37 35 35 33 32 34 32 28 29 32 26 25 28 36 43 41 35 27 24 27 26 25 37 42 31 31 33 27 30 46 55 46 58 82 88 91 95 82 57 67 91 80 52 36 36 34 25 29 33 26 28 33 24 32 42 33 18 24 32 44 42 36 35 38 39 39 36 33 33 35 30 23 21 25 27 26 23 21 20 19 20 21 23 24 22 20 18 18 17 16 15 18 21 21 20 18 21 25 30 34 37 35 32 28 26 29 29 36 51 65 55 37 30 33 35 36 33 33 33 29 26 24 23 22 22 21 20 21 25 30 29 29 24 19 18 17 17 19 24 26 24 21 20 23 29 32 32 37 46 50 45 52 56 52 50 51 49 49 43 34 29 25 21 28 43 42 39 44 53 51 36 28 31 37 40 39 36 32 23 23 32 48 67 69 52 40 41 49 59 59 53 47 58 73 74 56 37 35 50 65 75 88 84 76 84 84 94 109 94 73 58 57 74 85 74 69 80 75 61 54 47 35 37 53 60 41 26 19 26 28 25 42 66 73 78 85 74 62 71 95 97 88 72 76 74 73 55 48 
59 57 58 61 70 64 45 50 81 91 54 45 51 53 52 55 68 104 86 43 26 23 26 28 27 23 28 40 40 43 49 47 39 42 54 47 38 37 33 30 32 35 37 34 31 30 32 32 29 25 34 39 37 40 32 25 29 30 28 31 40 45 38 28 27 23 26 43 53 59 57 58 68 82 91 75 50 57 85 68 53 32 28 30 30 37 36 33 32 37 38 34 49 37 31 30 42 44 36 33 31 29 33 33 33 33 32 33 29 25 22 25 27 26 24 23 21 18 17 16 17 19 19 18 18 19 19 18 17 19 21 21 20 20 23 28 30 32 33 34 33 29 27 26 31 41 57 65 51 34 32 32 31 29 28 29 30 28 26 26 24 23 23 22 20 21 26 29 27 29 24 18 19 19 20 24 28 27 22 20 21 25 30 32 32 40 54 57 47 51 56 50 45 43 43 45 42 33 28 28 24 31 46 39 31 34 43 45 36 28 28 28 27 30 32 25 22 25 35 52 69 67 40 32 41 54 65 70 61 44 44 48 54 52 40 39 51 59 69 89 95 97 95 91 93 88 77 72 64 60 61 67 64 74 91 78 76 65 49 34 34 51 56 35 22 35 39 39 43 60 86 85 69 74 72 64 80 97 84 55 49 64 68 63 47 32 
81 82 73 66 77 84 64 51 75 78 53 45 50 48 54 53 55 95 86 52 43 35 30 35 33 33 34 34 33 44 52 48 38 36 46 41 49 52 45 40 37 39 38 30 30 38 40 38 37 32 41 47 41 40 31 27 30 31 27 24 28 33 28 27 25 22 22 23 38 51 49 54 61 67 81 65 70 73 73 65 46 27 30 38 32 35 44 28 34 51 44 41 48 46 32 37 40 45 39 30 28 28 27 31 33 35 34 32 27 24 23 24 25 23 22 22 21 17 15 14 15 16 17 18 19 20 21 21 19 19 21 22 22 22 25 29 31 31 30 32 33 29 25 26 31 42 53 54 43 34 34 35 34 29 25 25 24 23 24 25 25 24 24 23 20 22 28 28 24 27 23 20 21 23 24 28 30 28 23 22 22 24 28 29 30 39 53 55 44 49 58 56 47 44 46 46 42 33 30 33 31 35 44 32 24 29 41 49 46 38 36 34 31 32 31 26 25 33 46 58 66 66 44 32 44 59 75 82 69 44 39 42 47 47 38 39 50 61 76 97 112 105 103 100 92 86 77 77 79 64 54 64 59 61 66 70 67 71 57 37 38 56 60 41 36 45 62 54 41 55 65 65 57 58 61 58 79 92 69 42 48 61 67 56 46 33 
78 113 112 92 94 86 76 65 58 63 50 40 40 43 42 50 42 68 74 54 54 48 47 44 41 36 42 34 27 44 46 38 29 34 45 47 53 50 43 36 34 33 30 26 31 43 44 43 46 46 47 48 46 39 33 26 30 32 31 30 26 26 32 26 21 20 21 18 30 46 57 65 73 84 82 87 84 87 77 65 52 31 33 39 35 37 39 35 42 55 53 36 47 47 38 32 34 36 35 32 27 26 32 29 31 33 34 33 27 24 23 25 24 22 20 21 21 18 15 14 15 16 17 18 18 19 22 24 19 18 20 23 25 25 27 30 32 31 29 33 32 28 25 24 29 40 45 43 37 38 37 36 37 32 26 23 21 21 22 24 25 23 21 21 20 23 29 27 23 26 27 26 25 24 25 28 27 26 26 24 21 22 26 27 30 39 50 53 48 53 61 60 50 46 49 50 48 41 34 37 36 40 44 27 20 26 37 53 53 43 38 38 38 41 40 34 32 39 56 63 60 56 41 34 46 66 90 94 74 49 40 47 48 42 32 34 46 66 90 119 129 131 126 112 102 89 84 84 84 63 58 77 65 48 48 43 64 71 64 55 51 59 65 58 41 52 67 55 43 41 48 49 55 55 47 55 90 106 79 70 70 74 64 59 50 48 
107 140 130 108 84 85 77 73 68 66 52 49 39 35 47 43 44 66 63 50 48 56 52 48 39 39 40 35 41 46 37 26 20 26 30 36 35 33 31 31 28 22 19 20 31 44 40 42 50 51 56 50 40 38 30 28 31 38 37 31 33 40 39 32 22 18 18 21 30 49 56 64 89 82 88 71 68 65 63 73 65 40 40 38 33 36 36 34 45 55 41 33 42 45 33 26 27 30 31 28 24 28 30 30 28 30 32 33 28 24 23 26 26 22 20 21 22 18 15 15 15 17 18 17 16 17 23 24 20 17 20 24 26 26 29 31 31 31 33 38 33 27 24 25 28 37 40 37 37 41 38 37 35 33 28 24 22 22 22 23 23 20 19 20 19 23 28 27 24 26 30 30 27 22 22 24 23 24 27 25 21 22 27 29 34 43 50 52 50 53 57 53 49 48 52 57 61 52 42 42 42 47 46 26 19 22 31 46 54 45 38 40 43 45 40 34 33 39 59 70 61 46 31 32 50 72 104 107 80 56 50 49 48 37 29 33 49 78 114 137 155 151 142 121 100 93 86 87 77 62 64 79 61 42 32 34 51 55 60 56 51 60 70 74 62 57 67 50 38 40 42 45 55 51 38 66 115 118 96 85 80 76 64 52 61 94 
150 152 129 106 98 81 82 91 82 78 75 62 51 50 38 39 37 71 60 37 38 31 32 30 24 29 38 42 46 45 31 18 20 17 25 26 30 30 26 29 23 16 13 13 28 39 46 42 52 64 68 54 42 32 26 24 33 36 34 32 39 49 52 34 24 20 19 20 36 58 48 60 72 74 61 44 41 54 64 79 67 49 46 40 33 34 33 30 45 42 32 30 49 45 29 25 25 29 27 26 23 21 24 23 24 27 30 31 28 23 22 26 28 23 20 21 22 19 15 15 16 17 19 19 19 23 29 28 22 18 20 22 25 26 30 30 30 32 38 42 35 26 25 24 29 32 35 31 34 36 38 32 33 31 28 26 24 22 21 22 21 19 19 20 20 21 27 30 26 25 27 28 24 21 21 22 22 25 26 25 23 24 29 32 40 46 47 51 52 56 50 46 47 56 59 63 67 58 47 46 52 55 47 30 25 23 25 36 49 50 45 45 46 44 36 31 34 37 54 72 62 49 33 33 50 82 111 113 85 69 69 61 45 37 38 52 72 101 135 148 149 145 135 119 100 88 76 62 58 45 53 70 48 34 34 31 30 37 39 42 53 72 90 92 79 63 64 48 32 33 35 45 64 57 54 84 129 121 97 102 94 89 80 63 61 97 
129 125 109 103 110 102 96 102 99 91 96 92 72 68 58 38 55 69 65 44 35 29 25 23 24 28 32 33 35 33 20 21 18 22 26 36 47 51 39 35 31 21 14 16 20 36 39 41 47 63 67 54 41 33 26 26 28 39 32 31 55 51 59 52 24 22 21 26 42 54 51 48 66 62 48 32 48 65 74 75 62 48 56 39 30 36 28 32 50 45 30 43 55 52 35 31 30 31 31 29 22 17 16 16 21 27 30 31 27 22 21 27 29 25 21 22 22 21 19 17 17 19 20 20 23 31 35 33 24 20 19 22 23 25 28 28 27 30 36 41 33 26 24 29 28 29 27 27 27 29 29 28 28 28 27 26 23 21 23 22 22 20 21 23 20 19 26 31 30 26 27 26 23 22 23 26 26 28 27 27 28 30 32 37 40 42 43 54 64 66 56 42 49 56 58 62 64 54 48 52 57 59 49 35 32 31 26 29 41 52 51 46 45 40 28 28 32 33 37 45 51 44 37 42 57 87 121 104 76 72 71 69 45 42 71 89 101 117 125 124 105 98 96 88 80 75 59 46 44 42 53 63 40 36 36 30 30 40 35 34 55 89 104 100 80 58 54 49 41 31 41 61 78 83 85 105 122 105 107 114 123 124 115 97 63 38 
120 109 90 105 123 106 93 109 110 110 119 108 90 77 68 72 70 83 71 53 45 29 26 23 23 23 22 22 21 19 22 20 23 22 30 41 55 57 49 41 37 25 22 22 23 29 30 29 33 45 47 38 35 32 29 27 35 40 37 40 41 54 61 69 38 24 23 23 33 48 45 43 55 46 35 38 53 75 76 62 46 45 55 56 35 39 33 42 67 56 47 49 60 51 43 37 34 38 38 30 21 16 12 14 18 27 33 34 29 25 24 27 28 25 22 23 23 24 22 21 20 21 20 19 22 30 34 33 28 23 20 20 22 23 25 24 24 27 34 38 32 25 27 30 30 26 25 25 24 24 25 23 24 24 23 22 19 19 23 24 22 21 23 23 20 19 23 30 31 30 30 28 25 25 26 26 28 29 28 32 37 37 38 39 37 34 39 59 75 75 53 39 42 49 52 60 64 58 53 57 62 63 49 37 34 37 37 33 37 46 47 45 44 37 25 25 33 35 30 28 33 38 42 46 74 105 124 106 70 64 72 73 59 68 100 122 124 114 110 90 80 77 74 67 66 66 57 50 49 46 65 68 39 32 30 28 39 52 47 42 57 95 112 88 75 56 48 44 39 39 51 67 80 79 92 102 89 76 82 113 116 112 128 112 79 59 
145 100 92 117 131 102 90 115 114 118 121 107 88 75 75 87 87 93 76 73 47 31 20 21 20 21 20 18 17 18 22 23 17 21 31 27 26 27 21 22 19 22 17 18 25 26 28 24 28 31 30 27 28 28 27 30 38 46 38 32 44 32 59 71 48 36 29 22 27 38 42 43 41 40 31 33 55 70 70 54 29 34 58 61 57 41 39 55 73 61 45 51 46 43 43 42 37 43 40 30 21 16 17 16 18 24 29 29 26 24 24 25 26 24 23 24 24 24 23 21 21 24 24 21 23 26 27 28 29 26 20 19 21 23 25 23 23 27 34 36 32 28 30 31 27 24 24 24 24 25 25 24 23 22 21 19 17 19 24 24 21 20 21 20 19 18 20 25 29 31 31 28 27 28 26 24 24 25 27 34 44 45 44 41 38 36 42 60 74 69 46 37 44 52 59 70 74 66 61 61 69 68 50 36 34 41 49 45 38 41 45 49 50 40 25 24 31 36 31 29 33 35 41 53 86 124 129 105 84 83 98 99 92 87 112 127 128 122 112 110 103 94 90 76 67 71 61 51 42 44 61 68 40 30 34 28 35 49 51 56 75 116 134 95 71 57 42 32 28 32 45 63 53 55 80 83 59 52 74 93 96 90 116 120 96 55 
117 85 85 98 118 98 87 102 109 102 109 108 85 77 75 84 93 79 76 55 43 21 19 18 17 18 19 19 18 18 21 18 19 28 38 35 28 24 18 20 26 32 29 21 18 23 26 30 33 30 26 24 23 23 25 33 51 57 50 48 54 51 48 62 47 45 35 21 23 28 37 38 48 45 38 34 47 59 61 43 25 21 37 57 55 46 45 68 72 53 43 41 42 46 57 58 58 48 40 28 17 21 19 18 19 21 23 22 19 20 22 23 24 24 24 25 24 23 22 18 19 23 27 25 24 22 21 24 28 28 22 20 22 24 26 24 25 29 33 34 32 32 33 31 25 23 24 24 25 26 26 24 24 22 21 20 19 21 24 23 20 19 20 19 18 19 19 23 25 28 29 27 29 31 27 23 21 23 26 35 47 49 43 39 38 42 51 63 69 61 47 49 62 69 75 81 80 74 69 67 75 75 54 37 34 43 52 48 38 36 41 48 50 40 27 22 29 36 35 37 39 33 30 53 92 127 132 113 103 122 128 129 109 99 110 121 134 130 136 138 125 108 88 74 69 64 60 48 38 29 49 63 36 40 48 46 45 58 62 69 86 127 156 109 70 58 41 29 24 25 38 44 34 40 69 75 62 70 82 101 102 101 130 147 114 81 
95 80 75 89 91 90 81 92 78 88 103 103 93 64 65 81 84 82 53 39 29 22 19 19 17 17 18 19 20 19 21 19 28 39 47 51 50 45 35 25 30 37 31 20 15 19 28 41 52 44 32 26 24 25 27 38 61 83 71 71 79 76 61 49 44 44 37 23 21 27 31 41 54 51 39 38 34 35 41 33 19 19 25 46 53 58 61 77 71 46 38 41 46 54 62 71 61 54 32 20 21 18 21 19 19 21 24 23 21 20 21 22 25 25 25 25 25 24 22 19 19 22 25 26 24 22 21 25 29 31 25 22 23 25 27 25 25 29 32 32 32 31 30 26 24 24 25 25 26 27 25 25 25 22 20 20 21 22 22 21 19 19 20 19 20 20 21 25 25 23 24 25 28 31 27 23 21 22 26 33 41 42 34 30 32 42 58 70 66 55 54 69 78 81 82 80 76 73 65 64 72 79 64 45 38 42 48 44 36 31 33 40 43 36 27 23 27 34 35 40 41 29 29 44 92 121 130 122 116 134 141 124 113 98 115 133 141 142 143 149 132 97 73 61 52 53 50 46 39 27 45 62 45 55 58 54 59 57 61 65 70 119 149 107 62 51 40 29 25 26 36 51 44 42 71 79 69 80 78 90 95 117 143 139 109 65 
87 87 89 71 82 79 75 71 76 80 97 106 93 69 61 67 77 77 48 33 30 25 24 22 20 19 19 19 22 24 24 30 34 42 46 41 42 36 24 19 15 22 16 14 19 15 22 45 53 49 42 36 29 30 36 51 70 96 103 95 88 77 68 46 34 38 38 28 22 23 26 41 51 47 40 39 33 19 25 24 20 22 28 41 61 60 70 75 64 45 39 51 50 52 59 60 65 51 36 25 18 22 19 19 20 23 26 27 25 23 23 24 26 25 25 26 26 27 26 25 25 25 25 25 25 24 23 24 28 31 27 24 24 26 30 28 27 30 33 33 32 28 24 23 24 25 25 24 25 25 24 24 24 21 19 20 21 20 20 20 20 19 19 19 20 21 24 29 26 21 21 21 24 28 26 24 22 22 26 29 29 27 23 22 25 33 52 69 63 50 60 78 83 81 79 76 74 73 66 58 64 75 73 60 48 46 45 42 35 30 31 37 40 34 28 25 28 32 32 37 38 29 26 47 87 114 121 116 107 108 116 114 107 109 124 145 149 135 136 129 110 83 57 43 44 45 49 49 45 41 49 65 61 62 59 53 48 50 45 53 70 102 138 112 66 46 38 30 28 32 42 61 54 48 63 72 73 78 69 65 92 104 128 117 78 32 
98 105 91 75 67 64 51 54 59 69 77 77 70 63 55 47 55 53 40 30 29 29 36 28 21 18 18 17 21 27 33 32 39 47 53 52 47 35 27 21 15 11 17 28 32 27 29 41 47 49 51 47 37 38 55 62 73 110 122 116 99 83 71 60 32 33 42 41 28 22 32 41 55 40 45 40 30 21 18 21 21 23 33 45 53 60 52 59 52 44 53 55 54 47 52 56 61 52 38 30 21 20 20 21 21 21 22 24 25 25 24 25 27 25 25 26 26 28 29 28 26 25 25 27 29 29 25 24 27 29 27 24 23 27 35 35 33 34 37 35 32 29 27 26 27 27 26 25 23 22 23 23 23 21 19 20 20 19 20 22 23 20 18 19 20 21 24 30 28 22 20 20 22 25 26 25 24 23 27 29 23 19 17 20 23 27 43 63 58 49 63 79 81 78 75 76 79 82 79 68 62 67 72 74 66 55 48 40 34 30 31 37 41 34 29 27 34 34 32 35 33 28 29 52 93 107 110 97 75 73 84 99 111 111 115 125 120 108 102 96 90 78 64 45 41 48 48 57 57 48 53 63 58 62 64 51 55 42 40 51 57 87 126 127 89 52 36 30 29 33 46 65 57 52 62 72 78 78 68 76 77 94 103 98 72 44 
76 92 95 70 58 60 45 39 52 68 63 54 49 44 40 34 31 35 27 26 27 36 39 33 19 18 19 18 21 25 28 31 33 45 60 73 71 57 44 33 22 21 25 35 39 34 32 40 42 38 50 49 45 50 58 66 70 101 136 136 115 95 87 64 52 39 55 61 47 31 35 44 52 43 40 47 34 28 26 26 24 25 31 42 52 47 47 46 44 46 51 56 45 39 51 63 55 48 39 31 26 19 18 19 19 18 17 19 23 24 24 24 26 28 28 26 25 27 29 26 23 21 23 27 32 33 30 28 29 28 26 24 22 27 35 39 38 37 38 36 33 33 32 30 28 28 29 28 25 25 26 27 24 23 22 21 20 19 21 25 27 24 18 20 21 22 25 30 32 27 20 21 22 24 25 25 24 24 28 28 22 18 17 23 28 31 48 61 53 50 64 81 82 77 74 71 80 89 88 85 72 61 66 74 72 63 49 37 34 30 31 34 39 36 26 33 39 35 37 33 30 30 33 61 91 91 90 82 69 69 90 101 105 101 92 84 74 70 68 67 71 82 77 58 45 42 54 61 56 46 43 58 50 59 58 66 54 51 55 65 72 84 128 148 109 66 40 31 29 38 50 67 65 65 82 98 96 92 83 81 81 85 94 104 84 75 
70 84 87 70 59 47 40 35 40 49 52 41 36 33 33 34 39 32 28 25 26 26 32 21 18 18 18 18 22 24 24 28 38 53 66 78 87 69 48 36 43 40 32 31 29 26 32 41 42 46 45 51 63 61 53 47 47 82 110 138 129 88 72 73 64 69 80 89 72 59 53 60 65 63 64 58 52 38 30 26 23 22 25 36 36 39 43 53 51 40 47 42 30 39 58 57 52 36 32 34 25 21 19 18 18 16 16 18 22 24 24 25 27 33 36 31 25 26 28 27 23 21 22 24 29 31 29 33 31 27 24 22 21 23 30 32 31 31 33 33 33 34 34 30 31 33 33 31 28 27 30 29 26 24 23 23 20 20 21 26 30 27 21 21 21 22 24 30 34 31 26 23 22 23 26 26 28 29 31 28 21 19 22 24 29 38 57 67 54 51 67 81 86 77 73 79 83 92 99 93 81 61 52 59 58 51 44 37 31 33 33 32 34 30 29 37 45 40 37 38 35 34 43 65 82 69 76 71 77 105 112 105 91 96 78 61 53 49 49 44 55 68 68 51 41 39 48 58 43 35 47 53 58 57 62 57 54 59 73 90 87 88 122 133 112 78 55 45 43 57 70 75 73 69 86 94 97 86 79 79 82 78 88 92 81 63 
90 86 95 87 62 52 38 40 43 35 32 31 33 40 44 60 59 60 49 30 26 23 21 19 19 18 17 17 20 25 26 35 51 68 76 92 94 77 52 49 51 52 38 26 29 36 45 60 66 67 62 67 76 76 55 37 33 50 89 122 133 98 60 57 61 63 75 85 92 71 72 68 78 70 66 63 43 28 21 22 20 25 31 34 33 30 43 54 62 44 31 31 32 42 54 52 36 27 30 30 24 21 20 19 17 17 17 19 21 23 24 24 28 37 42 37 31 28 27 27 26 24 24 23 24 25 27 31 37 31 24 22 20 23 25 27 26 27 29 33 35 35 33 33 33 34 33 31 28 27 28 27 25 24 25 24 22 22 24 26 30 29 23 21 20 22 25 27 32 34 31 30 26 26 29 31 35 39 35 26 19 19 21 24 26 34 60 68 54 52 62 74 78 77 85 89 89 90 87 85 73 54 44 40 35 36 36 35 40 41 40 33 30 30 32 46 51 45 45 42 42 43 49 71 82 71 76 81 99 129 131 95 87 88 70 49 35 35 31 38 54 60 62 45 31 38 43 48 45 48 47 54 55 62 71 69 66 72 80 80 74 68 75 93 96 87 88 81 79 77 75 76 63 61 68 75 78 71 72 89 83 72 64 72 74 70 
73 71 93 101 78 48 44 53 62 46 29 32 40 46 59 63 76 68 56 46 26 22 20 22 20 19 19 19 21 25 30 39 53 75 93 102 117 98 72 56 58 52 47 39 26 33 41 55 69 64 64 69 88 83 69 60 47 44 65 112 129 103 68 49 37 37 37 43 48 42 30 36 35 35 35 38 31 19 20 22 22 24 29 31 30 30 35 54 65 55 34 27 29 36 40 32 25 25 30 29 23 21 21 20 19 20 20 20 22 23 23 22 23 29 33 32 31 30 26 25 24 25 25 24 26 26 25 33 46 42 26 21 20 23 26 27 25 24 27 32 35 36 35 34 32 30 29 29 30 29 27 25 24 24 25 25 24 24 25 26 30 32 27 22 20 23 26 26 27 31 33 34 32 32 33 33 39 44 39 27 19 18 21 23 21 27 52 63 51 50 55 58 65 77 98 108 100 90 80 69 61 49 42 35 27 25 27 38 47 45 39 32 30 37 43 59 55 49 48 46 48 49 55 75 81 71 75 79 97 118 99 74 71 71 50 34 29 34 35 40 50 60 59 50 39 34 45 49 58 70 71 61 54 68 80 82 89 94 79 64 55 38 50 64 84 116 122 121 107 88 67 66 58 62 68 61 61 68 75 81 76 58 59 69 74 75 
51 57 93 117 99 65 39 47 58 43 26 26 31 49 50 51 57 56 44 35 23 20 23 24 21 19 19 20 21 24 31 41 51 70 93 116 125 121 98 76 75 81 86 84 50 28 32 42 51 52 49 62 81 90 99 93 79 71 77 97 110 100 72 59 50 44 41 32 35 28 26 30 38 25 24 33 26 19 18 20 17 18 22 25 27 32 38 44 62 59 40 29 25 24 23 21 21 23 26 25 23 21 22 21 23 23 23 22 22 22 22 21 22 25 27 28 30 30 26 24 24 25 25 26 28 29 27 36 55 51 29 23 23 24 26 27 25 23 24 28 32 34 36 34 32 28 26 27 28 28 27 26 24 24 25 26 25 24 24 26 30 34 32 25 23 27 30 29 27 29 32 35 35 35 32 29 34 40 40 32 23 21 23 22 22 25 43 51 44 44 47 49 57 76 100 115 114 102 85 65 55 50 46 37 28 23 25 40 49 41 33 32 34 43 58 58 57 47 41 40 46 49 59 66 66 53 56 60 73 87 73 54 62 57 37 36 43 53 60 59 50 51 60 63 55 49 45 47 64 88 87 80 74 73 76 75 76 77 64 48 44 37 32 49 86 111 131 143 124 101 83 72 70 74 70 70 74 79 79 74 61 57 59 62 67 57 
43 45 78 112 109 79 52 36 43 35 27 27 41 41 47 46 54 60 58 42 27 18 21 24 21 21 22 22 20 24 37 43 54 71 83 100 115 123 112 100 92 98 122 110 82 48 30 31 42 47 42 55 74 84 100 105 93 92 91 87 88 77 74 73 65 64 54 35 35 30 26 37 35 31 23 23 24 17 16 18 16 18 21 24 26 33 41 34 44 41 31 25 21 19 19 19 19 20 21 21 21 20 21 22 23 23 22 21 20 21 22 21 21 23 25 28 31 32 30 25 25 26 26 27 29 31 31 36 54 50 28 25 27 25 24 25 24 23 23 25 28 32 33 35 32 29 27 25 24 25 26 27 25 24 25 26 26 25 25 25 27 31 33 29 27 30 34 32 29 31 31 32 33 33 29 26 29 36 40 36 28 23 23 22 23 27 36 38 31 33 43 49 54 67 83 93 96 89 72 57 48 46 43 37 30 25 30 43 49 38 36 41 47 52 55 60 52 44 39 37 45 51 56 57 49 36 34 40 50 62 65 64 67 54 44 50 56 70 83 79 68 56 63 68 63 60 49 53 80 90 84 75 73 86 81 63 56 49 39 34 39 40 37 48 70 88 109 117 110 94 96 79 75 81 84 86 87 85 73 59 54 48 49 41 38 28 
18 49 74 91 98 93 72 49 40 43 37 43 38 48 39 24 40 55 58 50 24 17 19 22 21 25 26 23 21 29 44 58 60 74 85 81 96 104 106 94 85 84 96 110 80 62 40 36 47 50 48 49 60 65 82 88 76 82 83 73 64 67 79 87 76 79 64 44 38 43 26 29 35 24 21 24 22 20 18 17 20 21 21 21 22 29 38 42 39 38 28 22 19 19 18 19 19 20 22 24 22 19 19 21 20 20 19 18 18 19 22 21 24 26 28 32 36 39 37 31 27 28 29 29 30 32 32 36 47 45 29 28 31 29 27 26 24 22 21 23 28 31 32 31 30 28 27 25 23 23 25 25 24 24 24 26 26 26 25 24 24 29 34 31 29 31 34 34 32 34 35 37 38 38 33 27 27 33 41 39 31 27 27 28 27 31 35 32 26 33 51 58 63 71 79 78 71 62 53 43 40 37 37 35 31 27 29 41 39 33 39 52 61 62 57 57 54 49 46 41 43 50 56 46 35 28 24 26 29 44 62 64 66 50 41 45 50 64 76 78 68 60 53 56 55 49 50 58 87 101 81 61 73 96 92 67 51 42 33 36 45 48 56 65 72 71 88 107 87 92 97 97 81 86 90 88 87 82 65 57 50 48 33 33 45 22 
94 87 87 85 74 83 71 57 55 48 45 34 36 30 35 21 20 48 44 31 18 18 20 23 24 27 26 23 23 32 49 55 64 74 84 87 87 103 95 86 67 62 79 78 78 60 55 47 48 54 44 40 47 63 70 75 66 69 63 60 57 71 90 99 87 79 71 49 45 47 36 31 28 24 21 23 29 23 15 17 22 26 26 23 22 25 32 38 46 47 32 24 21 19 20 19 20 21 25 30 27 19 19 20 19 19 19 18 18 19 20 24 27 29 30 30 32 35 37 34 32 35 35 31 28 29 31 34 42 43 34 33 35 35 33 30 24 21 24 29 31 30 29 25 25 23 22 23 24 24 23 22 23 22 23 23 24 25 25 24 23 28 34 31 29 30 35 36 33 35 39 46 48 48 41 31 27 32 42 43 36 33 38 40 41 39 34 30 30 39 52 60 64 75 87 81 63 56 52 41 37 33 31 31 27 25 31 36 34 33 42 55 66 62 54 54 56 49 47 41 41 53 61 51 36 30 27 26 29 48 58 67 66 49 35 38 45 54 60 56 51 45 44 46 44 45 41 50 80 90 80 63 73 102 90 63 50 43 47 52 54 62 67 78 76 62 78 95 82 86 112 103 100 103 85 82 88 71 63 51 59 54 39 52 63 66 
103 96 89 70 71 66 68 66 63 56 43 33 26 31 24 23 49 48 40 23 20 20 23 27 26 27 26 23 23 27 41 46 57 66 67 72 81 83 90 76 61 66 66 73 60 66 65 59 47 47 49 48 61 60 73 65 65 63 60 58 61 74 113 115 84 85 83 72 55 53 39 34 33 22 23 25 29 22 15 15 21 26 31 28 23 22 21 25 39 42 41 29 20 20 19 20 18 18 23 28 29 21 21 21 21 20 20 21 20 20 22 23 25 26 25 25 25 26 30 34 35 38 38 33 28 29 29 32 37 38 35 33 35 36 34 28 29 35 32 36 35 28 24 23 21 20 18 20 23 24 23 21 20 21 21 20 21 24 28 25 23 26 32 33 30 30 33 32 30 31 38 48 48 49 45 34 31 34 43 43 35 34 41 50 52 40 34 28 29 37 42 43 50 63 80 72 58 57 57 47 36 29 29 29 24 25 36 38 35 32 39 49 57 53 46 58 58 45 43 39 37 49 55 46 41 37 35 38 55 70 77 75 71 58 49 50 61 63 55 44 45 42 42 47 46 47 44 46 57 69 75 77 82 97 84 62 46 36 39 52 50 46 60 68 73 63 74 84 85 91 100 103 134 120 95 96 90 87 61 56 72 69 59 62 70 59 
95 107 76 61 57 71 64 79 79 62 51 34 34 40 39 55 63 63 36 22 24 25 28 30 29 29 26 24 24 23 25 41 49 61 57 52 66 80 74 64 72 66 75 70 73 70 76 61 46 51 60 58 58 65 49 58 65 62 63 57 50 85 126 114 74 69 88 89 61 48 35 35 36 28 29 33 28 20 16 15 19 25 29 33 32 27 21 17 26 34 35 33 24 18 20 18 17 17 15 25 25 23 21 23 22 21 21 22 21 20 21 22 23 23 23 23 22 22 25 31 35 35 37 33 29 30 35 32 32 34 35 34 32 32 30 40 59 49 47 38 30 26 23 22 22 21 19 19 21 24 22 20 19 19 20 19 20 26 30 28 24 25 30 32 31 30 31 31 31 33 40 42 40 41 42 38 33 35 39 36 29 28 36 49 52 46 33 28 31 34 33 36 42 51 58 55 45 50 55 46 38 32 34 36 32 36 38 39 33 33 37 42 50 48 50 64 63 49 42 42 37 34 35 31 29 35 44 64 91 103 90 83 76 68 68 77 81 81 63 50 53 55 51 52 49 49 53 43 44 59 80 96 97 92 81 80 55 29 31 39 31 32 47 57 67 76 76 88 95 88 81 107 145 129 104 95 113 93 68 66 69 71 67 84 77 50 
169 116 75 50 59 77 87 88 81 61 42 37 41 56 68 84 86 64 47 32 26 28 33 34 32 34 32 26 23 23 23 26 43 57 56 53 64 85 87 82 75 78 74 77 83 78 61 52 45 56 62 59 60 49 46 60 68 69 54 50 43 91 144 120 67 64 82 92 66 40 33 33 39 33 40 42 33 21 17 19 20 23 28 31 35 37 28 26 29 27 29 31 25 20 18 19 18 16 18 19 25 20 22 20 21 20 21 22 20 19 19 20 21 23 24 23 22 22 25 32 35 39 40 44 34 39 42 43 37 32 35 35 28 29 45 69 67 64 39 32 29 23 23 21 22 21 20 18 19 21 21 20 19 19 20 20 21 24 27 25 23 24 27 28 29 29 30 35 38 39 39 39 36 40 41 39 38 35 34 31 26 27 34 42 49 45 39 34 34 33 31 33 40 40 42 40 36 39 44 43 39 36 39 43 47 48 48 40 39 37 41 46 50 55 62 73 71 54 49 47 42 32 29 25 26 40 66 97 113 111 103 83 72 69 77 87 83 74 67 62 66 67 57 48 43 50 50 44 48 58 76 99 93 79 89 101 71 37 36 41 29 35 51 63 71 81 87 93 107 92 80 114 143 115 86 100 95 76 70 65 62 64 82 99 91 68 
84 92 64 49 71 86 77 65 50 29 30 23 27 37 52 80 81 68 63 47 29 26 32 35 29 28 29 29 29 29 33 29 42 53 62 53 49 76 88 84 85 81 75 81 83 64 45 35 37 45 51 54 65 62 60 63 74 50 43 29 27 91 129 103 65 58 71 87 61 42 28 31 37 30 35 37 30 23 25 24 27 27 30 26 30 38 28 28 31 27 24 25 23 22 21 18 18 19 17 21 24 21 21 22 21 21 21 21 19 18 20 20 22 24 24 23 21 22 26 33 36 40 49 55 44 39 47 46 41 36 36 33 30 42 65 63 64 33 28 29 26 26 23 23 23 22 20 17 17 18 18 18 19 19 21 21 21 22 23 22 23 23 24 25 26 28 32 37 41 39 34 35 39 47 47 44 39 33 32 31 30 32 34 36 39 39 38 37 40 36 30 31 37 42 41 39 40 41 43 47 47 45 43 41 49 56 56 45 41 38 39 43 46 57 68 79 73 57 46 45 41 35 26 28 42 65 98 118 118 123 117 107 86 78 87 90 77 68 68 69 74 64 47 41 33 36 48 44 50 62 64 79 82 69 87 106 78 45 43 45 41 47 66 72 93 110 102 112 132 111 112 132 138 94 81 77 62 50 57 62 61 66 94 108 94 77 
27 66 71 74 74 73 54 39 22 21 22 21 18 18 31 57 50 47 52 38 27 30 36 32 28 25 28 35 42 47 53 61 53 71 86 75 59 72 82 74 83 77 84 80 69 58 35 31 30 25 25 32 58 71 59 69 65 53 26 19 30 77 97 71 51 53 61 75 59 39 29 27 35 27 27 27 24 26 30 32 33 33 36 28 29 35 25 20 27 30 27 22 22 28 28 20 20 19 19 24 22 21 20 22 23 22 22 21 19 19 21 21 21 23 25 23 21 23 29 36 39 39 51 59 50 35 34 36 38 32 32 36 36 46 53 57 32 29 28 29 28 26 25 24 23 23 20 17 16 16 16 17 19 20 21 20 20 21 22 22 21 22 24 26 28 30 33 38 41 39 35 38 49 61 59 49 38 33 36 38 40 42 40 37 35 36 36 40 48 46 38 38 44 54 52 49 49 52 58 68 75 79 74 64 59 58 52 44 35 32 34 40 42 48 61 69 66 53 40 42 42 36 30 42 60 89 113 114 117 131 143 126 105 90 94 94 79 74 70 73 65 54 43 44 44 42 43 43 55 60 62 81 80 68 79 112 94 64 53 43 52 61 59 83 111 129 119 123 137 125 133 137 113 84 72 65 50 49 60 67 61 75 103 104 87 61 
57 76 82 78 73 54 38 28 25 23 17 18 19 19 26 40 33 27 33 33 30 31 37 39 37 39 40 43 47 51 58 60 63 69 87 97 78 74 75 86 92 90 80 61 51 40 33 33 26 23 19 33 64 67 67 66 60 62 40 26 34 60 64 49 48 48 54 57 53 44 30 26 32 27 26 23 23 30 31 34 33 30 32 27 28 33 26 20 25 32 30 20 23 34 33 32 25 19 25 25 23 20 21 21 24 25 25 25 22 21 23 24 24 26 31 35 35 31 30 34 36 40 46 59 54 42 32 33 32 33 38 39 36 36 38 28 35 32 28 28 26 27 25 25 23 23 20 17 15 15 15 17 19 20 19 18 19 21 22 22 21 22 25 27 27 29 31 35 39 40 38 43 55 66 62 47 34 37 47 47 48 51 48 46 42 41 40 43 54 54 46 48 56 62 61 63 75 84 77 91 105 113 110 101 85 67 54 40 33 32 36 44 47 49 52 55 54 50 48 48 47 36 39 58 82 97 112 108 118 141 147 135 118 109 102 99 92 80 79 69 62 48 36 45 57 57 53 54 66 68 70 86 89 74 79 118 126 91 65 45 51 55 52 69 103 132 129 117 133 128 124 115 86 66 69 64 70 58 63 75 88 93 92 83 65 51 
51 71 77 71 57 41 32 29 27 18 21 16 18 19 24 30 23 23 28 28 30 37 41 44 41 38 32 28 30 34 39 49 63 74 100 110 94 83 74 86 101 83 64 47 36 37 37 30 31 23 28 40 64 80 63 51 66 64 63 45 31 38 37 51 49 54 44 40 41 43 40 27 32 28 25 23 28 33 29 31 30 25 25 23 22 27 25 22 22 26 26 18 17 24 29 26 28 26 36 33 24 21 21 22 25 28 30 30 27 25 26 26 27 32 42 55 59 51 39 34 32 36 43 52 56 51 40 35 35 34 38 42 36 28 23 29 34 34 35 31 30 27 27 25 23 23 22 19 17 17 18 19 20 19 18 18 19 20 21 21 20 22 26 28 26 25 28 31 38 42 42 47 55 60 52 38 30 42 56 52 52 56 57 60 54 49 46 48 57 58 55 52 62 68 80 114 145 137 116 117 128 132 130 124 112 87 66 45 36 37 41 49 58 62 57 53 48 53 64 69 60 45 52 84 100 99 110 108 111 130 132 129 137 130 131 118 97 91 75 78 71 63 48 42 58 69 63 73 79 82 84 91 100 90 91 127 147 105 68 52 51 51 56 67 93 124 126 123 127 111 111 100 68 69 75 80 76 71 65 104 133 116 83 55 42 33 
39 49 49 40 39 35 36 39 25 25 20 21 20 19 23 28 26 25 24 25 26 30 33 28 25 23 19 18 24 29 37 53 83 108 118 117 102 76 67 75 70 55 47 48 52 56 52 54 53 43 31 44 63 67 68 54 49 74 77 60 38 34 35 43 51 54 37 29 30 46 35 35 32 28 28 27 33 38 32 28 29 23 21 20 20 29 32 25 22 27 26 21 21 23 22 26 24 29 41 37 23 21 21 22 25 29 31 32 29 26 25 27 25 26 33 41 44 42 37 33 31 33 42 43 51 53 46 39 35 32 34 35 32 29 25 28 33 38 36 39 31 31 26 25 24 25 24 21 19 20 20 21 20 19 19 20 20 20 20 23 24 27 31 31 27 24 25 31 43 52 51 51 50 47 40 30 30 46 59 55 57 63 72 77 68 56 52 52 59 61 56 63 73 112 146 179 208 177 132 129 141 145 143 140 134 117 93 68 48 44 46 54 70 74 65 53 48 59 74 86 72 55 67 103 109 106 104 96 96 94 98 115 116 126 127 111 95 82 81 83 83 76 64 57 62 68 68 65 79 76 84 92 96 96 94 126 148 106 67 53 53 60 70 84 92 118 129 124 114 101 98 94 84 84 83 79 76 57 73 111 149 115 75 59 51 27 
22 32 25 22 22 28 44 51 35 24 24 19 18 18 23 23 23 24 21 19 18 21 17 18 18 17 22 22 25 27 29 47 80 114 128 131 94 84 69 58 49 41 51 67 75 67 66 71 76 60 48 38 43 58 61 62 55 62 64 59 45 43 47 46 48 48 38 22 30 29 32 24 26 27 34 33 34 41 37 33 26 20 20 19 25 36 37 30 26 31 29 26 22 24 33 30 20 22 33 28 21 21 22 23 25 26 28 29 27 25 25 24 26 25 26 25 23 22 27 28 25 33 40 45 49 52 51 41 35 33 31 34 35 31 29 29 35 32 34 29 30 28 26 25 24 24 24 23 21 21 20 21 19 20 21 21 20 19 22 27 32 35 37 33 27 22 22 32 46 58 56 46 38 36 33 30 33 50 59 57 66 75 86 87 75 67 64 58 61 64 69 83 118 153 181 202 194 161 130 134 144 146 145 143 145 136 119 102 77 52 49 61 78 82 64 53 51 65 81 78 65 55 73 99 108 102 100 88 84 75 81 87 89 91 93 87 76 78 81 82 68 63 57 56 59 59 54 61 49 53 78 90 95 103 90 102 126 94 57 48 61 69 89 96 108 128 134 125 118 101 108 117 101 82 77 67 66 73 73 109 125 91 67 66 70 74 
18 34 29 23 20 23 43 47 38 24 21 20 20 21 22 20 17 17 17 14 16 12 15 19 18 29 33 32 37 35 35 52 73 97 126 127 115 83 75 61 49 49 63 70 63 54 50 54 59 54 39 36 32 42 65 61 52 34 38 38 40 44 45 45 40 42 28 23 25 27 19 19 26 29 38 37 37 45 50 49 32 22 18 21 24 30 31 20 21 25 25 21 22 30 43 47 26 22 23 19 20 22 22 23 24 23 23 25 24 23 22 24 23 24 25 25 19 20 25 29 27 31 44 51 50 59 58 52 36 32 30 31 33 34 31 36 38 33 27 26 26 27 26 24 23 22 22 23 23 21 19 19 19 20 21 20 19 19 20 24 28 33 35 31 26 22 22 26 41 51 48 38 31 29 31 30 35 53 60 57 71 82 90 90 82 84 82 74 70 77 103 120 133 151 158 163 164 141 133 142 141 143 146 146 151 152 135 124 101 68 50 58 74 75 60 50 58 77 82 65 52 59 74 84 90 91 94 93 97 95 90 87 75 68 76 63 58 66 73 79 57 37 46 55 60 56 58 60 47 46 69 102 113 118 108 83 97 84 52 52 69 90 111 119 130 138 142 126 110 115 133 132 99 68 63 69 76 85 96 104 106 67 44 53 73 98 
34 48 46 47 41 32 36 43 27 23 25 24 24 25 24 18 18 14 12 14 14 17 12 18 28 34 52 61 60 59 66 79 84 90 109 119 109 91 69 57 48 55 60 53 47 40 50 65 67 54 43 32 31 49 64 61 43 28 28 35 33 33 31 29 30 30 23 27 30 24 19 25 30 34 41 38 32 40 51 47 34 25 20 20 22 24 19 19 19 20 21 20 20 21 41 46 33 21 22 19 21 21 24 25 27 25 24 25 23 22 22 22 23 23 26 29 26 24 27 28 28 32 50 61 54 61 74 65 43 32 25 25 28 33 37 43 46 36 28 25 24 25 23 22 21 20 19 21 22 21 19 18 18 19 20 20 18 18 20 22 26 29 32 30 27 26 23 26 31 36 35 30 27 28 30 30 38 58 65 59 69 80 91 96 100 110 106 87 82 100 126 142 137 136 142 165 165 138 139 140 141 142 144 147 157 152 143 132 109 82 63 51 59 64 53 54 62 85 83 58 53 63 71 79 84 101 108 110 119 112 107 98 69 59 58 55 50 54 66 71 56 39 43 61 62 58 56 55 47 40 65 99 122 134 116 83 82 85 59 56 77 100 124 139 151 161 150 131 111 116 119 107 77 60 65 72 75 88 103 108 89 61 41 54 72 81 
35 55 59 69 69 53 41 33 26 24 27 27 24 22 21 24 21 18 15 16 24 29 21 17 27 50 66 74 87 85 83 97 99 91 96 111 104 84 61 54 42 52 49 36 20 32 62 85 102 95 75 55 48 56 64 61 46 35 32 38 33 26 22 22 23 23 24 28 31 30 23 25 31 36 45 43 33 36 39 34 25 22 20 20 21 21 20 20 20 21 20 18 18 16 26 37 29 24 19 19 20 20 21 25 27 25 24 24 23 23 23 22 22 23 26 31 32 30 25 25 21 36 59 72 64 64 83 78 50 32 29 28 25 29 34 44 47 38 29 26 25 24 22 20 19 18 18 19 20 21 19 19 19 20 20 19 18 18 20 23 27 30 32 31 31 30 26 25 26 27 26 25 25 27 30 33 40 61 72 68 80 96 109 116 126 132 114 88 86 110 134 142 144 145 162 183 166 142 139 144 141 144 149 143 145 151 153 156 127 103 80 57 48 53 54 52 68 86 77 56 58 76 93 109 125 134 132 118 105 94 101 96 80 57 47 50 48 45 49 60 53 57 61 66 66 60 50 47 38 40 53 92 118 126 118 89 92 92 77 64 72 95 117 140 152 154 140 130 107 92 80 65 57 55 66 56 47 71 91 94 75 46 44 53 62 49 
24 39 40 54 65 56 40 26 22 23 29 29 23 21 25 25 29 24 17 20 32 34 30 23 34 47 59 64 78 92 96 93 95 105 111 126 114 69 55 51 58 53 45 28 24 37 53 73 82 90 89 77 57 52 55 61 57 45 36 31 30 25 17 18 26 22 19 25 28 28 24 23 25 31 44 42 33 32 33 24 18 18 18 19 19 19 20 19 19 19 17 15 15 14 15 27 25 30 21 18 18 18 17 19 22 21 22 22 22 23 21 21 21 22 24 29 34 34 29 22 24 30 57 74 67 75 86 85 50 39 35 39 39 27 32 44 45 39 30 26 25 23 20 19 18 18 17 19 20 21 20 19 20 21 21 19 17 17 19 23 28 31 34 33 34 32 27 24 24 24 23 24 24 28 33 36 45 64 83 91 104 121 131 132 137 135 106 84 95 124 139 149 161 178 188 191 164 142 146 144 146 147 150 146 142 149 171 180 165 132 99 65 47 50 49 59 78 91 75 52 58 85 108 125 129 124 119 103 87 81 81 92 89 74 57 51 51 45 38 38 49 57 70 66 61 64 57 43 43 44 51 79 95 107 106 103 96 99 86 69 69 80 105 105 114 104 96 97 92 82 53 56 55 61 56 42 44 60 81 77 65 50 45 40 54 60 
21 34 30 37 45 40 28 20 16 20 26 24 20 21 24 31 31 28 24 18 23 30 22 21 37 49 44 53 88 112 107 97 90 97 129 142 114 64 51 80 80 70 48 27 43 66 65 56 45 50 64 72 61 52 53 66 71 58 41 29 26 22 22 23 32 33 25 21 26 26 22 22 18 19 26 25 24 28 30 26 21 19 18 17 19 18 18 18 18 18 16 15 15 14 16 18 30 37 32 21 20 19 17 18 20 19 19 21 21 22 21 21 23 24 25 28 33 36 35 32 24 29 43 61 67 69 83 79 53 38 46 51 48 44 35 44 44 40 32 26 25 23 21 21 20 18 18 19 21 21 21 20 20 21 21 19 17 17 19 23 26 29 34 35 37 36 29 27 26 25 26 28 27 28 33 47 67 83 98 111 121 130 137 135 139 128 96 82 107 136 145 156 177 199 208 196 163 150 150 148 148 150 149 148 145 144 161 192 191 163 133 85 55 47 49 60 81 93 72 51 58 74 91 100 94 93 92 86 89 94 87 84 99 97 80 75 63 45 41 40 49 56 64 56 53 66 64 57 53 58 64 72 82 88 102 104 94 87 82 71 69 88 79 80 80 58 47 62 69 73 66 59 63 57 46 46 56 58 62 68 69 74 58 58 61 93 
45 55 47 46 45 34 24 20 20 25 26 23 21 21 23 32 36 33 26 22 18 18 22 31 48 50 44 47 70 97 98 80 76 87 108 126 96 48 56 84 85 76 45 38 52 84 80 64 42 36 45 58 62 53 56 64 68 58 41 29 23 24 31 25 33 28 20 20 21 22 28 27 22 19 19 22 27 33 31 26 24 22 19 21 24 19 19 19 19 18 16 16 16 16 16 15 22 32 31 23 20 20 18 17 20 18 19 21 21 22 22 22 23 24 26 27 29 33 38 38 32 28 42 56 61 65 71 68 50 39 37 43 45 36 41 43 42 37 29 25 25 24 23 23 22 19 17 18 20 21 21 21 21 21 22 21 20 20 21 23 25 29 33 37 43 45 38 36 34 31 31 32 30 33 51 93 127 131 121 122 128 132 136 139 139 120 89 85 113 138 140 153 174 194 208 188 154 151 150 147 146 149 150 145 147 150 153 185 193 179 154 112 75 54 46 54 74 88 75 57 54 56 63 69 75 84 86 78 81 91 81 63 72 82 78 82 74 51 50 68 61 62 62 52 47 59 73 65 62 80 82 81 87 82 90 98 85 67 71 74 82 76 71 72 68 49 36 47 57 77 73 66 51 39 46 61 74 71 59 75 111 106 87 74 64 59 
94 67 54 49 46 33 23 22 24 28 28 25 21 18 27 37 43 45 35 27 25 20 22 34 46 47 31 30 42 47 55 55 58 68 77 93 73 54 63 72 69 62 51 42 62 95 88 64 55 39 42 51 58 62 64 70 55 46 36 25 25 38 45 36 32 22 17 17 22 33 37 38 32 26 25 35 44 49 40 27 29 27 22 32 38 23 21 19 20 19 15 15 16 19 18 18 14 25 25 25 21 20 17 16 18 17 18 19 20 21 21 21 21 22 24 24 22 24 33 38 36 42 51 61 66 59 58 62 42 37 38 33 34 36 31 43 41 32 24 23 23 21 21 21 21 20 18 18 19 20 21 22 21 21 22 23 22 22 22 23 27 33 34 40 50 56 47 41 40 36 34 36 42 55 87 132 165 157 135 127 132 139 144 143 138 110 88 94 120 136 137 148 167 190 195 170 146 141 146 144 148 147 154 154 156 158 155 161 171 170 159 134 97 69 50 47 63 76 69 53 46 49 58 70 78 80 81 72 67 76 65 44 48 51 52 71 77 53 55 61 64 53 55 55 47 63 81 74 70 84 89 82 79 83 87 95 84 60 76 75 82 68 53 62 68 54 47 56 62 78 73 65 31 32 54 75 92 77 68 113 156 135 109 71 53 33 
48 57 48 48 46 33 24 24 28 36 37 31 25 25 27 38 40 46 45 36 38 41 33 25 29 26 25 27 26 27 38 52 57 71 77 86 97 84 82 76 56 49 45 42 74 114 101 78 50 47 43 45 52 65 66 78 54 36 26 23 32 47 58 45 33 25 22 29 46 54 52 53 45 40 44 53 62 69 60 41 37 35 29 47 54 34 23 24 22 23 21 20 23 23 24 21 22 21 26 25 21 18 16 16 16 16 16 17 17 20 20 19 20 22 24 24 22 20 24 33 40 48 59 65 65 55 52 55 49 36 39 43 40 39 33 35 43 31 20 22 23 21 18 18 18 20 20 19 19 19 19 21 20 20 21 21 22 22 23 24 32 38 36 41 54 62 50 41 42 40 39 52 69 90 106 125 139 135 125 127 136 141 144 144 128 98 88 98 125 141 141 150 172 189 187 156 138 140 144 148 143 150 161 167 172 168 152 151 153 151 162 141 115 87 57 41 43 53 47 41 41 49 62 74 69 70 73 71 67 67 57 43 42 44 47 65 77 55 43 54 56 62 66 61 64 80 83 71 63 75 70 58 74 82 90 100 92 86 75 80 70 55 46 54 66 77 74 73 69 81 95 65 39 38 61 86 98 83 84 134 165 140 94 77 48 50 
55 59 55 53 49 32 23 25 29 35 36 34 29 30 38 43 40 42 41 36 44 50 47 34 27 24 26 30 28 31 41 52 56 61 62 82 90 89 90 79 62 53 34 38 60 106 106 69 53 46 47 46 49 51 69 72 64 33 27 27 37 51 55 36 40 27 29 51 63 65 62 60 64 59 49 53 63 71 64 54 48 44 39 52 56 33 27 27 27 27 25 27 30 30 25 25 23 25 26 24 19 18 18 14 18 14 15 16 17 19 20 19 21 25 24 26 25 20 19 27 35 45 54 56 58 48 47 61 56 40 36 35 41 44 32 32 50 54 25 23 24 23 20 18 19 21 21 21 20 19 20 21 21 21 20 20 21 24 25 28 37 43 38 41 52 60 49 37 41 47 60 81 100 110 121 123 126 130 133 131 134 141 146 144 122 89 80 95 122 145 156 167 186 197 184 150 136 141 146 148 147 145 153 159 162 158 149 147 143 150 151 139 125 97 62 40 31 32 34 29 37 47 55 56 61 64 73 72 65 65 59 42 42 46 44 53 61 45 36 44 60 75 70 72 94 94 78 51 40 50 44 43 66 90 90 95 98 87 77 55 48 51 54 58 93 113 93 68 68 94 100 80 43 46 67 71 90 92 99 136 157 120 99 79 67 71 
93 63 59 56 42 28 22 22 27 31 32 43 37 33 43 49 45 51 52 39 35 51 41 38 41 35 29 28 31 27 43 61 52 53 47 49 57 62 71 78 78 58 58 38 56 86 92 64 46 54 57 47 43 47 47 65 58 37 26 26 33 36 33 30 39 38 39 53 72 61 52 58 62 65 43 40 45 61 52 40 43 41 37 46 43 28 26 28 28 26 27 30 34 30 27 26 25 25 24 22 19 19 17 18 15 17 19 17 18 22 21 21 23 27 24 24 27 22 19 23 31 37 45 45 44 39 41 61 60 40 33 29 35 50 39 34 63 70 52 22 23 23 21 19 19 21 21 20 20 20 22 23 23 23 21 19 20 24 28 32 38 41 36 41 52 61 50 38 45 70 91 115 125 129 125 133 135 141 143 139 138 142 146 143 113 84 86 100 124 150 171 182 194 200 177 143 136 141 147 152 146 141 142 144 148 145 142 147 149 150 158 152 130 95 61 37 29 29 27 30 39 50 52 56 64 72 73 71 65 61 56 41 36 37 36 36 37 30 28 35 47 66 64 83 108 103 75 33 35 44 37 48 80 95 93 90 95 83 62 37 46 65 73 88 116 126 82 61 76 93 110 68 43 48 59 59 77 98 116 140 149 112 97 85 83 119 
91 69 64 54 36 23 21 22 25 31 48 68 70 42 29 35 33 43 55 52 44 45 45 33 35 35 25 25 21 29 50 69 64 55 47 40 36 43 56 59 67 75 65 73 73 82 83 58 57 75 65 60 41 43 42 46 48 37 23 29 25 23 23 27 46 49 42 66 76 68 57 56 64 64 54 35 46 46 41 31 33 33 33 37 35 31 29 26 24 26 25 32 33 33 29 31 29 27 24 22 20 19 18 16 18 19 21 24 23 22 23 23 24 27 24 22 25 24 24 28 29 33 40 36 34 36 43 61 61 44 34 28 35 55 48 31 47 66 46 30 21 23 21 20 19 20 20 19 20 21 25 26 25 26 23 19 19 23 31 35 36 36 34 39 50 61 56 46 65 93 114 128 134 133 139 138 139 145 149 145 142 142 145 134 103 88 104 120 133 149 172 186 192 193 168 141 136 140 145 146 145 141 140 141 145 145 141 146 152 157 166 160 133 89 56 38 27 26 28 31 42 53 57 58 65 68 64 58 56 52 40 26 25 30 32 30 31 27 27 34 42 59 80 86 103 103 86 65 50 57 57 71 85 94 83 93 86 87 57 41 54 89 110 114 125 116 87 90 87 105 111 61 35 46 58 69 99 127 147 147 137 117 80 81 93 157 
85 79 71 49 29 19 19 18 20 31 50 93 89 55 36 35 25 39 58 52 51 58 53 33 30 26 27 28 31 36 50 56 44 32 31 34 42 50 44 45 60 69 82 89 90 81 77 69 77 95 86 68 46 47 53 32 43 40 30 32 29 23 24 26 50 55 55 69 92 82 66 59 55 70 55 48 42 46 31 31 29 28 30 32 32 33 30 26 24 23 28 28 31 28 28 28 27 25 24 25 25 21 18 19 20 21 28 33 32 30 25 26 28 31 30 28 27 27 32 35 36 37 44 40 37 39 46 60 58 42 34 29 35 51 49 32 28 40 36 29 24 23 22 20 19 20 20 20 20 22 26 27 27 28 27 24 21 23 32 35 33 30 29 34 43 54 51 54 77 117 133 123 126 132 134 140 137 142 144 143 144 149 153 133 100 98 122 136 139 150 174 186 192 188 165 143 139 142 143 143 144 147 146 143 145 149 149 157 163 161 163 158 131 87 64 59 38 25 27 27 35 42 45 52 56 53 45 43 42 37 29 19 21 27 30 29 32 32 37 46 54 79 85 81 78 82 104 103 76 75 77 83 83 81 76 82 85 84 71 45 63 111 135 127 121 124 124 118 98 99 107 71 38 39 67 94 118 149 161 143 131 105 83 80 91 109 
85 67 55 32 18 18 17 15 18 29 60 89 90 57 48 47 35 46 56 49 46 67 63 40 28 33 37 38 42 41 39 49 27 17 26 42 56 59 44 36 62 63 84 94 102 88 83 101 95 103 89 75 49 61 65 36 34 43 40 30 33 24 31 34 49 64 56 70 80 80 70 59 47 48 49 44 46 44 40 33 33 26 27 32 30 29 29 28 29 29 25 27 30 34 27 29 26 24 27 31 31 25 20 20 20 22 32 39 40 38 35 33 35 36 37 34 28 26 28 32 33 36 44 44 42 44 46 53 49 38 33 29 31 40 41 33 29 25 30 28 25 23 24 21 19 21 22 22 22 24 29 31 29 30 31 31 27 26 30 32 27 25 25 28 34 42 44 56 94 137 146 139 127 128 138 142 138 138 139 138 143 155 159 133 97 103 131 140 141 156 181 190 195 181 155 140 136 139 143 143 145 149 147 141 142 147 151 158 165 157 158 154 124 84 85 88 64 31 25 27 30 33 41 48 47 40 35 38 40 36 27 20 21 28 31 27 30 38 52 69 78 83 89 78 59 69 104 119 116 85 86 81 63 62 67 73 76 85 76 57 68 114 131 120 122 141 145 120 81 82 105 71 49 53 74 95 109 133 159 137 119 106 103 95 100 127 
26 32 26 17 15 16 18 14 17 30 51 82 71 51 53 53 45 50 48 39 40 59 69 50 38 56 57 54 41 38 48 58 53 34 32 44 54 61 55 49 61 68 71 99 100 89 112 120 114 104 83 77 50 66 71 41 33 49 50 34 23 25 23 28 40 46 50 58 67 65 68 65 54 43 37 38 47 60 64 51 48 35 31 35 33 27 27 28 35 41 26 27 33 49 39 33 31 26 27 30 32 30 27 23 21 23 30 38 42 44 48 42 40 38 35 31 25 25 29 31 33 35 39 40 41 44 44 44 41 35 32 28 26 31 31 28 28 25 23 32 26 23 25 22 18 20 23 24 24 26 32 37 36 34 34 35 32 27 28 28 25 23 24 26 31 35 40 65 110 144 145 136 132 133 137 142 136 136 138 138 143 151 151 119 87 99 129 138 142 161 185 196 196 174 148 139 136 138 143 144 145 147 143 139 139 142 144 149 152 153 163 157 118 81 96 117 93 48 27 31 34 35 43 46 39 31 29 34 44 46 34 25 25 31 35 29 27 40 62 77 77 79 84 78 83 69 87 122 119 101 85 62 43 49 57 63 64 76 76 62 76 97 121 114 115 150 130 87 66 84 96 76 60 57 78 87 83 122 157 130 95 112 106 102 110 136 
34 24 19 16 16 15 17 18 16 21 39 55 57 49 54 61 47 51 46 31 39 50 63 62 70 81 82 66 44 29 42 64 58 42 43 52 51 65 74 77 75 65 71 80 94 92 109 129 112 96 87 71 61 70 70 48 39 51 65 48 23 29 23 20 28 36 47 68 59 57 58 72 59 47 40 34 42 67 62 58 49 39 35 37 34 26 19 27 40 48 41 23 34 52 44 32 28 24 23 23 25 31 34 31 21 24 31 41 53 60 57 51 43 35 29 27 26 27 31 35 28 27 31 34 39 45 44 41 35 30 29 27 24 27 27 27 23 23 26 29 29 23 26 25 20 21 23 24 24 27 35 42 43 38 35 37 36 30 28 27 25 22 25 28 31 33 36 70 119 145 141 133 136 137 138 137 134 134 138 141 145 146 136 101 81 99 125 133 143 165 184 198 193 167 146 139 139 140 140 144 144 146 144 142 142 144 145 147 147 157 173 157 109 81 103 136 131 83 38 31 34 34 31 34 32 31 32 38 46 46 39 26 23 26 34 31 29 44 67 72 67 71 81 107 113 94 83 95 111 97 75 54 34 48 58 56 55 66 70 77 71 89 118 120 139 148 116 76 75 98 97 82 65 66 83 91 92 130 154 124 85 92 105 107 114 168 
44 38 39 21 13 16 19 18 19 16 18 38 52 54 61 57 51 50 39 37 35 43 58 74 70 81 76 55 40 34 39 58 43 34 53 62 66 72 83 78 75 65 53 70 81 93 102 110 93 90 72 74 75 78 65 56 42 52 64 63 37 39 30 21 26 26 36 61 53 36 50 62 58 44 40 34 51 66 60 49 47 34 32 33 30 19 19 18 35 46 38 29 29 50 38 27 24 23 23 20 19 26 35 33 28 25 33 51 65 73 67 53 42 31 27 26 26 25 33 33 27 23 29 34 42 48 44 38 31 27 27 28 28 28 28 25 24 21 22 29 25 24 26 29 24 22 22 24 25 27 35 43 44 41 36 39 40 35 31 27 23 21 28 31 31 31 29 51 102 134 131 134 135 135 138 138 138 137 136 140 142 143 126 92 84 107 128 132 146 169 187 194 189 158 141 138 139 141 142 142 145 146 147 145 145 148 151 147 147 156 170 148 95 80 110 147 163 132 61 30 32 29 28 28 29 40 41 41 43 45 39 27 21 24 29 31 31 41 60 58 51 52 75 117 138 114 74 77 99 98 90 54 36 55 62 57 48 52 69 79 70 69 103 130 141 141 110 83 87 115 106 82 67 77 101 102 102 122 145 121 86 82 92 97 110 128 
30 58 58 40 21 16 17 17 18 17 19 47 67 83 76 69 65 55 47 39 37 39 51 58 61 62 54 45 36 33 52 57 40 24 30 48 49 56 62 57 61 56 54 59 84 82 90 83 79 72 71 71 88 90 62 65 60 53 72 67 53 53 39 24 28 37 40 55 47 29 38 50 47 36 28 42 66 77 56 44 45 32 29 28 23 19 16 20 23 30 30 26 28 42 34 26 27 28 27 24 19 18 27 31 30 34 34 40 58 63 66 53 42 31 31 30 22 21 26 33 27 25 30 37 44 45 40 31 27 25 27 29 29 27 24 23 21 21 21 20 22 21 26 28 26 21 20 21 24 27 33 38 42 43 42 42 43 41 37 29 23 24 31 34 32 28 25 37 74 113 130 134 132 133 135 139 143 141 137 136 140 140 117 88 89 117 128 135 155 178 188 197 177 150 139 133 138 140 138 142 144 147 147 144 140 148 151 152 144 155 166 129 85 80 114 146 174 165 95 35 27 29 25 24 31 33 36 36 40 42 40 30 27 32 38 34 35 40 51 47 42 47 68 123 166 121 75 59 87 112 108 72 45 55 73 65 59 51 67 83 77 64 88 106 120 110 87 77 83 115 100 73 64 88 132 131 103 117 127 118 94 76 73 87 79 61 
11 35 42 26 21 16 15 18 20 23 31 44 78 85 83 78 70 69 54 48 45 45 47 53 55 57 55 42 33 37 48 51 32 18 20 23 33 48 51 53 50 65 53 74 82 64 59 60 54 63 58 63 90 79 70 67 69 70 70 79 57 59 48 21 35 44 49 55 44 31 28 43 43 36 40 50 78 74 44 36 38 34 31 24 20 18 16 19 23 23 24 26 31 37 30 29 31 32 31 29 25 21 20 27 33 37 37 36 43 56 63 58 40 35 43 43 27 20 24 28 28 27 30 35 39 38 32 26 23 24 25 25 25 23 20 20 21 21 21 21 21 21 22 25 24 22 18 19 23 27 32 37 41 47 45 43 42 44 42 36 31 28 30 31 29 28 27 31 57 99 126 136 134 134 135 138 144 144 140 138 140 138 110 84 95 120 129 145 169 185 196 194 171 147 137 135 137 137 136 141 141 148 147 140 138 141 149 150 150 156 159 117 74 82 114 140 159 174 133 58 28 25 22 24 23 29 30 35 41 45 42 38 41 59 58 56 47 42 43 42 41 40 63 126 170 143 80 60 71 104 127 89 51 52 72 86 76 81 82 102 92 83 84 91 95 85 83 88 84 101 97 67 56 93 144 150 121 109 110 113 85 67 75 74 65 60 
17 17 17 16 18 19 18 17 27 36 44 74 82 83 85 82 83 79 66 55 51 48 50 53 54 56 49 38 39 47 60 56 29 24 31 30 34 48 59 56 59 70 86 81 92 62 40 41 46 51 55 53 75 76 65 63 61 69 70 76 63 61 57 33 29 45 44 51 41 29 32 37 41 51 51 50 60 51 26 23 28 30 25 18 16 16 18 18 23 26 30 33 38 36 28 27 31 32 29 27 26 25 25 23 27 32 33 34 41 55 65 62 46 37 51 58 44 26 28 27 28 31 34 34 30 29 27 22 21 23 24 23 23 23 22 21 21 22 23 23 23 22 22 25 26 26 21 18 22 27 34 39 43 46 42 39 40 42 44 40 40 35 29 27 27 27 26 30 59 103 130 137 136 137 136 138 142 145 141 137 142 133 100 86 99 121 131 149 171 184 190 184 160 144 137 134 136 139 140 136 143 143 146 145 140 141 141 151 152 158 146 100 68 80 120 138 148 178 170 112 48 24 24 21 26 30 37 45 52 60 51 43 58 71 76 61 52 43 39 47 41 43 60 108 162 145 98 69 64 86 122 98 56 64 87 106 117 128 131 115 98 79 73 63 67 66 84 106 99 103 99 79 53 81 123 146 132 114 112 104 78 59 70 75 63 71 
18 19 14 15 20 30 24 19 21 33 58 86 93 88 89 111 114 116 105 69 54 52 52 54 56 53 50 41 43 61 74 74 56 42 40 36 33 37 43 40 38 60 70 84 77 57 44 43 45 52 51 48 69 72 66 72 57 63 61 63 59 58 63 45 34 37 49 52 44 35 47 48 55 64 65 50 38 39 22 17 21 22 19 15 15 17 18 20 24 30 34 35 37 33 25 24 31 35 31 28 26 30 36 33 27 27 27 31 42 53 58 57 49 39 49 62 57 38 34 32 28 29 33 32 27 29 31 28 25 26 26 24 24 24 23 22 21 21 22 23 22 20 21 26 28 28 23 19 21 27 34 41 44 42 36 36 39 40 39 38 42 41 35 29 26 24 23 31 72 121 142 140 138 139 139 138 138 139 138 138 145 127 93 86 106 119 128 151 169 180 185 170 149 142 138 135 138 140 138 139 137 144 144 143 144 139 140 147 160 164 132 84 66 83 119 143 140 159 178 133 81 34 21 28 31 41 43 47 58 66 69 58 58 77 72 56 45 41 49 59 50 47 73 105 150 149 114 89 74 80 93 79 65 76 93 109 135 153 152 131 99 72 58 50 48 52 73 101 102 118 117 101 79 81 109 142 133 124 120 106 78 55 71 78 72 62 
13 23 20 18 27 36 31 27 28 27 44 63 68 56 77 91 101 125 120 82 61 59 56 49 50 53 53 44 49 62 67 71 59 40 34 27 25 34 37 32 22 34 46 51 47 35 31 40 45 47 50 46 73 73 85 84 74 63 47 53 59 49 60 52 38 35 45 53 43 41 51 58 50 62 58 39 41 37 37 19 19 18 15 15 17 18 20 21 25 29 29 26 27 27 23 27 31 37 35 32 29 34 43 37 32 29 28 34 42 52 55 51 49 48 47 60 58 44 35 34 31 27 27 27 26 33 40 38 33 29 27 24 23 23 22 22 21 21 22 21 19 17 20 27 26 24 21 19 21 26 33 41 42 39 35 38 41 38 35 36 40 43 39 30 24 23 22 42 91 135 147 141 137 136 138 133 133 134 135 141 147 119 86 93 112 119 127 153 173 188 190 163 145 142 137 134 135 135 134 133 138 140 144 142 145 154 139 143 164 165 123 76 65 86 117 144 141 139 145 140 100 54 28 27 36 40 44 44 46 64 79 77 66 70 67 52 41 49 61 59 59 63 95 128 152 153 119 100 86 86 92 74 75 83 89 91 107 132 134 128 108 84 65 52 49 57 61 77 92 115 118 108 96 96 121 141 141 124 118 109 83 61 79 80 81 65 
35 30 23 23 27 33 33 36 47 48 41 43 42 43 48 60 66 97 114 87 70 73 77 57 55 72 66 52 58 63 54 47 46 30 22 31 29 26 30 26 22 20 37 46 33 21 25 35 42 49 53 64 73 84 90 100 97 74 47 58 66 45 50 59 45 41 37 42 32 33 43 41 41 44 49 47 53 59 42 35 23 17 13 15 18 19 21 24 22 24 24 22 24 25 25 26 30 31 29 29 26 27 32 32 29 30 35 43 44 51 57 55 51 55 53 56 58 43 33 33 35 29 24 24 27 36 45 45 39 32 27 24 24 25 24 25 27 28 28 24 20 18 23 32 26 22 21 20 22 26 34 43 43 39 38 42 43 36 34 35 40 45 43 33 24 22 29 58 109 138 141 138 134 134 132 135 135 136 138 145 144 107 82 104 119 122 132 151 171 192 188 158 143 141 137 136 135 133 133 133 133 140 140 142 155 161 152 155 176 166 111 69 67 90 125 138 147 139 138 133 129 85 36 24 31 33 41 46 35 47 71 79 68 52 51 40 46 65 64 63 49 74 107 124 152 153 119 93 97 106 117 96 76 76 66 63 73 82 92 105 107 90 82 68 59 66 66 74 95 110 108 112 98 113 119 143 120 102 87 86 89 78 77 80 96 107 
59 41 22 22 25 32 27 38 53 58 59 44 39 44 47 50 60 82 104 84 82 101 105 96 93 100 90 73 66 68 55 48 47 36 31 36 34 26 21 21 22 21 30 44 41 19 24 43 45 44 67 67 85 78 94 110 111 96 70 73 69 45 45 61 69 54 49 31 30 30 31 31 28 32 37 48 53 54 46 29 22 17 14 14 18 20 28 36 33 29 24 22 25 25 24 26 28 24 21 22 20 19 23 23 25 30 44 59 52 52 65 61 48 50 57 56 57 46 35 35 37 30 25 25 27 33 40 44 38 33 29 27 28 29 29 30 31 32 32 28 23 22 28 37 29 24 24 22 22 26 34 45 49 44 42 45 46 39 36 36 40 47 47 40 31 25 35 76 121 137 138 137 135 136 136 137 141 140 141 150 139 96 87 112 131 131 144 161 175 191 185 162 145 140 138 138 136 133 133 135 133 137 141 136 144 155 155 175 201 166 97 67 78 107 135 141 142 145 134 139 142 112 61 29 23 32 37 45 37 29 59 75 70 67 50 45 58 73 68 54 55 66 92 109 138 138 116 99 97 108 121 108 69 57 58 49 48 55 62 78 85 96 97 86 67 68 77 88 101 109 114 117 123 106 117 124 99 75 68 78 100 99 88 85 111 146 
67 48 28 19 26 35 34 27 47 59 63 56 47 42 44 51 65 83 101 96 99 122 138 129 118 113 89 79 78 63 46 55 63 48 43 41 41 31 26 19 19 22 32 47 53 34 31 49 54 51 61 85 93 96 103 110 113 97 77 63 58 37 49 75 94 87 55 44 31 30 31 27 25 22 21 24 33 30 29 21 16 13 13 14 16 20 33 44 46 44 35 27 25 25 24 24 23 22 18 17 17 18 18 19 21 23 37 55 54 57 71 64 49 48 61 62 54 51 39 39 38 29 24 26 25 25 31 32 33 33 32 31 31 31 31 30 29 28 28 26 22 22 29 39 30 25 25 22 21 25 32 45 56 52 45 47 47 44 41 38 40 45 43 39 33 38 60 97 129 136 136 135 137 136 138 139 138 137 140 153 129 90 89 120 131 136 155 171 183 197 188 164 155 143 139 139 136 132 135 137 138 141 139 136 134 138 140 173 193 151 91 77 94 124 141 139 137 142 136 132 143 124 77 41 35 32 43 47 40 45 52 68 78 74 68 64 64 69 66 59 72 74 81 102 121 125 103 102 104 96 101 89 68 61 61 58 61 67 69 72 85 89 92 73 64 76 92 111 104 98 108 128 116 104 104 100 78 68 66 79 114 118 104 92 126 167 
57 57 34 24 28 37 36 40 47 61 69 68 66 60 46 54 60 88 112 114 100 111 123 110 109 105 90 99 98 57 43 46 61 56 48 48 45 39 30 22 20 28 38 63 68 48 27 45 50 50 68 89 115 116 112 105 106 97 70 60 42 49 54 81 92 96 77 48 39 34 28 26 25 24 22 18 16 20 23 18 14 13 14 16 19 20 23 31 34 40 38 29 28 26 22 22 24 24 23 21 18 19 19 19 19 20 26 40 46 54 61 64 51 53 66 64 54 46 35 36 34 27 25 27 26 24 22 23 25 29 31 31 31 31 30 28 26 25 24 23 20 21 29 40 31 24 25 23 20 22 29 44 58 57 49 46 47 43 40 36 39 39 34 30 40 65 94 121 136 135 135 136 136 138 137 135 136 132 143 147 119 89 103 126 134 138 159 174 191 195 168 150 141 136 133 135 136 134 137 144 147 147 146 140 143 146 137 155 170 126 86 90 106 123 136 128 137 142 135 135 130 120 84 53 39 46 51 55 54 53 60 59 63 64 64 59 61 56 57 70 80 85 75 87 106 104 86 93 109 99 90 85 79 91 84 82 88 90 82 85 93 94 84 71 79 91 118 139 106 88 99 109 106 105 105 106 71 71 73 81 112 132 118 109 122 168 
73 68 45 32 27 32 31 32 46 44 48 62 75 77 81 75 86 105 141 132 112 92 95 81 80 91 95 119 113 63 34 42 46 46 49 49 47 37 32 28 20 28 39 46 65 42 32 33 42 53 62 86 114 115 102 89 85 82 69 54 49 55 58 51 80 83 78 74 51 31 25 25 25 26 27 21 16 17 20 17 14 13 18 21 24 23 23 20 20 27 28 23 21 22 21 21 25 26 26 27 25 20 16 18 19 20 23 29 37 45 52 58 61 57 64 58 52 44 33 33 33 28 26 27 29 27 25 24 24 25 28 29 31 31 29 26 26 25 23 22 21 22 29 38 30 23 24 24 22 23 28 44 59 55 46 44 42 39 35 33 36 37 30 33 61 101 124 132 134 134 133 136 138 138 137 138 136 138 149 143 106 98 120 138 142 151 167 181 196 187 151 133 133 136 135 135 142 135 139 145 150 149 146 147 155 156 156 167 161 114 87 103 117 124 127 134 141 143 137 130 134 115 82 54 45 45 53 62 59 55 61 67 61 53 48 48 45 44 49 58 84 92 86 75 86 91 79 80 109 124 118 104 112 125 109 94 97 95 85 91 98 99 80 74 74 98 125 139 118 90 92 95 95 93 106 105 79 86 92 88 113 135 119 95 97 88 
90 78 60 47 36 34 34 31 34 33 29 37 58 81 90 104 107 140 159 160 112 91 91 82 71 86 98 131 118 58 36 41 40 51 58 52 44 34 35 32 23 15 23 45 46 39 31 38 53 65 77 92 113 109 90 71 74 67 61 53 53 56 51 52 63 71 78 76 75 54 29 20 21 21 24 19 15 15 19 17 15 15 19 24 25 24 23 21 21 24 23 18 18 21 21 23 24 24 26 32 33 26 20 17 21 24 26 28 32 40 50 62 64 58 55 48 43 37 32 33 31 27 26 27 29 29 28 27 26 25 26 27 28 29 28 26 28 28 24 22 23 22 24 31 27 23 23 23 24 24 29 43 58 53 43 42 41 38 32 30 33 34 31 46 90 127 138 134 134 133 132 134 136 135 136 137 140 141 151 135 99 102 128 140 147 162 180 193 200 176 139 129 138 143 139 142 140 142 134 141 140 141 141 144 148 167 163 178 159 102 88 114 124 124 128 130 139 137 127 131 141 122 82 55 43 48 60 67 67 63 66 81 78 59 43 44 46 44 46 48 78 110 100 84 71 81 79 89 111 134 146 135 135 139 113 100 97 95 85 80 90 76 69 57 73 85 119 139 105 86 86 87 75 66 78 87 80 93 107 104 120 130 109 90 67 51 
108 89 68 58 48 39 33 27 26 26 24 30 49 75 77 80 96 134 160 152 111 76 91 84 78 87 112 140 112 63 52 52 61 69 71 56 40 30 37 41 20 15 29 53 52 34 32 44 66 89 102 116 129 110 98 83 75 63 56 53 50 53 51 56 59 54 43 66 70 63 50 29 19 18 21 18 15 15 18 18 18 17 19 24 26 25 22 24 23 25 23 17 20 23 24 22 25 22 24 39 38 27 21 20 20 25 28 30 30 38 51 53 51 47 46 41 37 35 38 38 32 27 26 27 30 30 25 24 26 26 25 24 24 24 25 25 29 29 25 24 24 22 20 25 25 22 22 24 25 25 28 38 51 47 38 39 42 40 33 27 30 31 35 62 112 142 140 137 136 136 134 134 133 133 134 138 142 142 145 122 93 101 124 135 148 169 187 198 198 162 132 131 137 139 140 137 146 142 145 142 141 136 140 145 155 165 175 182 145 91 93 122 129 130 131 136 135 133 129 137 140 122 85 55 45 55 71 80 78 70 78 94 80 65 57 43 48 52 48 50 71 110 120 94 70 71 82 85 98 104 120 124 120 109 86 82 92 91 84 82 74 66 61 67 71 90 116 109 77 73 71 73 67 56 70 90 83 99 117 121 121 124 112 91 72 76 
134 97 84 72 49 42 33 27 22 24 31 26 52 77 74 73 96 138 146 136 97 68 77 80 82 98 128 143 106 72 65 81 84 85 80 57 38 29 36 41 30 15 22 47 44 32 36 54 75 83 92 103 101 104 108 121 99 72 60 49 47 44 41 41 50 35 33 32 46 44 39 35 23 19 21 20 17 15 18 21 24 21 20 25 29 27 27 24 25 23 21 18 21 26 27 29 24 27 34 45 44 35 24 19 19 25 29 30 29 35 45 43 36 36 41 42 39 40 43 40 30 26 26 28 32 31 25 23 25 27 28 29 27 24 24 25 27 27 24 25 26 24 23 24 23 21 22 25 27 27 26 33 43 42 34 36 43 46 37 29 28 30 37 70 126 151 137 137 137 136 136 135 133 134 136 142 147 148 141 108 89 101 118 131 153 176 191 199 190 156 138 141 141 135 135 143 139 153 150 145 142 141 142 141 155 168 171 175 127 86 101 127 131 135 136 133 135 134 131 116 110 96 76 56 45 54 67 71 67 61 69 83 71 60 66 61 60 61 61 59 66 95 119 97 74 66 71 89 81 68 78 89 83 66 50 54 65 71 79 85 74 62 59 64 70 83 104 82 62 72 77 74 61 62 70 85 85 99 121 120 122 119 111 97 77 79 
73 92 105 102 65 38 36 36 35 38 47 42 54 76 92 103 118 147 138 115 85 61 60 70 76 105 130 129 97 82 89 102 100 90 75 50 33 27 32 38 38 44 31 33 30 31 34 42 54 66 76 81 81 88 121 145 123 105 71 62 52 43 40 51 42 36 33 33 23 22 24 24 27 23 25 26 24 17 16 21 27 26 21 26 30 30 30 31 27 23 20 19 21 30 37 31 32 27 30 39 40 35 32 21 24 34 34 33 31 33 39 40 33 35 39 40 38 39 41 36 29 27 27 27 31 34 30 25 26 26 30 35 33 27 24 24 25 22 22 24 25 24 24 25 23 20 21 24 27 29 27 31 41 43 36 35 43 51 44 33 29 27 31 67 131 160 145 134 136 134 135 135 133 134 138 140 147 150 133 99 92 107 120 133 159 183 195 197 180 153 147 157 155 145 144 144 154 158 156 151 144 141 141 150 156 173 173 161 111 84 110 131 133 139 140 137 134 135 126 90 69 62 61 50 37 40 44 40 39 41 50 64 55 50 66 72 74 78 70 65 61 78 97 96 77 70 73 77 84 63 51 65 57 38 31 36 39 46 68 78 75 51 53 56 61 88 105 79 70 89 105 90 63 59 62 74 91 104 116 127 128 124 108 92 64 64 
25 66 101 104 77 49 43 48 43 46 53 49 57 79 106 129 134 148 128 108 81 61 55 63 72 89 111 103 84 102 100 102 94 80 66 43 30 27 26 35 49 61 68 53 37 34 31 30 42 42 60 64 64 74 98 115 123 91 84 63 55 54 59 55 49 38 32 31 28 20 18 23 30 28 27 30 32 25 21 25 33 31 24 25 25 25 26 28 26 24 21 20 22 37 45 42 42 33 27 29 31 37 37 34 32 39 36 35 33 32 36 43 36 35 36 35 33 34 37 33 31 29 27 25 28 33 31 27 25 24 27 33 32 26 23 22 21 18 19 23 24 22 21 23 23 23 23 24 27 29 29 30 41 44 36 33 40 55 52 35 30 27 27 54 116 159 151 133 133 134 133 133 132 133 136 136 140 143 122 95 100 116 125 139 166 188 198 193 169 145 145 157 160 148 143 146 145 156 159 155 151 146 144 150 165 169 175 150 101 92 120 133 136 143 144 138 136 137 115 73 50 48 47 38 37 37 36 34 35 42 51 59 51 41 52 63 78 93 82 70 57 59 79 81 74 64 60 74 88 84 66 68 66 54 36 36 33 32 50 67 58 48 46 49 61 93 112 79 68 101 112 102 82 63 70 86 95 106 122 128 138 135 109 77 68 39 
30 39 66 80 67 50 42 46 39 34 46 53 58 81 116 134 135 138 128 107 96 69 63 75 77 81 99 88 88 106 101 81 84 74 58 34 24 28 28 20 26 52 59 61 51 49 43 48 50 44 36 40 46 52 62 79 76 81 60 57 58 60 61 53 38 29 30 22 21 22 18 26 34 30 27 32 37 32 23 22 27 33 27 25 27 25 22 23 22 23 25 23 29 39 48 55 59 41 25 27 27 35 42 41 40 38 34 37 37 32 33 42 43 30 32 30 28 30 27 26 26 27 27 26 26 29 30 25 25 27 25 28 28 23 22 21 18 17 19 24 25 22 21 23 26 29 29 28 28 29 30 32 38 39 35 30 37 56 62 40 31 32 29 38 82 134 151 135 132 135 134 133 131 133 135 138 142 141 114 95 109 122 128 147 174 192 198 192 162 143 139 146 144 139 137 139 142 147 152 155 149 144 144 145 149 167 161 132 91 97 122 135 142 146 148 144 135 131 104 61 44 47 39 38 40 46 41 38 43 55 63 62 53 40 47 58 87 113 95 78 63 63 93 91 78 55 44 62 89 79 54 57 66 65 60 47 38 32 43 48 49 41 41 47 62 98 110 80 82 78 99 92 76 88 92 95 105 108 125 131 140 132 104 92 74 53 
48 35 42 52 57 55 50 45 40 38 45 46 53 70 107 120 135 139 117 115 103 82 71 83 79 86 102 96 96 108 82 70 88 71 49 25 23 26 27 25 18 19 36 39 46 53 51 49 52 37 27 28 50 61 48 48 45 44 48 41 41 42 43 33 25 27 22 20 20 23 26 30 36 33 29 33 40 38 26 20 27 33 27 27 30 29 26 20 24 23 23 24 22 30 43 68 75 52 31 28 38 32 36 42 37 32 27 33 33 25 26 42 44 32 26 26 26 25 24 21 21 24 27 26 25 26 26 24 26 27 28 28 25 23 22 22 19 18 20 24 24 21 21 25 28 30 30 27 26 28 31 33 32 33 30 29 33 57 68 49 34 34 34 30 50 108 145 145 132 136 134 132 133 133 135 138 148 136 104 98 120 130 141 158 182 193 198 183 160 144 141 141 138 134 137 137 138 139 140 141 136 137 138 141 148 163 161 115 84 96 118 131 141 143 147 140 134 123 88 48 44 47 39 39 47 43 47 43 45 63 71 67 55 45 49 61 89 107 89 68 64 93 116 112 83 73 48 58 84 74 39 34 46 63 63 55 40 36 37 37 40 39 35 47 76 99 109 103 91 99 84 83 89 94 101 116 117 126 130 132 128 117 104 95 95 115 
22 19 31 41 61 65 67 59 49 40 43 40 49 68 93 115 147 144 116 109 97 72 64 74 72 84 96 101 105 100 61 71 86 71 41 27 25 25 35 36 29 29 26 35 40 46 40 35 38 29 25 44 70 81 65 40 43 46 55 43 27 31 24 21 24 24 21 20 22 24 25 28 31 28 27 30 36 39 32 25 34 39 28 27 30 34 30 34 36 45 34 26 22 20 38 68 80 52 42 46 43 44 33 34 35 31 25 26 28 25 22 38 53 39 27 25 23 24 25 28 24 22 24 24 23 24 24 22 22 26 30 30 25 22 22 21 20 19 22 25 24 19 18 23 27 27 25 24 25 28 35 35 29 26 27 26 29 51 74 58 36 34 32 27 35 76 133 152 136 132 135 133 134 136 134 140 151 130 97 104 131 143 150 170 185 193 196 179 154 144 142 144 140 139 140 137 134 134 134 134 136 139 138 138 148 167 150 99 80 100 117 128 133 134 145 140 130 116 75 42 42 52 45 43 50 49 49 52 51 59 66 62 58 51 53 70 93 91 70 59 77 109 122 101 87 78 58 52 69 66 43 39 42 57 74 64 44 38 40 37 43 45 42 56 80 111 117 122 122 102 103 101 101 108 108 117 140 146 157 141 124 110 96 88 90 99 
35 26 32 54 66 75 75 67 52 40 33 39 44 75 81 100 150 142 127 105 89 70 58 59 60 62 87 100 130 98 57 60 75 65 46 35 26 33 46 48 42 35 33 32 39 37 32 33 32 32 28 38 66 65 46 35 34 55 51 39 35 38 28 23 23 23 22 21 21 21 22 20 23 22 23 25 32 39 33 30 44 40 31 34 43 44 40 42 62 70 59 44 34 27 43 61 63 52 49 49 48 39 34 34 36 34 27 28 29 26 21 32 54 50 35 30 29 29 35 39 36 27 23 22 22 23 23 23 21 25 32 33 24 21 21 21 20 21 25 27 23 19 17 20 23 25 25 24 25 27 34 33 26 24 25 24 25 44 71 64 38 30 30 26 28 53 112 148 155 135 135 137 133 133 133 148 154 123 95 107 132 143 153 168 184 191 193 171 148 143 143 149 145 144 146 143 136 134 135 139 139 141 139 138 151 165 135 84 77 106 122 128 129 134 146 143 130 111 66 36 39 53 52 49 54 48 55 58 56 59 60 55 56 68 70 76 90 80 61 67 90 111 108 78 71 79 50 43 56 53 44 50 53 69 81 63 48 37 44 48 51 53 46 49 77 94 132 137 138 111 107 112 122 124 119 124 144 166 163 149 135 110 89 82 70 58 
24 27 46 60 76 66 78 73 52 42 34 33 50 70 71 93 124 127 113 108 84 70 64 49 44 55 79 135 160 120 54 47 64 58 59 39 35 39 45 47 39 38 34 35 34 32 31 34 35 30 31 36 44 38 29 27 39 47 65 43 42 49 37 25 24 23 23 20 19 18 18 21 19 20 22 23 30 39 37 41 48 39 34 48 66 66 56 45 54 64 65 53 44 43 42 52 43 48 63 48 37 33 38 37 38 31 31 38 36 29 23 24 41 42 34 31 31 31 33 37 35 28 25 24 22 23 23 23 20 23 33 36 26 22 21 21 21 21 23 23 20 17 17 19 19 23 26 26 25 25 28 29 25 23 24 23 24 36 61 61 39 30 30 28 28 39 79 139 157 146 136 136 135 131 140 156 155 112 91 109 132 143 155 176 186 193 189 161 141 137 142 144 144 144 148 148 142 136 136 137 137 139 139 143 159 163 120 74 78 112 126 127 125 132 145 137 128 108 63 32 34 45 47 47 49 41 51 56 55 64 62 54 61 84 90 90 87 66 69 91 98 99 78 63 62 65 51 43 49 47 42 57 69 77 92 67 37 37 62 67 59 54 49 47 61 92 122 150 149 143 130 129 126 130 121 125 141 154 152 135 121 110 88 69 55 55 
31 41 52 72 79 87 82 84 57 38 33 27 48 63 69 90 107 99 100 89 79 69 57 45 37 47 95 152 169 115 46 43 51 72 67 59 50 57 53 41 45 47 34 31 31 31 33 36 38 31 26 32 30 28 27 25 29 49 57 60 49 48 35 25 23 23 24 20 15 15 22 26 23 26 31 27 28 38 44 52 49 36 30 48 62 72 65 47 37 46 53 65 54 43 41 33 39 49 65 57 31 30 45 46 39 27 31 43 37 29 26 20 27 28 27 26 27 28 26 28 27 27 27 25 22 22 23 22 20 24 35 40 33 27 24 23 24 24 25 25 21 17 18 18 18 20 22 24 25 24 24 27 25 24 24 25 25 31 50 56 39 30 29 27 28 32 50 106 143 142 134 135 133 133 137 158 143 101 95 118 134 143 162 182 193 194 180 149 136 134 137 143 141 139 141 144 143 138 137 134 134 138 139 146 165 156 103 68 81 116 128 127 128 133 137 132 127 110 69 35 29 34 38 38 44 42 46 50 43 57 60 48 54 85 100 95 88 69 80 98 94 69 46 56 65 67 62 51 45 55 56 58 70 81 90 64 43 50 76 80 63 48 48 49 56 90 126 132 156 153 157 150 135 133 131 124 136 140 130 106 100 82 64 51 44 33 
34 42 54 73 101 110 112 92 70 43 30 32 41 62 69 90 96 99 97 83 62 62 48 39 31 54 106 150 145 96 45 41 60 75 76 60 54 48 51 53 63 58 40 25 28 27 29 36 35 37 27 27 29 28 30 26 19 27 49 48 48 50 34 26 21 23 28 21 14 16 30 40 36 45 56 47 38 41 50 50 43 28 25 29 37 51 59 54 36 34 49 62 54 43 37 32 27 39 50 44 34 39 51 49 41 29 32 43 39 35 34 26 24 30 32 29 24 25 29 32 34 34 32 29 25 24 23 23 25 32 38 41 36 30 25 24 25 26 29 30 26 20 17 17 17 18 19 22 25 24 24 25 26 25 25 27 27 30 46 54 40 30 26 25 27 28 37 67 120 129 131 135 131 131 136 148 129 97 104 129 138 147 168 189 199 195 175 149 139 136 136 141 140 137 136 143 144 138 135 134 136 142 142 153 169 141 87 62 84 120 131 131 138 143 137 135 131 120 86 44 29 29 28 31 40 48 57 51 45 55 59 55 58 85 92 91 88 68 70 87 73 46 39 55 72 82 77 62 53 64 74 76 69 73 75 59 39 44 65 53 39 43 45 46 62 100 138 134 146 138 128 136 137 141 131 133 139 115 106 97 80 53 42 39 33 30 
39 46 71 83 118 124 106 97 67 42 27 27 45 61 73 82 88 111 99 69 58 43 44 27 36 76 118 139 127 93 50 47 64 67 65 60 48 46 54 58 62 57 33 25 25 30 25 27 37 35 35 35 32 33 35 23 23 24 32 41 46 51 39 24 21 26 34 27 18 24 46 54 46 50 57 46 35 34 33 33 24 18 24 20 20 24 42 44 45 29 41 51 40 35 43 40 28 23 36 34 36 50 56 44 40 35 36 42 38 42 46 41 35 42 45 35 25 24 30 39 45 45 42 38 35 32 28 27 33 39 38 36 31 27 24 22 23 23 24 26 25 21 18 19 17 19 19 20 24 26 25 25 28 27 26 28 27 30 45 54 43 32 27 26 29 29 31 54 95 129 134 133 134 129 137 140 114 91 105 128 139 155 180 199 197 187 170 154 143 136 136 140 141 139 137 144 145 136 136 135 138 142 144 162 170 124 73 68 91 123 133 133 142 147 142 138 137 131 109 59 31 27 26 29 38 50 64 55 52 58 60 56 66 91 87 81 82 63 60 77 51 35 33 51 68 74 83 71 64 85 89 83 75 67 66 54 45 40 49 36 35 51 53 50 61 101 139 137 137 115 101 108 121 123 112 118 126 104 89 100 83 56 34 35 36 36 
33 60 87 99 112 112 83 73 59 35 23 24 42 60 68 71 82 98 84 57 48 49 31 25 53 89 113 116 102 90 56 44 61 56 49 59 64 70 59 49 42 33 27 24 29 27 26 24 28 36 36 35 42 38 42 31 23 28 28 29 44 44 35 28 36 44 46 37 29 33 46 53 42 34 36 28 24 31 24 21 17 20 20 20 19 18 26 39 40 37 39 47 36 42 57 65 41 27 26 30 37 49 57 42 35 38 37 37 35 43 52 50 46 48 52 42 31 27 29 38 48 52 52 48 42 40 33 34 36 38 34 28 25 23 22 22 23 22 21 22 22 21 21 20 20 20 19 19 22 26 26 26 28 29 27 26 26 28 43 54 44 35 29 30 34 35 31 48 102 132 136 135 130 135 138 136 105 91 105 124 139 162 189 198 190 175 159 157 146 134 133 139 141 142 146 145 143 141 138 138 138 139 145 167 165 108 67 72 101 130 133 133 142 144 140 138 134 143 125 70 32 26 28 27 32 43 50 58 53 52 47 46 63 93 88 70 78 54 72 79 48 27 34 58 58 65 67 73 87 108 112 91 74 63 70 71 63 54 51 44 44 56 67 57 71 110 136 124 119 93 82 92 105 109 100 104 111 89 88 93 93 62 44 43 38 34 
32 43 72 72 88 101 90 72 56 33 26 29 37 53 54 56 65 78 55 50 59 49 29 29 67 94 90 72 74 72 48 44 56 49 33 45 79 80 60 45 29 26 24 24 27 27 24 22 24 27 26 34 34 40 44 35 26 26 26 30 32 35 27 36 46 48 42 28 21 23 31 37 32 31 28 26 29 32 25 17 18 19 19 18 18 20 29 44 43 39 41 46 42 44 75 85 60 30 28 27 36 53 55 40 34 35 41 44 50 49 58 52 39 43 46 44 41 32 29 34 43 51 55 50 42 37 33 31 33 35 30 25 22 23 23 23 23 22 22 21 21 22 23 23 23 22 20 18 21 25 26 25 28 28 26 24 23 27 40 49 41 34 31 33 36 34 33 58 112 141 135 132 130 134 146 129 98 94 110 123 140 163 183 200 194 172 165 158 145 135 137 136 140 146 144 146 145 143 143 139 138 137 144 168 151 90 62 76 109 135 137 140 147 143 137 135 157 150 122 69 33 25 31 31 32 34 49 61 60 46 37 38 54 87 77 69 74 71 85 91 46 31 45 60 70 62 60 68 88 110 117 99 76 78 78 86 84 73 73 48 41 54 59 65 84 128 153 128 99 79 69 88 92 112 101 97 93 72 67 71 61 48 42 39 36 28 
20 34 52 47 88 109 106 85 55 37 32 29 36 40 39 42 57 64 52 59 63 45 26 50 80 91 77 63 56 70 48 49 53 39 26 43 73 78 58 45 35 25 27 31 30 27 23 25 20 20 21 22 30 34 44 34 24 22 23 22 24 21 24 27 35 32 26 19 17 19 26 33 32 27 29 29 27 31 23 16 16 16 18 18 18 21 37 41 40 33 43 41 44 54 76 90 65 35 25 31 38 48 50 40 30 32 43 48 48 53 52 48 34 32 39 41 39 36 30 32 35 42 52 50 39 35 33 34 36 37 34 26 22 23 24 23 22 21 21 22 25 29 26 25 26 24 20 20 22 25 26 25 26 27 24 22 23 27 36 43 34 31 34 37 35 32 36 71 123 138 132 133 133 143 151 124 95 96 113 125 136 153 178 191 195 174 156 150 140 138 140 143 139 138 142 143 144 150 146 141 138 136 148 164 133 77 60 81 115 138 138 147 152 143 141 164 181 156 105 59 32 30 32 32 31 35 45 63 59 44 41 43 52 67 64 65 83 81 82 74 40 30 40 59 64 68 69 75 76 91 96 98 89 88 87 89 84 83 71 56 35 42 50 55 84 131 149 133 99 65 70 88 101 91 99 97 70 59 59 46 34 33 29 35 27 23 
33 42 53 74 115 132 124 88 56 44 41 33 35 37 35 36 55 65 72 71 55 42 43 67 87 75 76 61 69 64 66 49 46 31 44 65 78 65 52 44 31 27 29 30 30 25 26 32 27 20 18 18 28 37 41 40 26 22 22 19 18 18 17 22 22 24 28 25 19 21 28 36 33 26 26 26 23 24 21 20 15 20 18 18 22 25 38 39 28 37 43 48 51 69 76 89 62 31 29 34 38 48 58 50 32 33 35 33 34 38 43 41 30 30 30 33 38 31 31 29 32 39 51 56 51 46 40 36 35 36 35 29 24 23 23 23 22 21 21 24 32 37 30 25 25 22 20 20 23 26 25 24 25 26 24 22 22 25 34 37 32 31 38 43 41 39 50 88 129 134 133 140 141 153 151 115 91 101 117 126 136 151 169 191 191 165 149 140 133 139 141 141 138 135 139 142 144 152 153 145 139 138 156 157 114 69 65 87 122 137 132 140 149 145 149 158 156 118 72 48 41 40 41 36 32 34 39 49 49 45 53 58 55 59 55 66 90 81 70 49 34 36 39 54 73 86 93 102 97 84 97 95 88 85 91 83 78 67 59 46 39 42 46 46 74 103 114 106 94 59 53 84 83 84 105 125 88 67 66 57 45 40 37 36 29 27 
57 51 64 88 140 139 118 91 66 60 54 36 33 36 34 35 52 72 80 70 52 39 53 71 73 59 66 66 57 69 56 48 30 35 65 102 92 72 61 41 29 24 24 30 29 19 29 34 31 24 20 18 25 34 37 34 30 28 24 21 19 18 17 16 21 27 31 23 16 17 23 34 35 29 25 23 21 21 24 21 23 25 25 19 22 35 37 40 25 36 53 55 63 75 90 83 72 36 25 27 34 44 51 47 37 29 31 29 33 46 45 39 34 26 26 30 32 33 30 32 29 30 37 43 45 46 42 33 29 29 30 28 25 23 22 22 21 21 23 26 33 35 29 24 23 20 20 21 23 26 23 23 24 25 25 23 22 25 32 35 30 31 39 48 50 54 69 104 131 133 133 141 147 160 142 103 93 110 127 140 146 152 172 189 185 171 153 139 141 140 142 137 137 137 140 143 143 150 151 146 139 147 167 148 93 61 69 97 127 137 129 136 149 149 136 115 101 66 50 48 43 47 48 42 40 39 37 40 44 39 45 49 50 49 56 67 80 79 56 38 41 50 51 63 82 90 108 127 115 104 102 94 76 74 85 82 72 54 48 43 48 54 56 68 87 90 85 88 80 71 60 69 73 72 109 135 95 67 69 58 56 58 59 47 34 34 
63 59 72 105 131 115 95 86 80 76 63 35 27 29 32 35 47 72 68 48 29 29 35 58 49 42 49 36 39 37 34 34 25 29 64 94 100 99 67 43 22 20 24 32 38 33 20 29 24 21 20 18 22 30 28 26 27 32 26 22 18 16 12 13 19 26 30 26 18 16 21 33 40 34 26 21 19 20 21 21 23 34 34 25 31 39 45 31 29 35 56 62 68 80 79 89 74 45 23 27 33 38 39 40 38 38 28 27 42 49 51 47 44 29 23 27 29 32 33 34 35 32 28 27 31 36 33 30 26 27 28 26 24 23 22 22 22 23 27 29 28 26 26 26 24 21 21 21 24 26 23 23 24 23 23 23 23 27 32 32 30 31 38 46 54 66 88 112 131 134 135 142 156 167 136 93 101 124 140 153 159 162 181 189 185 175 165 143 136 144 143 142 137 135 140 143 139 141 144 137 138 157 178 142 81 62 78 105 136 153 148 140 133 120 98 74 57 51 47 37 38 40 39 36 38 35 31 40 52 40 39 43 45 57 64 73 84 78 59 42 58 71 69 74 86 92 104 123 120 114 106 87 71 78 86 86 74 63 48 50 44 56 69 79 97 94 69 64 78 77 87 74 56 49 74 92 68 62 70 64 61 75 75 58 33 22 
45 60 82 122 139 81 69 78 93 83 61 34 28 26 28 32 53 62 54 37 19 19 30 38 44 30 28 22 18 21 28 26 33 37 51 78 103 91 75 30 20 19 22 34 43 38 34 22 20 19 18 16 18 25 23 21 23 33 28 22 19 14 13 12 16 22 28 31 26 21 22 32 40 37 31 26 21 19 19 18 20 39 42 32 40 47 44 37 23 26 38 53 57 79 76 71 66 39 23 27 35 33 29 31 46 40 29 30 36 42 41 47 46 35 24 25 27 26 31 33 33 32 29 24 22 24 28 26 28 28 27 25 24 24 22 23 23 25 30 31 24 23 27 29 25 24 23 23 26 26 24 24 25 22 22 24 24 27 30 29 29 29 35 47 65 87 109 126 131 133 134 141 162 168 125 95 110 136 148 160 173 181 191 196 179 182 169 146 134 140 148 148 147 143 139 139 139 136 135 136 140 163 173 123 71 66 84 114 155 178 163 127 100 80 60 51 49 40 40 33 29 29 27 28 31 28 26 46 63 50 41 44 54 67 85 96 99 97 73 62 70 81 75 80 100 106 100 117 121 110 107 85 81 82 81 74 75 69 62 62 51 60 71 80 95 87 83 68 66 83 104 90 55 53 51 58 53 62 78 79 76 80 75 51 30 32 
83 73 111 162 143 92 63 81 108 85 53 34 35 30 26 26 31 40 33 21 26 21 21 30 36 31 22 20 22 27 34 33 41 44 50 71 85 95 62 43 29 29 23 20 30 32 27 23 17 17 17 18 18 20 25 23 23 34 30 26 23 16 15 17 16 19 24 30 32 30 20 25 31 34 37 32 25 22 22 18 24 37 53 46 49 62 45 36 24 22 30 36 54 78 81 68 61 27 20 23 28 25 20 27 35 33 22 28 33 29 34 36 41 30 28 27 24 29 27 27 26 26 25 23 22 24 24 25 24 24 23 22 24 24 23 27 27 25 27 28 24 24 29 30 25 27 28 28 29 26 24 25 27 24 23 25 25 27 27 27 27 32 50 73 96 115 130 134 132 134 138 145 161 154 111 95 115 134 141 158 178 188 202 192 185 180 166 150 134 138 140 147 149 147 143 139 139 137 137 142 148 175 168 104 63 69 90 126 156 159 130 88 62 54 47 41 33 38 44 39 35 26 23 27 31 27 26 41 55 45 35 44 59 86 106 117 121 113 99 79 77 78 71 78 98 105 109 105 114 106 85 85 91 77 69 65 77 69 81 88 86 85 84 74 90 112 113 91 61 72 98 83 70 63 63 60 66 72 83 84 75 71 68 43 27 30 
109 100 121 172 144 86 78 97 120 86 48 32 37 38 27 25 26 26 19 26 31 28 16 23 30 33 28 24 27 35 50 55 50 49 58 62 74 74 73 63 50 50 44 32 23 28 26 20 18 16 19 20 21 21 23 27 28 34 31 29 28 21 17 17 19 19 20 31 39 43 37 22 25 33 37 30 26 27 30 24 19 36 54 52 65 70 58 32 27 24 31 36 49 79 96 87 77 44 18 21 23 23 26 28 33 29 23 26 29 30 31 32 31 30 28 26 27 25 27 25 22 22 23 22 21 22 23 22 19 19 20 22 25 27 30 31 31 26 25 28 27 26 31 30 27 29 34 32 29 25 23 27 28 27 24 25 28 30 31 29 39 58 80 108 125 135 136 138 141 139 139 151 162 136 99 97 119 136 143 159 179 192 195 197 190 178 157 152 149 143 149 142 143 141 139 141 140 140 141 140 154 178 153 88 59 73 102 129 126 105 76 53 49 46 39 31 31 39 52 50 41 38 28 26 30 28 30 36 47 38 34 40 63 93 117 124 123 119 109 92 71 72 72 68 77 95 93 98 105 89 73 93 89 71 60 76 84 75 81 108 115 106 90 74 104 139 145 108 71 53 73 68 73 79 67 69 81 75 84 84 78 78 66 50 39 35 
63 99 136 147 117 78 91 113 134 84 40 30 37 37 30 28 34 28 21 26 44 36 27 15 25 29 25 29 26 43 74 70 66 60 60 66 63 61 71 61 58 61 56 40 32 27 26 24 19 21 19 25 27 22 23 29 30 33 32 28 32 24 18 19 22 23 24 24 37 48 42 34 31 38 38 28 31 35 35 31 26 33 42 45 53 69 56 37 31 34 30 32 41 71 87 90 74 50 29 23 23 29 28 30 31 34 26 25 29 29 32 28 28 29 26 25 23 26 24 23 21 21 21 19 20 22 23 20 18 19 22 24 26 28 28 30 27 24 27 30 29 27 28 30 24 27 32 32 28 24 27 29 30 27 25 26 31 34 32 50 73 94 118 130 137 139 138 141 146 148 147 156 160 124 92 100 122 136 151 169 185 193 199 197 199 178 147 147 148 152 158 154 146 141 144 144 146 140 139 142 153 168 132 71 57 83 112 122 92 58 46 43 41 38 32 30 31 39 44 38 45 46 41 30 24 28 42 50 45 46 36 45 74 110 133 131 104 105 106 90 74 71 74 61 66 76 78 77 78 69 71 96 100 64 71 93 96 84 71 90 103 94 70 77 127 151 143 105 75 74 66 65 89 102 94 79 92 77 82 92 92 75 66 50 55 65 
70 111 130 142 96 76 106 133 138 78 42 35 34 40 39 32 36 33 23 29 43 50 37 28 22 26 26 26 34 56 93 98 93 86 87 77 66 60 52 57 47 48 41 33 27 26 27 24 26 31 25 25 28 26 26 31 35 39 33 30 32 27 17 23 25 28 27 24 23 29 33 28 34 42 46 41 38 34 36 39 39 36 38 28 36 54 53 41 44 38 33 30 35 65 81 57 56 37 27 30 31 30 31 27 31 32 37 25 27 28 27 27 26 24 24 23 22 22 22 22 21 21 21 19 19 23 25 23 20 22 25 27 27 27 25 24 24 27 30 32 30 27 28 30 26 23 27 28 26 25 30 34 32 28 25 27 32 34 53 82 114 126 134 137 140 144 133 135 147 152 156 173 162 114 93 107 126 137 155 178 191 198 197 189 196 168 142 140 141 154 162 168 162 151 150 152 144 144 141 146 162 163 110 62 60 92 123 114 67 41 39 36 33 31 29 30 33 37 37 34 41 50 47 37 33 50 62 56 45 38 41 51 85 129 159 132 100 89 102 99 77 76 81 73 70 74 67 57 53 48 64 92 83 72 81 95 101 85 70 61 73 59 51 80 134 135 111 91 81 90 78 66 107 124 118 104 115 94 79 99 96 71 52 53 59 74 
84 119 126 125 98 93 119 141 138 74 52 46 40 47 52 41 38 35 31 24 39 44 39 35 29 27 28 29 31 48 75 84 99 112 104 109 82 60 51 51 53 45 31 26 25 26 24 27 35 47 36 28 29 30 31 37 42 45 39 32 34 29 24 24 26 26 29 28 26 27 22 23 29 42 47 47 46 39 53 66 57 40 34 24 27 42 60 53 51 53 40 29 38 56 68 48 32 30 28 33 41 29 27 27 25 34 32 40 26 29 28 29 24 20 20 21 20 20 21 20 20 22 21 18 19 23 24 22 22 23 26 26 26 25 23 21 24 28 28 26 25 27 32 39 36 27 24 25 24 24 34 39 37 30 27 26 33 48 80 120 143 136 133 137 138 140 138 131 135 141 160 183 162 116 99 114 127 136 155 182 198 201 190 180 173 159 137 136 145 146 158 159 161 155 153 155 149 151 151 160 177 158 95 54 64 105 127 99 53 35 33 30 28 28 29 32 33 36 37 36 36 39 44 43 53 67 66 46 30 33 48 60 88 131 157 135 89 102 113 94 82 87 84 80 76 59 50 44 42 49 62 70 63 66 81 90 79 79 60 45 54 59 52 80 111 98 85 85 74 79 65 70 108 119 112 118 127 110 91 100 107 75 68 58 53 50 
62 109 121 113 114 116 140 135 128 70 56 53 39 46 63 47 39 38 32 32 39 41 35 28 28 30 22 29 32 33 48 58 91 110 131 139 139 93 65 57 60 48 35 27 23 24 26 25 36 50 40 32 32 32 34 34 42 42 38 32 33 28 25 26 25 22 26 27 31 31 24 26 31 31 38 42 44 56 75 95 79 44 34 27 21 40 52 58 63 54 47 32 37 63 55 42 31 26 24 37 43 35 34 40 35 31 46 43 43 33 33 28 24 20 19 20 20 20 20 19 20 23 22 19 18 21 22 21 21 21 22 23 26 25 20 19 23 27 27 23 23 27 31 38 41 32 23 24 26 27 33 39 36 29 26 29 51 80 108 141 147 139 133 132 133 138 135 136 130 132 159 182 149 110 110 117 127 134 157 184 199 201 186 177 176 150 143 141 141 145 138 141 143 142 147 152 152 152 155 169 182 146 81 51 72 116 126 81 44 33 31 28 28 28 33 40 38 37 37 35 33 35 43 48 54 57 47 25 23 38 51 64 88 139 142 112 91 99 112 101 96 98 92 74 62 55 43 49 59 78 75 57 50 64 93 91 85 77 56 43 61 71 67 60 77 62 62 85 65 54 52 81 114 101 106 105 133 112 86 101 108 86 89 89 54 43 
72 91 98 107 117 146 153 140 112 67 53 59 45 46 66 53 39 32 30 40 51 49 34 31 32 30 26 39 36 36 52 68 87 105 127 158 158 137 89 73 63 51 40 29 25 25 24 25 29 40 36 34 35 34 33 32 37 38 32 33 28 27 24 28 25 20 21 20 22 23 28 34 33 29 25 29 37 42 69 85 72 51 36 26 20 22 45 55 60 60 48 38 57 68 59 40 38 28 20 34 42 39 44 51 44 34 42 58 47 40 34 29 25 21 20 20 21 20 18 19 21 24 25 22 19 20 20 22 20 19 19 21 25 24 19 17 19 24 29 29 27 27 25 30 39 34 23 25 30 30 32 35 35 29 28 43 82 116 130 136 141 134 130 134 134 134 141 137 135 139 164 172 129 103 113 123 127 137 163 188 199 196 179 177 173 151 141 139 146 147 145 141 141 134 138 143 143 147 152 172 177 127 68 54 83 125 122 69 40 33 30 30 30 30 37 43 42 37 33 31 35 42 48 55 54 46 31 26 32 34 48 59 101 136 135 94 75 89 106 111 116 97 79 64 54 54 51 52 67 89 82 52 50 84 107 121 108 87 63 57 74 84 69 65 67 69 59 75 64 43 45 77 112 93 91 105 111 98 83 90 90 74 89 90 74 47 
38 72 93 115 146 162 160 138 100 56 51 61 56 56 70 57 38 25 31 43 56 48 37 47 51 41 49 72 68 61 66 75 84 85 92 116 134 136 111 85 71 56 49 37 28 25 25 26 29 37 39 40 39 35 31 33 39 42 38 37 31 28 27 26 24 17 15 14 14 26 38 41 36 21 19 22 23 27 31 48 54 35 34 24 21 27 38 64 62 51 43 40 56 62 47 43 40 35 22 20 31 30 39 41 35 31 41 50 41 37 30 30 26 23 21 21 21 20 19 19 21 24 26 25 22 19 19 21 20 19 19 22 25 24 19 16 17 21 30 32 27 25 23 28 39 37 24 25 31 32 33 35 34 29 29 48 92 127 134 132 133 132 133 135 138 140 141 144 135 145 174 158 107 98 116 123 127 139 166 188 198 193 176 171 167 146 137 139 144 147 149 149 148 142 138 139 137 143 155 176 166 108 60 60 94 129 118 63 39 35 32 32 32 32 35 42 43 41 36 37 44 46 50 57 50 36 28 28 41 45 47 64 102 135 113 88 78 86 106 119 109 82 57 49 46 45 46 35 49 74 71 49 58 96 116 124 117 104 84 86 88 80 56 60 87 88 73 85 79 70 54 75 91 75 83 88 87 88 87 90 85 59 63 77 63 53 
49 65 94 133 154 163 152 122 88 45 47 51 52 56 66 55 41 33 31 47 47 48 47 55 52 48 60 87 82 63 68 67 62 60 69 78 100 122 115 83 66 53 46 40 37 32 27 32 35 40 46 50 50 44 36 29 40 43 44 39 36 30 28 26 25 18 15 14 19 37 43 46 32 24 19 19 21 19 24 36 52 38 37 30 35 41 57 65 64 42 34 32 41 50 38 39 42 33 24 18 20 23 27 31 31 35 40 43 33 27 30 30 27 23 22 22 22 20 19 19 22 23 24 27 25 20 19 19 20 21 21 23 25 24 19 18 19 22 29 30 23 21 22 27 37 36 25 27 31 34 36 39 35 31 31 46 87 124 132 131 132 132 130 132 134 137 146 139 141 156 177 145 97 98 117 130 134 145 166 183 193 191 175 169 155 138 136 140 138 136 136 141 144 147 144 144 141 144 159 177 151 92 61 74 106 131 119 61 38 38 37 36 36 36 39 45 47 51 51 55 61 55 51 51 44 24 22 33 53 65 63 77 100 112 90 88 100 97 116 117 103 67 44 39 31 33 36 30 34 58 58 49 75 112 116 104 104 91 86 86 82 58 53 63 88 103 76 78 87 86 85 96 97 83 83 88 84 101 92 92 87 64 50 57 69 99 
92 69 89 122 155 155 137 107 76 45 46 43 42 45 50 45 44 35 32 38 49 46 63 51 38 38 49 67 57 64 58 51 57 51 47 51 60 76 73 55 37 37 36 43 46 43 34 35 35 38 46 54 65 62 50 30 33 37 36 41 34 33 26 28 29 22 16 16 26 37 39 27 23 20 17 21 17 19 28 53 70 66 51 49 52 60 58 65 54 41 32 27 38 40 46 36 31 29 19 20 19 19 23 29 31 44 46 44 36 27 30 32 27 21 21 22 20 19 18 19 22 22 22 27 28 24 20 21 21 21 22 24 26 25 22 22 24 23 27 26 20 20 22 25 31 32 28 28 32 33 37 39 35 32 33 48 84 121 138 133 134 135 132 130 133 136 139 139 138 161 170 126 91 104 125 134 146 156 172 184 191 185 182 174 157 138 137 141 141 134 134 142 149 145 145 146 142 147 165 174 137 82 69 93 120 139 133 75 38 39 42 40 39 42 46 46 50 52 72 85 83 82 76 75 60 45 37 44 66 80 80 87 110 100 93 121 118 128 129 119 104 65 39 36 34 36 38 33 41 60 61 55 89 137 117 92 78 79 73 78 71 56 54 66 81 90 73 66 70 92 111 136 134 108 101 96 101 114 102 79 78 61 52 58 67 88 
87 85 89 116 156 152 126 99 61 44 41 46 34 39 37 36 38 33 27 36 36 60 61 53 31 31 40 43 51 67 62 51 45 49 42 36 33 38 41 30 27 28 39 44 45 41 43 39 39 39 37 43 60 65 53 34 27 33 41 44 39 32 27 30 35 23 17 18 26 41 34 22 21 17 20 24 22 18 23 51 77 71 66 53 49 54 45 41 47 37 31 31 31 42 41 35 28 24 21 20 22 22 27 24 37 42 48 48 38 34 27 31 28 21 21 21 20 19 20 19 22 21 22 27 28 25 24 20 21 22 24 26 28 27 25 25 25 24 33 28 21 21 23 22 27 29 30 31 28 31 36 36 35 34 34 43 73 115 134 139 142 141 135 132 131 132 133 135 144 170 160 111 96 116 134 146 157 167 181 193 192 178 178 179 156 141 138 142 137 137 143 152 160 155 142 141 140 147 169 168 122 78 84 112 130 148 149 104 47 38 44 40 40 42 47 48 41 64 82 74 71 65 71 77 76 77 74 61 65 77 74 90 117 113 113 133 138 126 130 114 91 57 30 36 51 43 42 42 54 67 72 68 109 139 116 83 74 71 86 91 86 82 66 63 72 84 76 76 86 108 134 155 155 119 114 99 98 119 89 68 66 60 52 77 65 73 
78 89 90 104 124 122 101 80 61 39 37 38 44 33 35 36 36 31 33 40 41 42 56 39 26 27 35 41 44 58 54 34 40 42 40 44 43 32 30 26 28 40 45 49 44 37 34 44 45 45 40 37 44 50 44 29 30 37 47 46 38 28 29 39 39 29 20 19 28 39 37 32 22 20 28 31 26 19 23 37 57 65 65 45 38 38 31 31 35 37 31 40 39 40 50 37 32 23 22 22 24 34 31 29 34 43 38 37 38 28 28 31 30 23 21 21 20 21 21 20 21 22 23 25 26 25 21 21 22 23 25 28 30 29 27 25 24 31 40 36 22 22 21 23 25 30 33 32 30 32 33 35 33 36 35 39 64 105 133 139 142 140 134 132 132 131 132 135 155 173 149 104 100 125 139 153 165 178 189 202 192 158 162 166 152 142 144 147 140 137 138 150 159 159 149 144 146 160 170 159 106 82 104 127 131 136 152 124 72 39 39 40 34 41 43 41 53 74 73 59 38 46 46 39 45 54 55 52 50 58 65 88 118 117 100 116 111 100 94 73 57 32 23 44 57 43 41 45 47 61 72 78 112 134 106 82 76 83 97 116 109 97 89 68 79 87 76 77 93 104 112 135 127 116 119 102 94 97 69 46 48 46 56 80 82 115 
98 86 81 88 101 83 71 66 58 38 37 43 50 51 34 47 36 40 50 57 54 39 41 29 24 28 38 42 35 34 25 23 23 29 34 43 52 43 33 34 37 34 38 43 39 40 38 31 39 49 41 36 42 40 40 35 33 39 42 44 31 31 38 48 50 41 33 26 28 37 44 33 27 24 26 35 24 18 22 31 41 54 59 44 29 34 44 32 34 37 45 49 56 52 50 44 31 28 29 28 30 43 43 34 41 43 37 33 35 32 28 29 29 25 21 21 21 22 21 21 22 24 25 25 24 23 21 20 23 25 26 30 32 30 28 29 30 35 44 38 26 22 23 22 25 30 34 34 35 36 34 32 33 38 40 40 61 103 131 137 137 134 131 131 131 133 138 145 166 173 134 98 106 128 140 157 175 186 200 206 180 149 151 153 145 144 153 152 144 142 140 139 153 153 146 152 160 175 182 145 94 88 114 127 122 120 137 132 94 55 37 36 35 32 35 38 53 65 63 31 38 48 43 26 20 25 35 41 40 45 55 70 109 98 79 87 81 81 67 38 31 25 39 54 58 47 45 59 63 54 63 79 116 133 122 107 88 91 116 121 104 99 86 88 94 92 87 82 80 84 86 91 105 106 91 89 86 84 60 46 45 35 54 90 98 180 
101 70 64 72 82 63 55 54 48 38 26 43 55 59 54 54 61 62 68 68 59 46 31 31 27 28 34 39 27 21 21 21 21 21 22 33 43 41 43 49 47 34 18 19 30 34 27 25 28 33 32 29 35 41 51 55 50 42 52 50 45 42 44 46 48 45 44 38 37 45 46 41 29 31 33 39 27 22 20 23 26 42 48 37 28 40 41 36 30 35 38 54 57 55 50 40 30 32 36 35 34 45 44 37 40 40 38 33 33 32 27 26 28 25 22 23 24 24 22 24 24 25 27 27 25 24 22 20 23 25 27 32 35 33 32 35 38 37 41 36 32 25 24 22 24 31 35 35 36 35 32 30 33 39 44 45 67 110 132 136 137 134 131 131 130 131 135 150 174 170 119 96 115 131 144 168 183 197 205 203 181 161 163 154 144 145 152 155 145 142 145 147 150 153 147 145 156 178 173 132 88 92 117 124 121 123 127 139 114 73 43 35 33 35 35 36 39 47 29 27 37 53 38 25 20 29 46 51 45 43 46 61 81 87 65 59 71 73 54 43 31 43 54 57 56 43 60 89 86 62 64 75 124 154 155 135 102 103 120 116 90 75 88 94 105 110 106 97 88 76 77 94 108 93 80 69 79 87 77 66 59 60 72 106 110 148 
72 53 49 49 53 48 48 43 41 32 30 21 44 44 46 57 64 75 78 69 53 41 39 31 35 33 29 30 25 22 21 19 18 20 26 26 28 35 36 42 45 29 24 21 20 28 23 15 20 22 25 27 37 50 70 88 79 69 66 66 71 56 51 56 39 43 50 54 62 56 52 44 39 44 48 45 37 29 30 20 24 32 41 37 27 23 31 21 20 29 29 43 55 55 52 42 35 32 36 33 30 40 42 40 38 41 39 34 36 30 25 25 24 23 21 24 26 26 26 25 24 25 27 28 28 26 23 23 24 25 26 30 33 34 35 36 37 36 32 37 36 34 29 30 28 35 39 39 39 34 30 31 33 37 42 50 81 122 132 134 137 135 133 135 134 132 134 151 181 160 108 99 121 135 150 174 188 199 206 202 184 175 170 153 137 142 149 146 138 139 137 141 150 158 159 154 157 174 167 118 83 97 119 123 121 124 128 124 124 96 54 37 37 44 43 38 40 34 25 27 45 44 34 24 39 49 59 57 41 35 48 57 72 78 64 50 57 64 52 36 40 44 52 43 41 51 69 93 88 58 48 75 125 151 157 136 110 124 130 116 82 72 92 117 128 135 144 118 96 100 106 104 112 105 74 57 80 84 78 85 62 59 90 102 115 95 
44 56 49 32 40 43 37 38 37 35 28 26 21 34 30 47 55 75 73 60 53 44 42 42 37 35 29 24 20 20 18 22 25 28 31 31 28 31 30 25 22 23 23 23 23 21 18 16 15 20 19 29 42 49 74 104 106 85 76 79 73 77 77 76 58 38 57 73 81 80 59 48 49 55 53 50 39 35 33 28 23 34 42 36 28 19 18 20 23 29 34 36 54 53 46 41 30 27 28 29 30 38 45 47 39 37 36 37 44 34 26 25 25 23 22 25 27 27 27 26 22 22 25 27 29 29 24 23 25 26 26 30 34 40 42 40 38 35 30 35 42 41 37 38 35 37 38 40 42 36 32 31 33 34 37 54 97 132 133 132 134 132 131 135 137 136 140 162 186 151 102 104 124 134 146 172 186 194 207 198 178 170 157 142 142 141 144 144 139 136 138 136 140 151 157 151 157 175 160 104 80 103 120 123 124 127 125 120 128 121 69 35 34 37 36 36 38 36 28 32 44 45 35 37 49 61 62 42 30 40 56 60 74 82 73 56 49 54 42 34 34 45 51 48 59 65 69 78 71 49 44 69 119 140 136 122 115 142 140 112 88 82 90 124 139 154 148 122 114 114 113 115 103 96 77 73 70 71 73 69 64 60 70 92 95 136 
49 60 55 35 35 39 35 32 32 32 39 23 29 31 40 53 64 67 71 56 39 41 41 39 42 35 23 23 21 21 30 36 37 39 35 29 31 41 41 22 20 18 21 21 20 23 18 17 19 18 25 38 45 50 68 96 105 90 67 56 67 61 81 97 76 59 58 70 92 88 66 52 47 55 51 49 40 35 28 23 24 32 33 33 22 17 24 26 32 36 36 43 44 45 36 30 24 25 25 28 33 38 47 45 38 34 34 40 48 37 28 30 31 30 27 28 29 27 25 24 20 20 21 22 26 28 24 22 24 26 28 31 35 42 46 45 48 41 30 31 43 43 39 36 37 36 33 34 38 36 32 31 32 32 36 62 109 136 134 132 133 131 131 131 134 135 142 174 184 138 100 108 124 131 147 175 180 192 199 189 183 171 151 138 142 142 142 140 139 139 140 139 136 139 144 146 162 175 143 93 82 114 128 129 130 133 130 127 148 155 105 49 27 31 30 27 36 33 24 32 44 47 40 40 50 57 49 34 34 57 74 72 69 78 82 71 57 60 42 40 52 65 79 85 84 81 74 67 71 61 57 69 119 145 139 126 127 149 122 92 80 66 93 109 123 130 122 102 102 110 115 103 89 80 70 65 76 65 62 80 81 83 87 73 89 105 
68 57 58 44 40 39 35 31 28 37 48 53 46 54 63 58 46 51 46 38 31 25 31 37 45 44 29 25 29 38 45 46 44 40 44 36 28 42 51 29 21 20 19 20 24 24 24 16 18 22 28 37 42 42 50 74 92 88 74 57 47 47 57 79 79 68 60 66 75 84 68 55 50 55 47 42 38 25 29 23 23 24 28 22 20 23 27 34 32 38 39 40 45 43 30 24 23 21 25 29 34 42 40 41 34 37 32 34 40 28 25 30 33 32 29 27 26 23 22 19 19 19 18 19 22 25 23 22 23 25 27 31 30 30 37 42 53 48 30 30 41 47 38 40 37 37 30 30 35 36 33 31 33 34 46 80 116 134 133 132 131 134 131 133 134 134 145 179 173 118 97 110 123 135 157 177 185 188 187 185 192 188 157 141 140 141 138 141 148 141 140 142 138 134 139 152 173 171 127 80 92 123 137 140 139 142 140 136 156 170 141 77 37 27 27 28 27 26 25 32 43 40 38 35 47 59 48 32 38 69 83 74 64 56 66 78 84 64 55 59 77 95 93 83 75 76 68 70 74 69 60 75 108 146 149 134 139 153 110 76 58 77 90 110 100 97 78 70 79 86 85 87 83 72 56 62 80 80 66 76 78 70 82 67 69 84 
20 36 46 48 49 33 29 25 21 36 59 53 60 69 79 68 43 36 36 34 30 31 26 35 51 54 42 42 51 62 65 51 44 51 54 44 28 32 48 28 18 19 19 19 23 33 26 20 17 20 27 34 35 40 58 65 80 89 87 75 60 48 45 54 61 64 58 64 77 74 67 61 58 55 45 34 26 27 38 31 23 24 20 20 20 21 31 28 31 31 33 38 48 41 31 23 21 21 21 27 35 37 37 31 33 35 33 31 29 22 21 25 25 24 22 21 21 19 18 17 17 18 18 18 20 23 23 23 22 27 34 41 39 33 32 39 51 47 34 36 40 48 46 45 43 39 32 31 37 38 33 31 36 54 80 104 130 137 133 131 131 131 135 133 135 134 156 187 161 105 98 116 124 138 159 182 193 193 187 180 188 179 156 140 142 141 137 148 153 152 145 143 142 137 139 158 178 161 110 79 94 127 138 135 141 148 149 141 140 155 142 101 47 27 26 25 24 25 26 41 46 36 35 37 46 51 42 29 40 57 65 66 64 63 44 75 89 82 66 81 106 117 95 72 66 66 72 69 61 62 68 66 98 122 134 123 136 137 102 63 59 68 102 112 94 82 71 65 66 69 65 63 73 81 57 64 94 94 79 75 72 69 60 57 63 84 
22 20 33 43 53 34 18 18 19 31 51 43 32 54 76 78 70 69 68 46 54 50 37 36 52 58 55 58 68 76 65 51 41 42 44 35 17 30 43 24 19 22 26 21 24 30 29 19 18 20 24 27 28 46 62 66 63 70 81 76 69 68 65 61 54 50 46 70 84 74 73 66 51 48 44 31 25 36 50 38 22 22 20 19 21 25 30 27 25 27 27 39 46 46 39 28 23 21 23 26 34 36 32 32 32 32 30 27 24 21 20 19 18 17 17 18 18 18 16 16 16 17 17 18 21 22 23 20 25 29 40 49 43 39 41 40 47 43 41 39 44 44 47 45 44 40 37 39 43 39 33 34 59 86 113 133 142 143 142 135 134 134 132 133 132 136 166 192 147 101 107 123 128 135 157 180 193 201 186 180 179 160 143 140 142 142 138 143 155 154 151 149 147 146 149 164 178 150 95 74 101 128 135 136 137 146 150 141 129 138 154 102 53 29 24 24 23 23 30 52 54 40 34 36 35 33 27 35 59 55 47 56 88 78 52 52 86 79 83 89 109 106 89 73 68 66 65 60 48 48 54 67 82 109 113 114 124 125 83 71 62 69 96 121 105 91 74 68 71 77 59 57 79 75 65 77 95 76 62 69 81 77 74 77 68 89 
23 24 28 52 68 44 22 13 20 39 41 42 41 44 74 93 104 129 115 93 91 78 50 44 47 49 49 52 55 52 51 36 35 31 26 19 19 31 37 25 22 29 32 22 20 21 21 18 18 21 23 19 18 33 53 56 48 50 57 60 62 79 89 85 73 53 43 74 97 78 73 65 56 46 45 37 26 36 54 31 22 22 21 22 23 29 36 29 25 24 26 36 43 49 47 39 29 24 26 32 37 36 34 33 34 30 28 26 26 26 25 19 16 16 18 19 18 16 16 15 16 17 18 21 24 25 24 27 30 33 37 39 35 33 41 44 45 45 45 42 39 43 45 48 43 39 39 44 43 36 37 62 89 115 134 139 142 145 142 139 134 133 133 134 130 141 173 182 128 97 114 128 131 137 156 175 188 193 178 181 173 150 144 141 144 144 141 141 149 154 154 145 145 144 150 172 180 137 86 80 108 131 138 138 140 149 150 132 140 166 154 114 54 30 27 24 23 24 35 61 62 52 48 37 25 20 22 49 78 67 51 71 102 108 58 44 64 85 93 97 91 84 71 72 65 66 60 58 54 51 51 62 85 105 107 114 138 136 108 93 81 78 101 129 112 94 77 76 79 85 73 63 70 73 75 99 90 65 50 74 95 86 85 68 69 22 
29 33 32 48 66 53 26 19 30 46 52 56 70 85 82 82 107 135 146 136 129 110 76 54 48 44 42 47 47 49 54 52 42 34 28 21 31 35 33 24 26 29 28 21 18 22 25 22 22 25 24 18 21 32 45 56 52 42 45 40 46 57 64 74 70 69 69 93 112 86 74 72 66 56 49 38 24 34 45 30 23 23 21 22 23 27 33 25 21 22 26 30 39 48 55 43 36 31 33 38 41 37 32 31 30 29 29 31 33 36 31 27 21 21 21 20 18 16 15 15 15 16 19 23 26 26 26 28 30 31 30 30 29 28 37 45 45 49 52 47 35 38 43 49 53 49 46 49 43 40 62 94 119 126 132 137 138 139 141 138 135 132 135 136 139 156 187 166 112 97 119 131 135 141 158 177 183 185 178 183 169 145 140 144 144 147 147 147 146 148 144 141 136 138 148 174 176 126 78 90 118 133 138 140 145 155 154 147 158 157 143 90 50 30 25 26 24 26 35 56 63 64 61 44 25 23 29 59 88 71 61 90 113 112 75 49 56 74 95 90 79 58 50 51 58 55 57 59 64 62 60 64 85 96 107 118 161 157 123 101 86 76 92 111 90 81 77 87 90 92 78 68 65 69 109 126 102 65 70 88 105 108 87 80 60 62 
34 36 27 29 46 44 34 23 34 55 57 74 109 137 138 106 86 100 113 105 120 111 95 78 60 47 43 45 43 49 55 52 38 31 24 28 49 56 31 25 29 28 28 30 34 35 34 29 25 26 23 20 29 35 43 49 51 43 38 42 39 38 36 40 54 79 93 106 117 95 82 80 69 58 47 34 23 29 36 29 26 24 20 22 25 26 28 20 18 21 26 30 42 57 66 53 42 37 37 40 42 37 30 28 29 28 28 29 30 30 29 26 28 26 22 18 16 15 15 16 16 18 20 24 26 25 24 26 28 27 29 32 37 38 41 48 47 46 57 49 37 33 36 45 56 56 52 52 46 59 95 123 136 134 133 136 136 135 138 137 136 134 138 138 144 172 191 149 99 103 128 138 145 147 164 182 190 189 191 196 171 144 140 139 143 148 150 154 153 147 140 136 142 141 153 181 165 105 76 95 122 130 136 141 144 145 151 152 132 120 88 65 45 29 25 25 25 30 40 59 70 71 66 45 32 34 40 64 102 80 77 107 110 101 87 69 60 75 96 85 68 47 30 40 51 65 63 65 61 60 57 61 67 83 97 119 141 140 94 77 61 60 79 83 65 62 83 85 88 83 84 71 66 83 126 143 111 84 92 113 125 119 101 82 73 70 
47 39 28 18 27 35 29 19 32 54 61 72 106 155 175 142 105 80 67 64 65 77 88 81 69 63 53 47 43 35 40 43 26 22 23 31 62 69 41 29 34 33 37 45 47 38 31 25 23 24 24 24 32 34 32 42 48 49 43 56 45 39 29 31 47 78 105 120 124 107 99 85 69 51 38 29 22 22 29 26 28 24 20 23 28 29 26 21 18 21 27 34 46 66 77 68 48 40 37 38 38 35 32 29 31 31 30 30 28 26 23 24 26 25 20 16 15 15 17 18 19 20 22 25 27 26 25 23 25 28 28 32 45 51 51 52 47 47 59 54 39 34 35 38 45 45 45 47 51 81 114 132 137 143 140 133 132 134 135 137 134 134 139 138 143 175 182 129 91 110 134 144 151 152 163 189 195 189 191 192 167 148 143 147 142 141 146 150 151 148 144 144 139 144 164 179 150 92 74 105 122 127 133 144 141 134 141 120 98 66 56 58 42 28 26 25 26 31 41 58 67 63 53 43 36 42 45 68 106 87 82 106 103 92 96 82 80 88 96 82 57 34 35 37 59 75 75 62 62 60 62 66 66 80 95 116 123 111 73 57 53 62 74 73 48 55 60 70 60 71 84 84 75 94 118 131 95 86 108 133 147 123 99 93 93 89 
20 37 29 23 22 28 27 21 25 38 49 53 70 120 159 141 100 80 69 49 46 51 68 62 60 69 56 51 53 36 43 56 36 25 25 25 62 68 50 55 58 47 46 51 47 32 25 23 24 26 25 23 24 24 23 31 45 46 56 70 65 48 45 40 42 61 98 123 129 118 115 88 61 47 34 24 21 22 25 26 29 25 21 24 28 27 25 24 23 27 34 41 48 63 81 79 53 41 36 34 35 36 36 35 33 33 32 30 27 24 22 21 21 21 19 16 14 16 18 19 20 20 22 25 27 28 27 25 24 28 25 27 40 49 51 53 47 52 58 55 38 36 37 35 34 34 37 42 53 95 124 123 136 147 141 134 133 136 139 136 135 134 136 137 147 176 167 111 92 117 138 142 147 152 165 186 188 183 186 175 157 151 145 143 143 139 139 140 142 145 150 150 149 160 181 182 134 80 83 110 123 126 132 146 144 134 126 103 60 45 49 47 36 27 25 24 24 31 39 50 56 53 47 45 37 47 50 68 98 83 69 97 101 109 100 98 82 84 93 71 55 42 43 50 60 73 65 57 61 65 69 75 82 86 104 114 125 97 69 54 58 69 74 73 48 40 50 46 51 58 92 82 88 97 127 121 103 82 110 139 152 125 95 97 110 112 
19 31 29 24 25 30 33 32 32 37 36 46 57 90 139 127 100 91 81 65 46 53 68 59 55 55 51 51 55 52 50 76 50 20 22 33 60 75 69 68 65 50 46 53 43 30 22 21 20 26 28 24 19 19 23 23 27 29 42 61 57 51 46 43 41 46 80 129 145 124 112 96 54 47 38 23 23 24 24 27 27 24 24 26 29 27 26 37 31 27 35 37 43 50 74 75 58 41 34 32 33 37 46 40 36 31 28 25 22 22 23 22 20 20 18 17 16 17 19 22 23 23 25 26 28 33 30 28 26 27 27 23 29 38 40 46 48 48 53 47 36 32 34 33 28 30 40 44 57 100 128 126 139 150 145 137 137 136 140 142 139 132 134 138 162 185 156 99 95 120 135 138 144 159 172 188 190 179 190 175 157 153 148 140 139 141 142 144 138 140 155 155 156 176 192 175 113 75 85 112 128 126 135 145 145 134 117 79 45 40 37 35 31 27 29 25 24 32 41 43 51 51 45 45 42 59 67 71 100 86 76 97 118 125 133 104 94 82 80 82 67 61 56 46 50 64 61 54 61 63 61 71 85 91 92 112 109 102 72 50 59 77 85 76 64 54 44 51 53 72 95 84 84 107 138 148 110 94 101 142 147 126 97 103 111 139 
28 29 29 20 24 33 38 39 41 39 42 41 56 91 132 133 106 89 87 63 51 56 65 54 37 44 33 37 51 45 54 69 55 27 19 42 61 66 60 48 37 30 49 64 60 45 28 20 20 24 28 22 18 18 20 21 20 25 25 41 37 34 38 43 39 39 79 132 137 115 104 90 65 67 53 32 23 24 28 23 23 21 23 27 27 26 37 51 46 34 31 32 32 37 48 60 52 41 35 31 31 41 44 42 33 29 24 20 19 20 23 22 20 20 20 19 19 20 23 26 28 31 30 27 29 31 35 29 28 28 22 26 27 27 33 35 39 44 43 38 31 28 31 30 28 33 42 48 59 90 126 130 133 147 141 137 137 136 140 142 143 137 131 141 176 191 139 93 98 123 134 137 148 167 182 187 183 187 191 172 153 157 151 147 142 146 152 148 142 145 154 156 164 176 186 151 94 67 85 116 129 132 131 143 146 135 112 63 40 34 32 28 27 31 29 27 31 35 42 42 52 60 47 41 51 71 85 81 89 89 83 92 100 120 122 115 97 81 81 83 78 67 53 38 39 60 71 66 72 66 55 69 89 86 83 92 91 88 72 50 57 76 84 85 66 54 50 54 65 75 92 79 75 115 141 159 134 105 127 139 143 113 99 94 89 103 
41 38 39 28 27 33 46 46 46 46 42 47 60 85 129 132 98 81 66 61 59 60 57 41 51 41 32 26 36 34 31 52 46 37 49 44 54 57 47 40 26 28 52 71 67 52 35 23 20 22 23 21 18 18 17 21 19 23 29 30 31 31 36 39 42 39 59 100 108 87 84 88 81 92 77 47 30 29 25 24 20 19 22 24 25 27 35 51 46 36 36 32 31 30 29 42 47 42 36 32 33 37 39 31 27 25 22 18 19 21 22 21 21 20 20 20 20 21 23 26 31 34 34 30 30 36 39 37 35 35 28 29 31 29 26 30 38 46 42 35 28 26 28 30 28 31 43 48 50 79 117 134 132 136 135 134 136 138 141 144 141 140 136 146 177 175 116 89 103 124 134 141 155 179 183 183 184 193 199 174 144 146 153 146 146 149 151 149 143 141 146 149 161 185 176 133 79 65 85 120 138 132 131 134 139 136 98 57 36 32 30 28 30 28 26 37 50 42 42 39 55 66 56 44 55 79 83 79 80 90 95 91 97 101 107 101 81 71 66 60 56 45 42 32 42 79 87 85 82 80 71 90 102 110 104 88 71 63 60 44 56 74 81 74 66 55 56 71 77 76 83 68 88 98 145 154 149 131 138 141 121 98 87 76 80 70 
43 49 50 37 29 44 51 55 58 55 53 59 61 86 119 131 115 88 72 66 67 67 58 61 58 48 29 21 22 27 28 26 40 50 58 65 50 48 50 35 28 26 41 53 50 40 27 22 17 18 18 18 17 19 21 20 21 20 23 24 26 29 35 41 46 40 40 61 72 65 66 73 81 94 87 57 41 29 27 22 23 22 22 22 25 29 29 38 35 36 40 36 36 35 31 38 42 40 37 34 33 35 32 25 23 23 20 18 20 23 23 22 22 22 20 19 19 20 21 25 28 32 35 34 33 37 40 36 35 41 37 37 35 29 25 28 40 48 41 31 28 29 30 30 28 32 38 44 45 60 102 135 137 133 133 133 135 140 141 137 137 145 152 170 187 159 103 87 105 125 134 140 157 181 181 170 188 211 217 186 154 141 143 141 139 140 143 143 141 141 138 140 168 191 175 118 70 64 90 129 147 145 143 134 134 132 89 48 34 30 29 29 29 26 33 59 61 47 34 33 42 64 58 58 62 75 76 72 78 89 93 101 101 110 117 104 97 80 68 46 32 36 29 34 46 86 98 81 81 82 93 116 136 125 126 106 63 41 40 48 72 69 77 71 63 61 59 74 72 71 69 59 65 99 114 154 138 134 137 139 122 87 76 96 108 175 
32 49 65 44 37 40 50 57 69 73 77 75 83 84 100 115 107 84 66 49 51 54 40 39 45 28 31 25 24 35 31 23 20 33 47 45 37 39 32 31 26 23 34 44 39 28 24 21 18 17 19 17 20 21 19 21 19 19 20 22 29 35 35 38 42 38 34 44 56 53 50 59 77 92 76 60 40 29 24 25 25 24 21 20 26 32 30 29 31 36 39 35 36 38 34 37 34 31 35 38 36 35 31 28 25 23 21 20 21 23 22 22 23 23 22 22 22 24 26 28 33 37 38 38 37 37 40 35 32 40 42 42 37 30 27 31 40 41 32 27 29 30 29 29 28 33 35 40 44 44 80 125 140 134 133 135 141 144 142 135 135 147 169 197 194 141 93 93 106 124 136 145 161 181 176 164 185 211 206 180 157 139 137 140 139 139 143 141 141 142 137 147 182 196 167 103 63 64 90 132 151 153 155 147 142 135 87 43 33 30 30 29 28 31 51 61 57 30 26 24 32 43 54 56 64 65 67 72 81 83 87 87 102 110 115 124 122 120 93 60 37 35 31 26 46 95 105 89 70 82 98 130 132 111 107 103 72 44 39 73 81 72 64 60 56 45 41 44 51 48 57 55 55 72 115 133 148 134 139 161 141 89 90 113 134 189 
44 54 64 53 38 45 49 54 74 86 90 92 92 83 77 75 69 55 43 42 39 34 32 32 40 43 47 36 31 29 33 20 15 17 25 21 21 22 25 32 29 25 31 40 38 28 23 25 17 16 18 18 23 23 20 18 17 18 20 24 32 38 36 24 30 37 40 47 53 49 45 70 99 107 78 60 38 26 25 24 25 23 20 20 27 31 25 24 27 33 36 33 30 29 27 26 25 24 33 41 38 34 31 29 25 24 24 23 22 22 21 21 23 25 25 25 26 28 29 33 41 47 43 41 39 37 43 38 34 42 48 46 37 30 28 30 34 29 22 23 27 28 26 28 31 33 36 38 42 42 61 113 141 136 132 138 144 146 142 138 139 148 175 205 183 118 88 101 113 129 143 158 175 190 179 171 187 201 173 157 149 143 139 142 143 140 140 139 140 145 148 169 196 197 146 86 56 65 98 131 141 151 161 148 145 141 88 43 34 32 32 28 29 44 59 54 36 21 25 25 30 37 54 51 57 57 55 66 69 64 59 69 73 77 87 109 118 125 114 72 55 55 37 32 53 89 115 95 78 77 98 127 121 85 82 94 84 61 60 77 84 50 53 50 46 39 25 35 39 45 52 57 64 63 85 125 147 142 149 167 165 112 108 121 119 120 
34 43 61 46 45 53 48 54 67 79 84 86 73 68 49 41 37 32 32 35 35 33 28 38 40 41 42 28 13 21 19 12 16 19 15 19 14 18 28 36 39 25 30 45 35 25 40 30 19 16 15 22 30 31 29 25 18 17 21 28 35 40 33 26 33 47 54 54 54 50 55 88 122 108 69 44 32 22 25 27 25 25 22 21 26 28 22 19 22 27 32 33 28 25 23 22 19 22 32 38 36 33 32 28 24 23 23 23 22 22 22 23 25 27 27 27 27 28 27 30 38 47 48 45 40 40 47 45 36 43 51 47 36 29 26 26 27 21 19 22 27 30 32 33 36 37 36 42 46 44 52 98 139 140 135 136 137 137 133 135 141 152 180 206 165 102 90 110 124 137 153 173 189 196 188 180 207 199 159 137 139 138 137 141 145 142 140 138 141 149 158 191 208 187 124 71 56 71 103 130 139 152 165 157 150 142 100 54 34 32 30 27 31 47 52 41 19 27 29 30 33 49 60 59 56 55 49 51 48 39 40 45 47 52 66 82 98 95 90 76 64 73 55 47 56 91 104 98 74 72 80 108 104 77 68 76 81 71 68 88 74 58 58 60 52 34 30 30 41 40 47 63 80 88 81 115 138 140 128 154 145 107 95 90 60 40 
32 47 62 56 46 58 56 43 55 68 81 68 62 46 36 32 30 18 23 25 23 22 25 28 28 22 21 11 14 12 10 14 18 18 17 17 19 22 27 40 41 36 42 46 34 35 42 42 19 15 15 29 40 38 39 30 18 17 23 31 40 43 34 29 35 46 45 43 47 54 73 103 128 103 49 31 22 23 24 25 25 28 25 22 28 29 23 22 23 28 32 34 30 30 28 21 17 21 30 33 32 32 31 28 24 23 23 22 21 21 21 23 25 27 27 28 29 29 27 24 30 42 48 46 41 43 54 54 36 37 45 42 37 31 25 24 26 23 23 24 28 34 38 38 39 40 36 46 53 48 52 90 137 145 140 137 135 134 131 131 140 149 174 191 142 91 94 121 130 140 158 179 192 195 177 178 199 186 153 133 137 141 144 144 145 143 141 138 137 142 160 192 210 172 109 64 59 77 111 133 141 155 161 152 147 144 117 73 38 29 27 26 28 35 39 24 25 30 32 28 35 49 68 58 59 60 57 49 42 32 40 48 54 56 66 82 65 54 51 43 51 71 58 51 77 95 103 81 65 57 67 87 92 66 65 61 63 61 58 69 64 55 65 63 59 38 30 41 43 40 41 54 90 109 125 126 138 126 110 113 112 79 66 49 44 64 
33 53 67 55 45 50 50 40 41 57 69 68 52 39 38 37 26 21 18 21 21 22 23 25 24 22 16 15 15 14 12 13 17 16 15 16 20 23 25 37 44 41 41 42 30 28 45 37 23 14 21 36 49 41 43 33 20 17 20 31 30 30 30 23 29 32 30 32 48 70 91 108 123 89 40 24 24 23 25 25 27 29 26 22 34 31 24 22 24 31 34 30 29 31 32 26 19 23 29 31 26 28 26 23 23 24 25 22 21 20 20 21 22 23 25 25 26 24 24 25 27 36 42 43 38 45 64 59 41 30 40 37 36 36 26 23 26 26 27 24 26 32 35 39 40 37 37 45 53 53 56 97 142 149 144 141 143 138 138 137 143 152 181 179 124 86 99 125 133 146 165 182 192 191 173 176 183 170 149 142 141 143 146 143 142 138 137 137 137 138 162 201 199 162 95 61 62 82 118 137 146 151 151 142 146 147 127 97 56 28 26 26 23 27 26 29 35 41 38 39 36 47 61 54 55 62 63 59 46 37 43 60 66 69 76 74 58 42 35 38 49 67 67 69 103 111 98 66 55 58 62 81 80 67 65 64 63 56 51 48 44 53 52 63 62 47 49 56 64 56 48 40 61 98 121 132 134 110 95 90 77 64 48 38 56 121 
29 51 63 44 31 42 56 50 43 51 66 65 49 44 44 43 32 19 20 21 21 21 22 23 25 40 21 17 19 21 22 15 15 16 16 19 19 25 25 26 40 36 36 31 32 39 37 36 29 20 18 35 42 44 46 35 21 22 26 32 29 23 22 23 25 28 28 35 51 78 95 109 103 72 30 21 22 29 27 26 26 29 22 28 45 39 22 22 24 34 38 35 25 30 36 35 24 25 31 26 26 23 21 21 22 25 25 24 22 21 21 20 20 21 21 23 24 25 27 29 32 33 38 41 43 53 73 73 46 40 43 38 39 36 26 22 26 24 23 24 24 28 35 38 40 40 39 42 46 48 64 108 145 146 138 141 138 137 136 142 143 155 181 172 113 82 104 127 137 153 175 188 196 194 186 188 179 154 143 147 140 140 141 140 140 137 137 143 139 149 182 207 196 144 80 57 66 90 120 139 146 153 148 146 152 139 137 114 75 38 25 25 24 24 26 30 40 46 49 50 47 49 59 53 50 57 53 59 53 34 35 46 56 55 62 65 61 55 57 55 55 71 83 86 105 99 72 55 59 71 68 75 75 62 64 67 74 72 58 54 42 46 45 59 68 56 55 68 71 61 49 33 32 62 93 106 108 105 89 77 71 57 40 36 37 48 
38 53 52 37 23 42 65 66 48 54 62 57 50 45 41 36 24 20 21 20 20 20 18 22 39 54 38 19 23 32 33 29 19 15 19 16 24 29 24 23 31 37 29 39 46 59 50 39 38 39 27 22 34 47 46 38 24 19 27 41 35 22 21 21 26 27 32 34 43 66 87 79 77 51 21 21 31 37 39 30 31 24 26 39 54 44 27 20 22 35 48 35 28 27 37 38 35 26 27 28 24 21 18 18 21 23 24 23 22 21 20 21 20 21 23 25 27 32 38 39 36 35 34 40 47 58 79 83 63 49 51 43 39 37 27 23 26 23 22 24 26 29 33 37 45 51 49 45 42 45 74 119 145 140 138 138 135 134 139 143 151 154 176 155 98 86 109 130 142 164 185 193 200 195 190 194 164 142 143 140 142 135 137 140 142 143 142 144 146 156 191 207 181 124 70 56 71 98 123 137 145 149 150 144 141 138 129 129 101 50 26 25 25 26 25 26 29 33 37 44 43 44 63 64 49 51 47 46 55 41 26 30 32 31 37 42 48 59 62 61 54 75 84 90 97 73 57 50 69 85 70 64 65 49 55 63 74 76 68 56 44 44 56 67 85 60 49 55 62 55 38 27 23 39 66 75 91 92 85 78 67 57 44 31 33 37 
42 54 42 32 35 47 73 75 59 50 49 48 51 50 38 26 21 21 21 19 18 18 20 22 36 53 36 21 23 31 40 34 22 15 14 18 25 34 31 26 31 39 44 36 51 71 61 42 44 53 52 28 29 40 48 30 25 20 23 39 41 25 21 26 31 33 32 29 41 59 59 52 52 32 21 28 33 44 43 41 38 34 37 44 53 43 27 24 21 37 51 39 25 24 28 35 32 30 28 27 25 21 18 18 19 21 22 23 22 22 21 21 22 22 26 28 30 38 47 48 40 34 38 41 50 71 84 89 68 50 45 36 34 34 27 25 27 25 25 30 30 29 31 40 51 59 57 46 37 51 91 133 146 141 142 142 137 132 141 154 164 177 180 139 95 92 117 130 145 169 187 194 199 187 187 186 155 134 140 142 139 139 136 141 148 145 145 147 148 165 193 195 162 104 63 58 77 106 129 141 149 151 148 139 133 129 128 136 114 66 31 25 26 26 24 27 29 27 30 42 48 52 74 71 53 49 41 41 59 54 36 27 24 18 21 25 39 50 55 58 58 58 77 77 82 65 56 57 69 77 63 58 59 52 56 59 64 56 52 51 57 71 64 86 84 59 36 38 50 59 44 31 28 40 66 78 91 85 77 65 57 52 50 46 41 42 
71 47 39 29 36 51 64 68 52 41 42 39 43 46 34 34 32 25 21 19 18 17 18 22 22 37 25 24 26 31 41 32 37 19 19 20 23 32 31 29 36 45 50 47 46 64 66 44 40 60 61 46 28 36 32 27 21 21 21 36 42 28 22 30 38 36 32 31 41 51 49 41 39 33 28 32 35 40 47 46 54 51 47 47 46 35 32 26 24 38 50 38 25 26 24 27 35 39 30 29 27 19 19 19 19 19 21 22 23 23 23 22 24 25 30 32 32 39 50 47 34 31 35 44 60 77 91 84 63 42 35 27 28 32 30 25 28 27 29 34 31 28 33 39 51 55 51 39 42 70 112 142 145 144 142 149 145 134 132 146 169 185 175 123 88 98 117 131 144 170 188 196 197 179 189 191 150 134 135 141 140 139 140 139 138 142 142 151 156 171 201 190 147 88 57 61 82 116 132 141 145 140 140 134 130 123 134 141 118 71 36 25 26 25 26 29 27 23 29 42 59 68 75 71 48 51 49 47 62 59 43 29 29 23 23 31 48 55 61 67 62 55 57 62 72 62 59 75 69 67 60 66 77 67 70 62 57 45 40 67 102 114 96 78 69 52 28 26 53 57 63 39 34 47 76 97 104 83 70 66 56 59 62 74 72 63 
106 53 35 30 33 38 42 53 43 34 35 37 34 30 37 45 44 29 23 21 19 19 18 19 19 23 25 25 29 36 38 44 51 48 27 28 24 21 33 36 29 36 44 47 44 63 69 63 54 61 68 46 34 30 33 27 21 22 22 29 36 26 24 29 46 40 32 27 35 45 35 33 36 31 25 30 33 39 47 49 54 56 57 48 44 42 35 34 32 39 51 37 35 38 31 27 40 41 33 32 30 24 20 18 18 18 19 21 23 24 23 25 26 29 35 37 34 38 44 41 29 30 39 49 65 77 76 63 45 34 34 29 29 34 33 29 29 28 29 34 33 30 33 36 41 43 39 40 62 94 131 144 146 153 156 156 151 143 133 136 170 187 161 104 83 100 119 130 149 172 188 194 192 173 183 190 158 144 146 146 149 141 138 138 138 140 148 160 160 176 198 184 128 72 53 63 92 131 138 141 142 134 130 142 128 130 153 142 110 64 36 27 25 24 27 35 33 22 24 44 62 60 59 54 40 49 52 46 47 39 27 34 37 39 32 38 55 65 66 77 72 61 46 57 62 52 66 87 83 54 64 73 69 64 51 49 47 45 50 92 137 141 110 69 57 40 30 34 46 64 55 51 33 50 80 117 128 88 68 68 71 70 89 99 91 70 
52 42 38 32 21 31 52 66 45 29 30 31 27 25 28 40 31 24 26 28 25 24 21 18 17 20 24 26 28 36 41 44 59 64 34 29 25 20 38 43 33 23 33 36 47 59 73 83 73 70 68 54 30 25 34 32 23 25 28 25 27 23 23 33 44 42 31 26 37 46 31 30 34 27 30 35 28 39 45 37 40 46 50 49 43 38 36 35 35 39 49 41 41 43 35 31 37 36 29 29 32 30 23 20 18 18 19 20 22 23 23 24 27 32 39 40 35 36 37 33 28 28 42 51 64 81 67 48 34 33 40 33 30 31 32 28 29 28 28 35 36 32 31 33 34 34 40 61 89 118 134 138 152 162 161 160 155 147 144 151 177 192 146 88 84 103 119 132 150 168 181 188 188 176 185 186 171 160 162 160 154 149 142 137 143 140 149 159 159 179 196 171 107 58 52 66 106 146 150 148 155 138 144 148 158 149 146 135 87 54 34 27 26 29 43 54 52 43 43 56 71 62 50 37 37 45 48 39 32 29 33 36 47 41 34 48 64 68 70 74 71 64 60 52 59 57 66 108 96 62 68 69 58 51 43 39 45 50 67 110 144 139 99 68 46 41 23 40 43 42 62 66 60 49 69 106 116 86 58 63 71 87 92 90 81 71 
64 42 40 26 29 46 74 79 54 28 19 23 23 19 24 25 24 25 34 36 29 26 22 17 13 19 22 27 27 29 35 27 53 56 43 27 30 26 28 43 35 28 36 43 51 61 71 78 79 65 67 58 43 25 27 38 27 31 43 33 26 24 23 24 34 33 21 23 38 44 37 30 39 49 54 51 45 43 40 34 35 45 51 48 44 36 30 35 35 39 45 41 37 37 32 32 37 32 22 23 27 26 25 21 21 21 22 22 22 22 23 24 27 34 41 39 33 35 32 32 35 39 42 51 66 80 77 49 32 35 45 37 31 28 27 26 26 26 26 33 37 31 30 28 32 34 56 94 119 136 135 137 142 153 150 142 147 153 157 169 200 190 130 83 84 108 122 139 154 169 183 189 185 181 184 168 153 155 146 147 150 146 141 145 147 154 149 156 168 183 197 154 89 53 55 72 113 154 155 154 154 149 156 193 180 143 123 89 66 49 32 26 27 31 35 48 41 33 37 54 65 57 48 42 32 45 56 41 30 39 47 46 44 47 62 71 81 76 69 57 57 64 61 59 57 54 70 107 101 58 62 55 45 54 60 56 64 75 85 130 154 122 93 58 44 40 33 33 39 35 63 77 68 60 49 70 91 59 51 61 71 82 76 67 55 75 
46 47 35 35 43 57 82 77 41 33 30 28 24 22 21 24 28 29 33 35 30 22 20 15 15 16 26 25 23 19 20 19 29 51 35 32 34 34 32 33 34 42 56 64 69 71 74 94 81 70 67 60 67 48 34 48 38 40 52 47 32 24 23 23 27 23 20 18 27 39 26 31 41 50 57 56 49 48 42 36 39 45 50 51 42 33 34 37 36 39 47 39 35 31 28 36 36 31 24 20 19 25 24 22 24 23 24 24 25 22 21 24 32 37 48 40 30 33 34 40 46 55 50 41 49 66 70 53 36 33 38 36 29 25 22 22 22 25 24 28 33 29 25 27 27 39 77 119 139 141 141 141 139 138 133 135 137 147 156 179 205 180 113 79 90 107 126 141 159 176 194 195 182 182 176 166 143 140 141 140 146 142 141 142 152 155 154 156 168 194 183 137 73 52 57 77 122 159 162 152 146 149 184 187 163 116 75 63 59 47 30 28 29 25 27 26 27 22 27 39 44 43 46 44 45 61 75 64 43 39 46 41 47 68 83 104 93 76 64 57 44 55 68 49 60 71 80 113 109 70 69 59 47 66 64 66 77 95 100 125 138 112 70 46 40 35 24 30 33 45 58 67 68 58 53 59 69 60 48 58 69 59 56 46 47 62 
89 72 58 47 55 72 80 62 43 35 37 35 30 26 23 32 39 36 31 33 28 19 19 18 13 21 24 26 21 18 17 18 16 32 28 25 32 36 34 31 33 38 55 65 66 76 85 111 102 98 68 67 74 66 46 56 51 43 57 53 37 26 23 22 22 23 16 16 22 28 26 28 39 48 52 52 49 53 48 35 40 41 43 45 40 33 31 35 36 41 43 38 32 24 27 33 36 28 25 21 22 25 23 24 24 23 22 23 23 21 19 24 32 51 55 46 30 31 39 54 61 57 58 44 33 50 59 51 37 28 30 27 31 26 25 25 27 30 29 27 30 27 25 25 27 45 90 137 139 141 140 142 140 135 134 140 141 143 149 172 197 154 93 79 90 109 123 143 164 184 198 193 178 165 173 159 152 140 137 144 147 139 138 139 145 147 145 150 172 190 168 113 66 52 62 88 130 163 163 148 139 152 153 140 101 65 58 55 53 40 31 28 26 26 23 27 24 26 31 39 37 31 42 48 53 69 86 74 48 39 36 41 58 75 93 96 83 68 60 55 51 59 67 74 83 96 107 130 118 83 86 76 67 68 63 64 83 125 113 116 129 94 62 47 36 28 28 29 31 48 58 59 70 64 59 55 64 58 55 61 61 54 49 59 70 99 
64 77 66 54 58 74 73 58 29 37 36 33 35 29 32 37 46 41 34 38 32 20 18 16 16 21 28 24 23 22 21 18 19 21 29 30 28 28 28 34 40 38 50 57 63 80 97 100 106 101 86 48 65 63 43 59 54 45 56 54 38 24 23 25 23 24 22 19 20 25 28 26 33 43 52 57 53 51 44 41 38 36 35 37 31 32 35 37 36 45 48 41 28 28 28 31 30 27 25 24 26 26 25 23 26 25 23 20 20 18 18 23 38 56 65 50 32 33 50 61 62 60 61 57 46 39 46 44 34 28 28 29 32 35 34 30 29 34 33 28 29 27 25 24 27 45 98 155 149 138 147 144 140 136 138 138 146 145 146 175 185 133 83 81 96 112 128 147 171 186 198 187 176 173 158 162 153 144 134 137 138 139 136 145 141 142 144 159 186 192 156 98 60 58 75 106 145 159 154 139 130 117 106 74 56 53 49 46 39 33 30 28 25 23 26 35 28 27 37 43 38 34 39 41 45 59 66 57 44 37 38 45 70 83 71 65 58 45 52 56 55 64 85 92 88 103 115 120 97 69 73 78 65 67 68 77 107 136 129 126 124 88 61 49 35 29 32 42 46 45 49 63 67 71 65 65 63 66 67 67 66 59 60 72 79 83 
82 87 65 57 74 79 75 52 45 37 33 32 29 32 29 31 32 31 31 37 33 24 19 20 24 28 30 27 24 22 23 22 17 19 31 37 35 29 31 39 47 53 67 72 79 89 93 85 85 108 86 60 65 64 53 62 54 44 52 45 31 22 26 28 26 28 28 22 20 31 38 27 26 34 49 61 60 55 50 41 42 40 39 35 29 37 44 39 38 44 49 40 34 34 31 30 28 28 28 27 29 30 29 27 29 28 26 21 19 17 19 26 40 62 70 55 36 36 47 58 46 51 72 74 58 41 35 32 31 33 31 29 33 38 36 31 26 30 31 29 30 29 26 24 26 41 94 155 166 148 144 147 137 140 134 140 140 145 153 180 175 116 79 85 103 120 138 153 178 196 191 176 186 176 167 165 162 154 148 149 140 133 142 147 150 145 151 173 196 193 136 81 57 68 93 122 151 156 146 139 123 88 60 48 47 45 39 33 31 31 32 29 24 25 36 44 37 27 30 33 29 31 41 37 37 47 49 44 37 37 44 59 78 78 58 44 35 41 52 62 57 64 88 82 88 85 112 139 95 63 74 77 61 66 81 108 130 146 138 138 132 86 58 52 39 25 41 65 65 62 65 71 65 60 75 73 59 68 80 82 82 71 64 64 60 43 
121 101 89 79 85 94 63 55 50 38 28 26 27 29 24 24 22 23 25 29 30 26 25 26 28 27 24 24 20 20 27 28 25 19 20 32 37 35 36 38 46 58 69 95 85 95 88 82 93 111 86 72 75 68 52 55 49 43 46 35 23 23 30 31 28 25 24 21 23 40 49 40 31 33 40 48 53 57 51 41 41 46 50 44 37 45 42 35 29 38 49 44 41 40 35 29 29 31 31 29 29 32 33 32 30 27 24 22 20 18 21 29 42 66 68 52 37 38 50 59 50 53 75 78 59 37 26 26 28 33 34 30 35 41 38 32 26 26 25 26 28 29 29 29 27 30 70 134 165 157 145 140 139 142 140 138 141 152 175 191 165 103 81 95 113 130 144 164 187 204 197 174 183 175 160 162 158 157 162 165 155 139 137 145 146 146 150 173 198 179 119 71 72 88 109 130 143 143 143 142 114 71 43 43 41 35 31 29 30 31 31 29 26 26 33 42 33 24 22 23 22 28 43 37 31 41 49 46 48 50 53 60 70 64 49 38 32 39 50 55 52 54 60 71 72 94 130 147 105 67 77 75 60 67 78 112 123 133 134 143 125 74 59 56 36 30 49 68 66 58 65 66 58 60 80 77 74 81 101 104 95 78 61 49 39 35 
83 97 84 83 87 74 53 46 48 42 31 28 31 28 27 24 25 25 25 28 30 28 26 27 27 23 21 24 20 20 29 33 23 20 19 18 23 31 32 36 36 41 69 92 100 82 100 90 111 112 81 70 74 57 40 38 34 37 42 30 24 29 36 38 35 27 22 19 19 30 45 36 38 38 35 33 38 48 44 36 40 45 51 46 46 48 36 24 21 33 48 49 38 38 30 29 30 31 32 31 30 32 34 33 33 29 25 25 25 24 25 30 42 65 62 43 34 37 59 69 61 57 68 68 55 37 29 26 25 29 28 24 29 33 29 25 27 26 24 24 27 31 35 35 26 30 42 98 156 168 145 134 141 144 142 137 143 165 192 203 150 92 84 101 121 138 153 174 195 209 198 180 185 178 153 156 164 151 155 169 153 147 135 140 148 148 159 180 194 173 108 75 95 112 124 134 138 134 136 144 104 53 40 37 33 30 29 28 29 28 26 26 26 27 29 32 23 20 21 26 27 28 35 34 35 37 42 53 60 52 48 48 48 48 43 43 42 36 42 42 42 37 47 65 101 127 150 150 90 53 64 77 77 81 85 96 107 117 121 121 98 63 58 60 44 39 55 66 53 44 56 74 70 80 91 83 71 74 92 96 86 80 63 50 42 20 
46 72 74 76 83 79 62 57 61 48 38 35 31 31 26 23 25 26 28 35 33 30 25 28 30 25 24 27 24 22 27 31 24 21 25 26 26 29 41 33 34 38 54 87 90 89 98 113 121 115 81 72 64 44 34 30 25 28 34 24 25 33 38 44 37 27 20 19 19 21 30 32 36 36 34 29 31 38 33 34 41 39 38 35 37 36 25 19 22 30 44 42 33 28 24 28 27 28 32 33 32 32 32 31 33 32 30 31 31 30 29 34 39 56 54 35 31 39 63 83 65 55 60 58 52 41 32 26 24 25 24 22 27 29 22 23 28 30 27 26 25 29 38 39 34 22 35 69 136 185 156 135 138 144 138 139 141 165 196 187 130 87 89 106 123 141 163 187 204 211 192 179 188 172 155 152 157 165 156 152 154 151 147 140 151 168 180 192 196 157 98 86 109 121 126 133 138 137 144 142 101 50 38 32 29 29 28 27 26 24 23 24 24 27 35 31 23 21 24 30 32 24 24 32 41 45 46 59 70 56 42 38 43 45 42 45 48 38 33 37 46 38 41 66 106 151 164 142 73 49 71 98 100 98 89 101 115 116 107 96 76 53 67 64 57 45 51 57 41 43 68 80 90 94 95 77 58 59 70 79 80 77 71 62 51 41 
79 63 72 80 86 90 83 73 57 47 36 29 28 27 22 21 24 27 34 43 35 29 27 28 32 27 24 26 23 21 27 28 21 18 21 19 21 26 31 30 37 50 45 63 70 69 102 116 132 111 95 82 61 45 35 28 26 26 29 24 27 31 37 43 36 24 21 22 22 20 23 28 32 30 28 27 32 38 30 34 44 35 31 28 27 25 19 22 22 26 38 34 30 23 29 28 26 26 30 31 31 30 28 28 28 30 30 31 29 30 34 31 37 45 43 30 32 45 70 81 73 58 56 58 50 37 27 24 23 24 24 23 27 28 24 23 27 31 32 29 27 30 38 47 38 29 27 44 114 173 177 137 136 138 138 133 141 160 190 173 113 85 97 114 126 141 165 189 209 205 184 167 171 165 150 148 158 163 166 149 144 159 150 142 147 173 200 199 180 137 88 92 119 121 124 135 139 139 141 136 82 45 34 30 27 26 28 25 24 24 24 23 22 26 35 35 26 26 27 28 29 21 18 29 39 41 47 69 77 56 42 49 57 62 60 55 53 41 35 49 58 51 45 63 93 137 170 130 71 63 88 110 98 84 77 106 123 115 84 66 64 56 62 78 62 58 49 47 48 56 72 88 84 91 91 68 56 51 62 59 69 68 67 68 65 62 
112 72 76 88 82 76 78 57 40 38 37 26 21 24 23 16 27 33 48 41 34 27 27 30 29 28 22 23 20 19 25 27 20 15 15 17 14 22 23 27 46 59 44 41 50 65 93 132 141 120 87 82 59 44 38 29 23 26 29 25 29 33 42 43 33 22 21 22 22 21 22 25 28 26 25 25 33 42 31 35 36 31 28 29 27 23 23 22 24 22 31 33 22 26 33 36 27 25 26 26 26 26 28 26 30 30 27 26 26 27 31 37 33 40 37 33 35 44 66 74 63 60 60 57 53 36 25 23 24 24 22 23 26 28 27 27 29 32 35 32 28 29 34 49 48 30 26 33 70 148 176 152 140 152 147 139 134 156 187 165 106 89 103 119 131 148 167 193 204 199 168 158 159 148 141 142 139 153 156 151 143 151 149 136 144 173 201 199 163 114 84 97 118 122 125 125 130 135 132 118 72 39 33 27 27 27 27 27 25 25 25 25 23 27 32 32 29 27 24 27 24 22 23 28 34 36 49 65 72 53 48 68 82 90 86 85 75 57 49 58 65 54 62 75 79 127 149 120 71 64 89 97 87 67 65 87 106 97 58 53 57 59 71 68 64 48 46 45 50 56 66 67 69 83 84 53 42 57 53 47 41 50 57 52 64 46 
66 67 85 102 73 63 57 42 34 41 43 28 23 29 37 27 31 46 52 47 26 31 36 35 32 27 26 26 26 23 25 25 16 18 18 18 17 18 23 30 44 48 40 33 54 66 83 124 152 115 88 69 52 46 37 26 23 28 35 28 28 35 38 38 25 19 21 20 21 25 26 27 26 27 26 25 30 46 41 28 29 21 24 25 23 22 22 22 20 24 37 34 23 27 42 41 28 21 19 20 22 25 27 31 34 33 27 25 23 27 37 39 42 37 35 35 34 46 70 70 61 57 55 56 49 35 25 26 25 23 22 22 24 27 30 30 28 31 33 30 28 27 31 44 46 34 26 28 45 108 165 166 156 155 158 156 149 167 192 156 105 98 111 124 136 159 177 193 205 191 166 167 168 148 142 141 136 137 151 149 143 140 141 138 145 172 199 188 151 96 82 101 117 124 124 126 123 133 129 115 73 39 30 28 27 26 28 27 25 25 26 25 27 31 34 36 34 30 25 25 24 20 22 29 33 37 54 69 64 48 53 75 83 81 84 87 89 69 62 57 56 53 68 82 79 98 136 106 67 57 60 78 75 74 61 74 81 77 59 47 55 52 60 70 47 47 43 49 61 53 45 41 63 93 93 51 39 66 58 34 43 50 46 56 52 79 
78 58 91 95 67 43 40 36 29 39 41 28 30 41 63 48 42 50 65 47 43 43 46 40 38 28 30 35 35 33 31 22 21 18 22 22 21 21 24 27 30 29 19 31 47 58 76 120 139 121 97 74 53 41 31 23 20 29 39 31 30 34 37 33 21 22 22 21 22 24 28 27 27 28 31 26 30 53 52 32 21 19 19 18 17 17 16 20 21 24 39 35 24 32 46 40 24 18 16 18 22 24 26 27 31 31 26 23 24 28 41 48 45 40 35 33 35 49 83 85 65 56 49 45 41 30 26 27 27 23 22 23 24 27 29 29 26 29 29 28 28 26 26 36 40 35 30 29 37 75 145 172 155 146 152 154 163 180 177 129 94 105 118 125 141 165 180 194 206 196 171 163 165 144 133 142 139 135 142 147 141 141 139 144 145 166 193 184 137 90 89 114 126 130 134 130 138 142 136 127 91 46 28 27 27 27 25 25 25 25 25 25 29 34 34 36 38 33 32 30 22 18 19 21 25 41 62 70 63 43 42 56 59 50 50 64 70 60 52 51 39 42 49 63 51 69 104 105 72 58 64 70 76 77 80 87 79 71 63 61 53 47 63 71 60 60 67 66 83 64 42 39 65 112 120 71 59 76 63 47 54 54 68 56 58 47 
12 51 86 93 59 41 31 26 26 30 38 30 32 52 71 56 39 45 53 51 47 52 49 47 47 36 32 36 37 30 27 23 20 23 22 23 22 20 18 22 21 17 21 25 34 51 75 130 124 122 99 78 58 33 23 18 19 27 40 37 35 35 37 33 25 23 23 23 22 25 27 28 27 30 34 28 28 53 56 30 18 18 17 14 14 15 18 23 24 25 36 31 25 34 42 33 20 18 18 22 24 24 25 24 25 26 26 26 29 31 47 54 47 40 34 33 32 49 88 85 67 54 43 38 35 28 25 26 25 24 24 25 26 29 34 32 29 29 28 29 31 28 27 31 35 35 33 30 33 57 120 166 162 143 141 152 171 184 159 103 91 110 119 126 145 168 183 193 204 195 170 151 146 138 132 138 139 141 140 138 137 140 144 134 151 172 190 175 124 87 103 126 130 132 133 136 141 144 143 138 116 60 29 27 27 26 25 23 24 26 28 27 27 31 30 29 34 39 46 37 24 19 20 23 34 57 77 81 72 52 36 38 38 32 29 44 54 43 39 36 33 25 35 39 31 39 71 85 79 73 74 63 61 78 99 113 86 70 69 68 57 48 62 71 59 75 83 82 89 72 53 41 74 114 124 96 68 81 78 73 78 78 90 97 90 92 
47 60 87 76 53 50 33 20 22 30 33 30 29 36 53 34 22 35 49 44 57 71 67 63 63 49 33 34 36 25 22 19 21 24 29 29 17 19 17 19 19 21 22 23 29 34 81 114 112 104 90 73 53 29 16 17 20 26 40 38 34 32 34 31 26 22 21 23 24 26 27 26 27 29 34 29 26 43 47 25 18 17 14 13 14 17 21 26 23 25 35 30 26 32 32 24 19 20 21 26 26 24 24 22 22 25 26 28 33 34 51 55 46 37 31 33 32 54 87 81 65 56 44 37 33 26 23 23 23 24 26 28 31 39 49 45 39 34 29 32 35 30 27 31 32 32 30 27 28 42 96 154 165 154 149 165 188 195 143 93 94 112 119 130 147 169 179 196 193 180 157 141 140 142 141 143 147 150 146 139 139 145 142 154 167 187 198 164 106 87 115 131 131 134 130 137 136 137 132 149 122 67 31 25 26 26 25 24 23 26 30 28 26 32 33 26 30 44 52 38 21 18 18 22 37 62 84 95 95 78 54 41 38 32 26 39 46 33 27 28 24 29 25 40 44 36 47 73 83 79 63 58 65 96 134 131 95 69 70 63 52 56 61 69 65 79 98 82 91 77 77 67 73 106 111 94 79 89 95 103 117 101 96 110 98 75 
30 58 90 55 39 52 40 21 16 27 31 24 30 39 39 22 19 35 48 53 67 78 77 57 59 46 32 37 35 25 21 20 23 32 48 48 32 19 23 19 20 20 20 29 29 33 56 86 87 85 77 64 51 24 15 19 24 31 45 40 33 28 26 30 21 23 21 24 31 30 31 28 26 28 34 33 26 32 34 23 18 14 12 14 18 20 24 26 21 25 34 28 26 29 25 19 19 20 21 26 24 21 21 21 22 26 25 28 34 34 50 52 41 37 32 33 36 61 83 77 61 56 47 38 31 24 23 22 24 27 29 32 37 52 62 58 47 39 33 33 34 30 28 37 34 32 32 30 28 38 89 146 168 163 156 175 197 188 125 89 96 112 121 133 148 166 184 193 187 171 150 139 138 141 140 145 147 148 152 146 142 148 150 163 189 198 195 150 96 93 120 132 136 141 137 136 136 141 164 164 129 74 39 26 25 26 27 24 23 23 27 27 31 47 50 33 29 42 47 30 18 19 21 19 29 53 77 103 119 98 74 53 44 35 30 39 41 29 23 24 24 28 34 50 64 67 67 85 92 74 67 73 80 114 123 118 76 65 65 58 53 54 67 69 70 83 89 82 86 92 103 81 78 95 104 95 104 111 114 131 134 124 104 99 102 110 
13 61 89 48 39 57 55 45 37 32 27 25 34 47 39 27 21 34 46 57 55 60 49 29 32 32 30 37 33 26 29 23 21 36 57 63 44 26 26 26 16 22 26 36 41 35 44 65 74 81 57 53 40 16 16 19 27 35 46 42 36 31 30 31 27 27 26 27 33 32 31 26 25 27 34 37 26 23 25 22 18 13 12 20 26 26 27 25 19 25 33 27 27 33 25 19 17 16 17 23 22 19 19 19 22 25 23 29 35 36 44 44 34 33 31 30 38 60 83 68 56 53 51 41 30 23 23 24 26 30 32 35 40 51 60 55 47 41 35 32 31 27 31 44 38 29 32 35 36 52 101 154 174 166 159 176 191 167 114 91 104 116 127 139 156 173 189 190 179 171 155 145 137 136 141 146 144 144 154 152 148 148 149 165 193 194 178 131 87 95 125 131 141 152 141 131 134 162 200 179 123 72 42 26 23 27 27 25 23 22 24 29 41 64 66 40 30 37 40 24 21 26 34 36 27 37 62 90 103 89 77 63 47 41 41 49 47 33 24 20 28 30 33 45 72 76 91 102 85 62 62 91 101 100 110 90 77 68 68 62 51 56 62 79 86 78 75 64 81 91 107 83 73 90 99 93 106 124 115 115 140 128 117 103 88 52 
34 57 90 62 49 73 82 76 69 64 38 25 38 44 35 24 33 29 48 60 54 51 46 21 18 25 26 34 39 47 51 32 25 29 47 55 38 38 32 39 32 19 29 38 38 38 43 52 65 62 42 45 25 17 17 22 32 35 38 35 40 38 32 31 29 28 30 29 31 31 27 26 25 25 32 37 25 19 21 21 19 15 18 27 29 27 27 30 22 27 35 28 30 40 28 19 16 15 18 22 20 19 20 21 22 24 25 33 36 34 37 34 29 28 27 29 36 59 83 68 57 54 55 45 33 24 23 26 29 32 33 34 36 42 48 43 39 37 33 29 28 27 35 46 39 28 30 36 47 73 129 170 178 167 161 173 179 148 100 96 111 120 131 147 165 178 192 190 180 184 173 161 142 136 141 147 140 143 153 153 149 147 144 171 193 190 157 104 82 104 124 127 141 157 144 133 137 173 188 154 94 63 42 28 25 26 25 24 23 23 27 35 48 72 73 45 35 37 36 30 37 44 60 59 48 43 59 81 90 86 81 76 66 66 66 67 60 44 25 22 22 29 34 45 59 76 95 107 80 47 52 82 92 93 85 87 78 78 76 74 57 47 56 78 91 80 65 63 82 96 97 81 64 86 86 86 97 109 93 80 86 114 103 96 87 75 
44 61 81 49 48 54 57 53 55 46 30 32 33 40 30 29 29 33 52 57 54 63 53 30 19 17 22 29 47 77 70 46 24 30 35 36 40 33 46 43 47 35 18 33 32 39 55 43 47 33 38 32 23 17 19 33 48 40 32 35 40 41 32 30 25 32 34 30 31 26 29 25 25 23 28 32 27 20 20 22 21 19 24 26 24 23 27 38 36 30 39 33 32 37 28 17 18 19 21 22 20 20 21 22 24 28 31 34 33 29 33 33 31 32 35 33 37 55 74 77 56 58 55 45 37 31 24 29 34 35 33 31 32 36 38 38 35 31 28 27 26 27 31 42 32 28 26 33 48 84 140 176 180 173 168 190 180 136 98 106 121 127 139 160 169 179 192 186 184 196 188 161 148 139 136 139 139 143 151 149 142 148 151 172 205 186 136 88 86 112 124 129 137 150 156 162 155 146 139 97 64 51 37 28 28 26 25 22 23 24 32 37 49 70 72 51 40 36 35 45 56 68 76 80 63 56 65 85 96 90 96 95 92 93 91 87 74 52 30 25 31 37 46 59 71 77 92 109 83 64 57 72 92 85 76 73 84 77 83 90 72 49 54 71 87 90 85 83 90 109 106 92 86 91 94 73 90 97 84 72 75 80 92 83 68 53 
52 65 65 44 40 48 58 56 37 30 27 42 38 34 30 26 22 38 54 48 46 50 51 36 25 22 20 25 48 67 66 31 27 29 32 28 24 35 26 45 47 43 34 31 41 49 56 47 28 38 37 32 21 19 26 41 49 40 31 32 43 39 32 29 28 32 45 30 27 25 28 26 23 21 22 30 24 21 21 21 21 21 23 22 21 19 26 38 42 38 52 43 35 38 20 16 19 22 23 21 19 21 22 22 29 34 37 39 33 32 39 43 38 37 40 45 41 49 70 71 67 61 59 47 44 38 29 33 40 35 33 34 29 31 34 36 35 33 27 24 26 27 30 32 31 24 28 28 51 94 146 177 177 182 193 197 182 126 96 112 127 127 144 163 171 182 193 185 191 202 178 156 141 149 143 139 146 152 150 142 144 143 152 183 198 175 116 80 90 115 126 129 135 159 175 167 142 109 78 59 54 44 32 30 29 26 24 24 24 27 29 36 42 60 62 49 40 35 33 47 60 56 66 73 74 74 85 99 114 120 130 139 138 136 127 116 91 60 33 44 53 55 61 65 75 81 82 93 88 71 59 62 74 70 59 66 75 73 73 90 86 69 65 73 83 90 92 78 85 104 126 110 116 119 113 85 75 93 90 92 88 89 86 69 58 24 
75 55 49 33 38 50 69 67 48 33 44 53 42 24 24 18 26 47 70 64 47 57 51 50 49 33 26 30 46 55 37 30 26 32 40 29 23 26 24 21 42 42 35 50 54 56 55 40 49 54 51 38 26 30 31 36 42 25 28 47 46 39 32 29 27 38 46 34 23 25 29 28 23 20 24 28 27 22 20 22 21 23 22 26 24 22 21 31 36 42 53 47 38 32 21 15 20 23 24 20 20 23 24 24 30 41 46 44 36 35 45 43 35 31 35 42 44 42 57 68 67 70 65 47 44 39 29 37 37 29 31 33 30 28 27 32 31 26 23 23 24 26 28 31 28 30 29 41 71 118 158 173 172 179 195 199 165 110 96 116 123 132 147 163 175 188 196 188 195 198 180 150 147 156 153 145 151 153 148 147 145 149 164 189 196 155 98 73 91 112 121 132 153 157 144 126 92 61 51 49 46 35 29 29 27 25 25 27 26 26 29 31 37 47 51 39 35 31 36 44 46 43 53 77 89 109 124 127 129 137 134 136 125 116 119 112 87 52 45 61 58 56 51 49 68 69 65 69 72 70 65 55 58 53 49 52 55 49 53 77 93 89 80 75 75 83 82 69 64 109 136 128 115 130 122 109 94 94 100 102 89 83 71 59 43 32 
50 46 32 34 35 34 46 45 28 26 32 62 36 19 24 21 33 62 90 74 80 73 65 71 71 52 44 40 51 53 39 28 25 33 42 34 24 31 27 29 25 35 32 47 59 46 43 43 52 61 50 34 35 35 35 35 27 25 34 58 62 45 34 28 27 35 46 32 25 25 30 28 23 22 28 35 33 26 22 19 21 19 29 25 25 24 18 22 27 31 47 36 39 40 20 18 21 24 26 22 22 26 28 25 32 45 52 48 39 35 38 41 31 28 32 39 42 40 49 62 65 75 67 47 41 38 32 38 35 26 30 33 32 31 26 25 25 22 23 25 25 27 27 27 29 32 51 79 119 145 175 170 158 166 188 189 144 98 98 112 122 135 156 169 179 199 195 191 195 199 179 160 156 165 145 143 145 150 148 148 151 155 174 200 193 137 82 71 89 106 124 146 141 128 99 69 55 49 44 38 34 28 26 27 25 25 27 28 28 26 28 31 35 43 48 40 33 34 36 41 44 54 73 92 111 136 136 131 121 121 113 96 87 83 91 91 67 46 46 60 53 38 42 46 60 66 44 49 55 67 78 59 59 48 50 44 45 43 47 65 92 105 96 83 87 87 79 63 53 92 133 123 109 128 127 111 106 104 100 95 76 76 72 53 43 30 
35 44 34 33 31 33 48 38 31 30 44 50 43 22 17 23 27 49 53 56 56 69 70 88 85 83 68 54 62 52 46 37 29 35 45 37 32 44 43 43 33 26 33 40 41 38 24 29 46 42 30 24 28 32 27 23 28 28 40 64 65 52 39 31 29 30 40 27 28 27 27 25 22 21 25 30 31 26 22 20 18 23 26 40 25 14 22 20 24 33 43 34 50 44 24 17 21 26 29 24 23 27 27 27 30 43 55 50 39 33 38 41 36 32 35 40 39 38 49 56 66 78 68 47 41 40 31 33 30 23 27 29 34 39 27 21 22 21 24 27 27 26 25 25 30 54 88 125 147 163 171 171 152 159 186 184 132 94 100 113 118 139 159 174 190 201 196 192 199 182 171 160 161 160 150 139 146 144 150 158 159 167 188 205 188 123 71 69 83 107 129 126 109 82 57 49 49 38 33 29 26 25 26 26 25 26 29 30 27 25 28 30 32 41 46 40 34 39 35 36 49 74 94 111 123 137 136 107 101 90 79 75 78 76 82 83 63 43 43 57 41 34 46 51 60 61 40 37 48 59 82 71 57 61 54 50 48 52 60 61 78 97 94 89 93 92 80 61 47 65 104 108 115 125 129 113 105 94 93 70 64 72 76 75 66 74 
30 52 44 30 33 44 50 47 34 37 41 50 37 24 16 18 28 26 28 33 53 78 94 105 113 108 99 91 77 69 54 46 38 40 53 39 42 52 54 51 44 31 25 30 32 27 30 43 56 48 32 29 23 33 26 20 34 44 48 57 54 48 41 34 29 32 35 28 28 29 26 25 22 20 20 22 23 22 19 19 18 20 38 44 45 31 17 23 28 40 44 45 59 47 23 21 24 28 31 25 23 25 27 29 30 38 52 51 42 34 41 50 47 41 44 47 41 41 51 63 74 77 65 45 47 44 35 29 28 25 27 26 36 47 32 19 20 21 26 30 27 24 26 37 65 105 135 154 156 158 158 159 156 165 192 180 119 94 106 113 121 142 161 178 195 198 187 186 198 191 170 161 154 157 139 142 148 148 147 156 174 186 199 208 175 109 65 64 79 104 108 91 64 49 46 43 35 29 24 24 24 26 27 26 27 28 30 32 25 23 29 32 32 39 42 35 38 41 36 32 60 88 105 127 140 146 126 118 97 85 67 72 71 65 67 69 63 42 60 75 57 53 57 56 60 53 42 44 51 57 72 55 49 46 52 49 47 56 76 76 74 84 82 76 77 81 82 70 54 51 77 91 102 114 103 101 87 82 64 50 55 74 90 107 96 86 
39 64 51 35 34 44 53 40 32 33 36 37 38 30 25 33 34 33 29 34 52 71 86 101 100 108 105 97 93 77 53 44 41 46 53 44 47 55 46 54 46 37 33 30 34 45 48 58 64 54 38 27 31 44 33 24 33 50 42 33 32 33 34 31 28 34 35 29 30 30 28 25 22 20 21 20 20 20 21 19 21 20 26 45 57 60 35 24 33 37 47 53 59 45 23 27 31 32 33 27 26 27 31 36 37 35 45 49 45 40 45 65 58 47 46 47 43 48 60 72 76 69 55 47 49 48 39 34 32 32 33 30 37 51 41 22 20 21 24 26 25 31 49 79 114 143 163 167 164 155 161 149 161 179 194 163 106 93 107 119 132 148 164 180 196 193 169 178 197 192 182 163 151 144 148 151 151 154 153 156 178 190 205 202 162 97 65 65 82 96 84 54 42 40 39 34 28 25 25 24 24 26 25 25 27 29 31 32 26 24 30 32 33 38 38 39 42 44 36 35 56 78 99 125 155 152 135 121 110 91 83 79 73 62 56 57 53 55 86 93 83 61 55 52 48 51 43 51 63 55 64 41 32 32 42 51 46 51 72 84 78 85 92 72 81 88 89 85 79 76 88 109 110 97 89 67 71 59 45 43 57 66 74 95 85 43 
76 72 53 34 32 40 42 46 40 39 39 34 35 29 24 23 28 24 23 28 33 43 50 63 77 80 85 91 87 72 57 46 53 59 57 54 57 58 46 49 53 42 39 47 47 52 45 41 40 26 25 20 25 42 30 20 35 40 36 26 21 26 27 25 28 34 34 26 29 28 30 26 22 21 21 19 20 21 18 20 22 23 18 29 59 55 38 31 33 37 50 55 58 34 22 31 36 34 32 28 29 31 34 41 41 38 44 47 46 45 57 68 58 41 37 37 42 55 65 72 67 62 58 59 50 46 39 33 35 35 40 36 35 49 47 26 21 20 20 26 39 65 96 120 136 151 150 160 159 157 146 152 166 191 189 140 96 95 107 124 138 157 162 176 196 183 170 178 200 190 167 157 146 151 155 150 147 143 146 151 169 190 205 200 150 87 66 73 90 90 64 40 36 37 31 26 26 24 24 23 23 24 25 26 29 28 29 30 29 28 29 28 28 30 32 36 40 42 36 39 47 60 71 112 139 150 138 128 117 105 98 88 71 63 56 54 50 75 87 90 81 63 52 54 46 43 39 53 59 66 65 48 28 28 36 47 40 42 55 71 74 85 90 96 105 116 105 93 88 90 101 122 123 102 75 65 59 49 47 47 75 76 58 79 75 62 
49 53 44 25 27 44 40 48 52 51 45 35 29 26 17 19 18 18 26 27 26 28 32 48 53 67 80 90 85 79 65 63 71 64 56 58 58 45 42 52 51 44 42 46 45 38 31 24 18 19 18 20 21 32 24 27 35 44 42 30 31 29 23 25 27 31 28 22 22 27 31 27 23 21 21 20 20 27 24 17 19 22 22 25 32 39 23 29 32 31 48 53 49 31 24 31 36 33 29 27 29 35 36 36 42 43 49 50 47 50 55 67 47 33 30 33 47 60 66 65 58 58 67 58 53 42 39 35 37 38 42 39 33 44 47 27 19 22 29 52 81 109 132 144 147 152 154 161 149 142 139 144 165 193 177 122 88 97 109 123 152 162 161 177 188 181 169 185 198 177 150 143 140 145 150 145 131 140 138 140 167 190 211 196 129 76 64 80 93 80 48 35 35 30 26 26 24 25 23 24 23 24 26 30 30 27 26 28 29 30 28 26 23 23 22 25 32 35 41 41 51 53 67 82 121 139 133 127 114 106 101 83 62 60 66 63 76 78 76 64 69 83 72 67 67 43 35 35 53 69 74 54 43 33 35 36 33 46 68 71 77 74 95 102 131 150 128 100 78 80 94 117 126 85 70 57 57 52 55 51 84 97 74 72 77 59 
49 51 30 28 40 64 63 61 58 46 35 25 21 17 18 21 20 19 22 24 21 25 35 44 53 54 71 90 73 81 78 73 73 66 61 63 63 34 33 50 53 40 34 39 39 32 28 31 24 22 19 17 22 25 28 34 43 48 51 45 42 37 30 26 29 25 20 19 22 25 35 27 22 21 20 18 25 31 31 21 20 25 24 23 28 20 32 30 26 26 44 46 39 32 24 32 39 39 31 29 35 37 37 37 42 51 59 55 49 48 58 59 43 29 29 35 44 53 54 49 49 52 59 60 49 46 41 36 36 38 39 36 31 45 49 26 22 35 61 93 120 136 141 141 146 152 161 156 150 143 142 149 168 186 164 106 89 99 112 135 160 168 169 179 195 185 184 197 205 170 152 145 149 145 138 138 138 137 138 141 175 205 217 185 115 65 66 86 90 65 41 34 31 28 25 25 26 24 24 23 22 23 26 30 31 27 25 27 29 29 29 24 22 21 21 30 30 32 39 46 62 78 78 85 113 131 122 106 103 109 91 81 62 58 62 76 75 77 58 41 74 77 82 89 67 62 46 33 52 64 68 59 56 45 39 35 34 66 68 69 57 61 84 104 142 155 145 114 89 100 102 125 126 78 55 61 51 63 52 57 75 87 69 52 60 64 
91 53 38 30 47 83 90 81 69 47 29 18 18 16 24 32 24 18 17 17 18 23 32 42 44 47 53 61 76 81 84 69 64 69 73 79 64 36 27 48 48 37 27 34 38 28 29 35 34 29 21 17 22 28 30 36 38 48 51 46 48 37 30 34 33 26 20 20 25 32 33 26 22 21 21 19 19 28 27 22 22 28 27 22 20 29 39 34 23 27 44 40 35 28 25 32 42 44 35 30 33 35 33 31 44 56 64 59 52 53 59 60 43 33 31 34 40 40 38 44 45 56 63 58 57 46 36 33 32 36 33 29 32 46 45 31 43 75 107 127 143 141 139 140 136 152 163 158 141 146 159 170 177 184 147 97 89 102 117 139 164 172 174 190 196 192 195 205 192 168 149 150 165 155 148 142 148 146 145 161 188 217 211 164 97 62 71 92 89 55 39 33 29 26 25 25 24 24 23 23 23 22 25 31 33 30 29 26 29 33 33 25 24 26 37 44 39 33 37 50 73 82 75 75 101 106 91 89 97 94 87 68 52 47 50 56 65 67 52 49 57 74 73 74 66 66 58 47 55 61 50 53 57 47 45 50 48 67 59 45 47 52 75 106 125 133 132 106 106 118 112 118 107 68 63 62 59 44 60 45 61 85 61 37 45 26 
79 59 46 37 43 77 76 71 67 47 28 26 21 27 45 61 41 20 18 18 16 23 34 36 41 36 36 50 63 100 93 63 59 77 86 81 68 37 31 46 44 32 26 37 44 30 26 32 39 31 24 27 29 29 38 31 41 49 51 45 40 32 27 38 37 29 23 25 32 39 35 22 22 22 22 19 19 26 24 20 21 27 30 22 21 35 42 32 23 27 42 40 35 31 30 40 45 43 33 27 29 31 29 33 44 57 64 58 51 54 58 52 35 29 30 33 38 41 46 47 53 55 55 53 48 36 35 35 34 37 32 25 29 41 45 53 84 126 149 157 157 152 147 144 136 149 158 150 138 137 162 186 185 175 130 96 96 107 122 144 165 176 187 198 194 190 191 187 186 161 149 156 161 166 142 153 153 151 159 179 206 215 193 139 79 60 79 101 92 52 37 32 29 26 24 24 24 23 23 24 24 23 26 35 40 36 29 28 31 38 38 33 37 42 49 53 44 42 52 55 67 70 54 53 72 76 67 64 68 63 45 39 42 39 39 47 56 65 59 60 70 71 73 75 66 72 69 48 62 67 64 63 60 55 55 59 56 55 50 52 53 55 88 98 116 122 116 115 113 138 112 85 84 61 56 57 39 44 50 45 63 78 63 53 46 33 
30 61 64 59 55 62 66 56 62 60 45 41 36 38 61 79 63 29 19 18 19 28 38 46 41 41 27 32 70 112 104 73 67 82 88 69 59 44 40 57 53 32 27 39 46 33 26 34 35 29 29 36 37 40 48 46 43 53 46 41 38 29 41 38 36 25 21 24 34 42 33 22 22 24 23 20 27 32 27 20 18 23 30 22 24 40 43 31 27 29 42 44 43 38 46 56 54 41 29 23 25 30 37 39 47 56 60 55 49 51 51 39 25 24 29 38 47 52 50 51 49 48 46 43 41 37 40 46 39 37 30 24 29 45 69 90 125 160 170 168 162 157 151 150 140 137 151 141 134 144 171 194 195 169 118 96 106 116 130 151 167 181 201 205 191 191 185 185 175 169 161 144 154 150 152 143 156 153 152 186 207 205 177 116 74 73 96 116 103 55 34 32 29 27 25 24 24 24 23 23 23 23 28 38 44 40 33 32 38 43 46 45 52 58 56 50 39 47 52 55 68 71 67 57 57 53 48 46 33 24 24 39 45 45 48 54 57 62 59 63 68 65 57 56 70 88 89 67 78 85 88 86 69 61 66 58 40 54 65 59 58 71 90 95 97 100 97 104 119 131 93 76 72 58 45 38 27 43 43 42 50 65 66 50 63 53 
50 70 85 77 75 77 65 58 64 73 73 73 73 50 54 70 57 33 21 18 19 21 39 38 45 41 30 33 67 113 105 73 64 85 75 57 51 40 46 63 58 33 27 36 38 27 25 34 36 29 35 40 36 41 57 52 46 44 42 38 43 54 46 43 29 21 20 22 30 36 29 21 23 24 22 24 35 37 27 19 16 21 29 22 28 45 46 32 30 29 37 40 41 36 47 57 51 34 24 23 29 36 48 49 49 54 57 52 47 47 46 32 24 25 32 41 49 49 44 38 41 43 44 44 42 41 52 48 40 33 28 25 34 62 101 131 156 172 173 164 155 141 144 147 150 146 144 148 144 149 177 204 204 167 106 88 105 120 135 150 161 180 202 195 178 189 193 184 179 168 164 148 145 158 158 156 158 159 170 191 205 200 160 104 78 96 118 134 122 69 33 30 30 28 26 24 23 24 24 23 22 24 31 41 45 41 37 40 48 49 51 49 48 52 51 42 37 41 47 52 71 91 79 65 49 40 39 31 29 25 27 37 44 39 45 66 70 63 54 51 63 49 33 40 54 88 101 88 82 90 98 82 69 64 70 59 44 73 89 71 69 86 106 94 97 92 95 100 111 102 86 70 67 59 45 37 43 44 46 35 48 67 56 57 57 50 
38 69 74 87 86 79 69 57 59 68 90 114 118 86 52 53 46 29 18 17 21 20 19 30 28 48 49 47 72 116 99 60 62 68 62 48 36 35 44 62 56 31 27 33 31 25 31 39 44 32 33 33 25 31 49 43 40 39 37 45 55 54 49 30 22 22 22 25 25 27 24 21 23 23 23 30 35 33 21 16 16 21 27 25 27 45 46 33 27 25 28 34 38 41 47 55 42 28 22 25 32 38 51 51 46 50 51 47 43 42 36 29 25 27 31 38 44 42 36 31 34 36 40 45 44 46 53 48 33 28 26 26 35 71 120 149 170 178 170 165 149 134 140 153 153 156 147 144 144 150 178 201 200 156 92 80 98 118 135 151 162 184 201 188 177 193 199 187 178 165 154 150 143 158 166 150 158 173 193 205 210 194 151 92 85 112 128 138 138 95 40 28 29 28 26 24 23 23 24 23 23 25 33 42 43 39 38 49 54 51 52 46 37 34 38 34 31 35 36 51 76 85 94 67 55 43 38 35 39 41 45 46 38 38 57 88 94 81 63 61 61 59 43 35 50 72 100 94 93 96 89 83 52 55 64 56 58 92 103 76 87 105 103 105 113 118 108 108 89 79 63 61 55 42 34 45 51 53 47 54 63 64 63 49 50 42 
64 77 84 86 96 83 70 70 73 73 94 117 128 104 54 42 41 26 22 19 18 20 20 15 32 55 73 69 84 118 113 69 50 54 48 33 27 25 42 58 52 29 26 28 25 23 28 44 47 38 36 26 22 29 30 30 28 30 34 36 45 46 29 19 22 22 21 24 24 24 22 24 22 22 26 33 30 24 19 17 18 19 25 28 25 38 43 38 27 23 23 28 35 40 47 45 34 22 20 29 39 41 50 52 42 46 45 41 41 38 31 25 27 30 33 37 41 41 36 31 26 29 36 40 43 50 47 36 27 27 30 34 47 86 137 167 177 182 172 173 155 141 141 151 161 150 140 134 135 148 166 179 172 128 84 84 100 121 142 160 173 193 202 191 188 201 194 181 172 155 153 142 147 151 161 151 143 177 199 211 204 192 137 87 91 123 131 134 147 129 66 28 28 28 27 25 24 24 24 23 23 26 33 39 40 38 42 55 59 50 45 38 30 28 29 30 34 34 33 40 64 83 84 79 66 57 43 40 44 51 61 62 58 59 71 101 104 83 61 60 56 49 54 53 61 69 93 102 107 93 99 78 59 51 57 58 64 87 92 76 99 107 100 107 120 115 102 105 77 51 59 60 51 36 33 37 46 42 50 58 57 55 58 57 57 72 
88 100 104 114 112 99 91 88 92 89 89 104 115 95 69 50 43 41 30 25 25 22 17 22 29 61 77 72 75 111 102 66 48 41 33 30 21 22 45 56 48 29 29 28 24 21 23 41 48 42 42 28 25 29 27 25 27 31 30 34 36 40 32 26 24 22 23 27 26 24 25 23 21 25 30 30 27 18 20 20 19 17 25 33 37 29 39 37 29 22 23 24 30 32 34 35 27 18 20 35 47 43 48 52 45 42 42 38 40 36 27 23 26 29 34 40 43 41 37 29 28 28 31 36 43 43 41 35 42 49 60 75 88 119 158 168 169 158 156 167 154 136 141 144 150 150 136 136 140 160 169 172 152 106 89 96 108 126 146 167 177 195 201 192 202 216 193 169 166 146 136 145 143 147 153 149 148 170 206 208 210 184 129 83 101 127 129 129 150 150 108 43 28 28 28 26 24 24 24 24 25 29 34 39 41 42 47 59 59 44 32 26 24 30 27 37 45 42 36 39 51 64 68 60 52 49 49 42 39 42 61 72 74 65 75 91 102 86 69 57 48 47 63 87 81 78 84 108 111 106 94 96 79 71 62 55 57 77 80 84 108 100 100 115 122 107 107 112 83 61 57 58 55 47 38 40 41 42 44 55 51 46 59 61 70 81 
109 111 109 128 137 130 108 100 86 71 87 86 92 92 81 68 64 48 39 32 37 29 20 19 28 43 66 70 73 94 84 63 44 40 28 24 20 28 45 49 37 30 36 30 24 22 24 41 42 40 36 30 30 32 27 26 31 33 34 29 37 48 49 39 31 29 29 32 32 28 26 24 24 27 29 28 22 20 21 20 20 17 23 43 45 39 35 34 29 22 25 26 26 31 36 34 27 20 24 44 52 42 45 50 45 45 39 36 38 32 25 22 21 23 29 35 39 39 35 34 34 32 31 33 35 41 55 65 86 97 110 121 135 150 164 156 144 144 146 153 149 139 138 141 144 148 150 145 151 162 174 171 139 99 90 108 118 134 161 177 186 197 192 185 203 209 188 171 157 142 135 141 141 140 146 151 148 171 202 214 202 177 113 86 110 129 129 128 136 154 123 72 30 28 27 26 23 24 25 25 28 32 36 38 42 44 47 52 47 35 23 18 25 30 38 50 57 52 46 45 51 56 57 40 36 32 34 35 32 31 51 78 87 77 64 93 115 110 101 77 50 43 64 93 104 80 88 106 113 94 80 75 74 74 63 38 37 46 75 92 94 92 102 114 121 105 104 106 92 66 55 52 45 35 36 37 44 45 51 66 67 59 63 61 75 89 
119 102 108 121 138 134 134 100 79 67 74 83 72 78 97 84 72 58 39 37 48 35 19 23 33 43 76 83 89 91 73 44 52 38 25 21 20 35 45 34 25 29 37 32 23 20 28 39 36 31 29 24 30 33 24 24 28 33 32 28 34 48 49 36 31 29 31 34 34 30 26 27 25 27 26 24 23 21 20 25 23 22 25 42 54 47 35 33 26 23 31 34 32 42 49 44 34 25 33 52 57 45 41 45 46 43 39 36 33 27 23 23 20 19 24 28 30 30 34 36 37 31 31 31 35 62 82 105 130 134 137 148 156 168 161 148 144 145 144 147 141 137 142 139 135 141 147 147 144 157 173 165 126 87 92 113 124 141 166 184 190 195 182 171 188 193 175 165 164 155 143 142 153 143 149 152 155 170 196 210 200 154 101 90 116 127 128 133 128 139 138 96 47 27 26 25 25 24 25 25 29 33 34 32 34 37 38 39 35 28 21 18 23 31 33 46 57 54 55 47 51 57 59 51 38 31 31 31 27 27 43 74 84 76 68 96 127 136 129 106 63 49 66 91 106 95 96 104 108 90 71 62 62 63 48 37 23 41 83 99 92 106 117 121 109 85 77 90 72 65 59 50 42 37 36 45 52 52 62 76 72 69 64 60 80 105 
125 113 96 113 122 138 134 103 77 59 75 86 80 86 108 89 56 42 34 42 57 38 19 24 33 46 71 88 93 90 49 37 45 39 26 20 22 38 44 24 17 28 33 29 25 26 27 36 36 35 30 28 31 27 22 22 23 26 27 28 33 41 36 27 21 21 26 30 33 30 27 26 24 23 22 23 23 20 22 29 32 29 35 43 52 47 39 28 26 28 43 48 36 41 43 35 25 26 41 62 56 45 43 44 47 43 39 36 31 26 23 23 20 21 25 28 29 31 32 36 34 31 31 36 54 84 120 136 147 160 161 170 173 160 157 143 142 150 140 134 138 135 137 139 129 133 140 140 143 166 181 166 111 83 97 119 130 142 159 178 191 194 177 170 185 188 169 166 172 161 158 154 158 160 148 154 155 168 196 206 189 141 90 95 120 124 130 135 130 131 147 127 73 31 27 27 25 26 24 25 27 31 31 29 30 31 31 30 27 23 19 18 24 32 33 42 49 53 54 39 35 45 53 54 49 45 44 41 40 42 53 63 70 62 73 95 115 114 125 100 69 61 64 86 88 86 95 96 87 80 70 59 53 51 45 38 47 67 97 115 114 128 141 121 89 63 61 65 65 52 47 47 48 43 47 51 53 60 75 73 74 60 63 55 71 116 
100 92 81 77 98 121 138 120 85 70 81 103 91 99 124 86 50 31 30 45 62 39 19 27 33 39 70 92 105 95 51 26 31 31 22 17 24 38 37 20 22 32 33 35 30 27 29 32 33 38 34 29 29 23 19 23 21 19 20 24 30 33 31 24 21 20 24 27 30 31 28 27 26 23 22 23 24 21 24 33 38 38 46 47 47 45 41 31 28 31 49 54 42 43 38 24 21 29 48 66 54 44 42 44 46 40 36 35 32 27 25 23 23 24 26 28 30 32 35 37 41 38 44 53 72 107 136 151 158 155 171 188 185 164 154 147 143 142 145 145 144 149 147 138 134 131 134 136 146 172 193 153 99 84 103 123 132 141 157 174 191 193 181 182 192 190 174 172 165 169 156 150 158 158 151 156 173 180 197 207 175 117 85 101 123 128 138 135 132 130 144 151 103 48 28 28 26 26 25 24 25 27 28 29 30 30 28 26 24 22 19 19 23 33 37 39 38 43 48 42 40 45 47 48 52 55 54 51 54 58 63 70 52 51 68 90 89 84 94 86 66 73 84 81 76 79 90 89 78 81 69 58 48 41 43 59 73 67 99 111 115 129 126 90 58 33 41 57 53 47 44 43 46 48 49 52 64 71 78 82 60 55 62 50 51 80 
97 83 76 65 75 97 132 135 118 89 103 109 102 100 117 83 51 34 29 38 53 36 21 29 36 39 62 85 98 80 43 16 22 17 16 20 25 33 28 20 30 42 42 43 35 29 31 32 35 40 33 29 27 20 20 25 25 18 15 18 22 23 23 23 22 21 30 31 28 28 27 27 27 25 25 26 25 23 23 33 38 45 50 52 42 42 39 35 30 34 45 44 37 42 36 24 24 30 46 56 49 39 39 39 38 33 31 32 33 29 26 25 27 29 28 26 25 27 31 36 40 41 46 72 91 112 143 162 159 151 156 179 166 153 154 152 141 144 149 152 155 151 148 149 140 136 136 136 148 176 185 137 90 88 107 123 132 145 159 178 192 190 187 195 197 187 177 169 165 159 163 145 144 148 149 159 181 197 207 202 163 104 80 106 123 130 144 142 131 134 142 159 135 80 36 27 29 27 28 27 26 26 27 27 28 27 24 23 23 23 21 19 21 32 40 36 34 38 54 61 73 65 49 43 44 48 46 42 45 52 69 72 56 48 60 79 88 93 86 80 72 76 81 83 73 66 77 69 73 85 71 56 44 39 52 69 80 75 84 107 114 117 92 64 37 29 44 60 61 59 54 53 51 47 49 64 84 84 81 75 60 48 52 53 47 83 
123 87 77 75 53 67 100 143 131 105 107 111 104 113 108 74 55 43 29 26 37 28 25 36 40 42 50 75 77 62 34 21 18 16 16 18 21 22 20 18 31 49 54 47 33 29 32 34 44 45 34 29 25 20 21 25 32 20 15 20 22 19 20 24 27 25 37 40 32 28 27 27 28 27 29 31 26 23 25 34 46 51 57 54 41 33 36 35 39 46 51 39 31 36 31 28 25 27 34 42 40 39 38 33 31 27 30 33 35 31 26 25 27 30 31 28 25 24 26 37 34 28 46 78 100 123 137 158 162 146 164 159 147 138 155 149 143 140 153 157 151 148 152 148 150 146 141 135 145 176 171 119 87 95 109 122 134 150 165 182 194 186 187 195 188 175 160 164 156 165 160 154 141 148 140 156 181 200 210 196 149 94 84 106 121 131 152 151 137 137 141 154 155 112 59 31 28 30 30 31 29 27 26 25 25 25 23 22 22 22 21 21 23 34 41 41 41 49 61 72 86 72 48 38 36 41 45 40 39 48 69 78 56 44 38 52 92 94 96 82 70 70 79 97 82 73 65 64 71 82 67 49 42 41 46 65 65 64 93 118 104 96 81 49 37 43 62 76 74 55 65 57 50 46 69 88 88 82 79 71 66 45 46 47 61 82 
87 79 82 72 63 60 90 133 125 100 111 106 116 126 107 66 57 50 35 28 31 32 38 35 40 36 39 54 63 48 37 23 19 21 15 14 19 18 16 17 31 48 57 52 31 23 31 35 39 41 32 23 23 25 20 25 35 23 19 28 28 22 21 26 35 27 33 37 30 27 30 28 30 28 30 33 29 25 27 42 63 61 62 52 41 30 32 37 44 57 64 47 35 33 33 31 28 30 29 36 35 38 34 30 27 27 32 36 36 30 25 23 25 29 31 30 27 25 30 39 36 30 51 85 113 127 144 148 148 155 154 152 137 141 149 152 139 136 142 157 158 142 142 148 147 149 146 142 151 176 161 102 88 103 113 124 139 155 167 189 197 185 187 186 172 160 153 148 147 149 157 150 151 145 147 154 188 202 205 181 127 84 85 109 119 135 160 154 144 142 137 144 153 132 87 43 27 29 30 33 31 28 26 23 22 24 23 22 22 22 23 25 27 38 45 48 55 71 72 77 82 70 50 42 40 44 53 47 35 41 61 61 52 45 35 51 84 101 86 84 81 77 100 114 96 75 68 69 85 86 60 44 39 43 56 65 51 60 107 109 100 77 75 55 45 59 75 83 67 59 57 55 47 59 86 88 76 64 57 74 63 52 45 56 84 145 
107 82 75 77 79 85 108 117 119 97 111 108 115 119 93 63 66 60 49 38 39 43 48 51 35 36 26 36 40 40 36 25 22 22 27 29 22 23 26 28 27 45 63 67 39 29 27 24 29 28 23 22 24 23 23 25 33 28 24 30 30 22 18 27 32 27 26 28 29 30 32 35 33 28 26 28 28 27 28 49 67 69 57 49 37 34 36 45 48 63 67 53 37 31 29 29 28 26 33 30 31 30 32 28 26 30 35 34 34 30 28 25 26 29 31 30 35 31 32 40 34 35 68 98 122 148 145 154 161 157 156 140 136 142 145 145 143 139 143 149 150 143 139 142 140 146 150 146 164 185 150 95 93 105 115 125 140 158 175 191 196 188 184 180 166 155 161 155 146 141 145 156 161 151 151 168 187 210 204 166 110 80 89 110 122 131 147 152 145 146 142 134 141 144 110 68 33 27 35 36 34 29 25 22 22 24 23 23 22 23 27 29 31 37 43 50 69 81 82 79 82 79 56 52 44 48 55 47 33 41 58 55 50 61 58 80 105 99 91 80 72 74 90 101 88 71 77 84 84 85 62 45 37 47 68 80 70 66 93 104 80 73 62 67 63 70 81 76 61 53 59 54 56 56 84 75 55 55 63 61 66 51 46 60 93 164 
86 78 77 67 77 100 93 104 93 96 109 111 120 122 101 83 89 84 57 53 37 46 66 52 50 37 26 25 25 28 30 23 21 28 38 45 41 29 34 29 31 43 59 72 62 31 24 23 21 21 20 19 17 23 20 19 37 27 22 25 23 20 18 18 27 21 22 27 31 32 37 37 39 32 25 24 27 32 33 47 69 63 59 50 42 40 45 60 59 57 61 41 31 24 23 24 19 26 26 25 25 30 28 27 27 34 38 35 34 35 33 28 32 35 36 46 50 41 35 35 34 46 77 114 142 157 153 159 168 163 158 151 150 147 140 141 147 147 141 143 141 129 139 142 135 144 144 148 174 182 134 93 93 108 114 124 139 159 174 193 192 189 194 181 154 152 160 161 152 144 145 163 157 149 147 169 192 206 203 159 101 80 97 112 122 125 133 141 144 150 137 134 133 135 136 95 47 30 35 41 38 32 26 23 22 23 23 22 23 24 27 31 29 31 37 49 63 79 78 76 95 88 73 58 53 51 50 40 39 52 59 50 46 52 58 78 95 85 83 81 71 73 77 91 81 104 111 95 82 80 75 57 43 36 59 81 71 71 81 88 86 61 66 68 69 72 64 50 48 48 73 69 59 71 69 59 59 59 55 58 63 51 47 67 70 55 
57 83 81 80 92 102 96 80 82 89 99 117 133 133 120 99 108 92 70 50 42 41 59 58 43 45 27 24 24 17 23 29 24 26 37 52 49 33 26 27 32 39 47 61 55 48 25 22 23 20 19 18 18 19 16 25 36 28 21 22 22 21 22 19 20 19 21 25 30 31 32 35 38 34 29 27 30 35 35 46 56 62 67 61 51 47 54 68 66 59 53 39 28 22 23 19 20 18 19 24 27 28 28 24 31 46 51 42 40 38 37 38 42 45 49 59 62 44 30 35 39 57 88 123 159 172 166 165 163 153 157 147 154 141 131 134 140 146 147 143 144 139 142 144 147 137 138 146 170 159 113 81 97 108 116 125 136 157 179 190 193 200 199 178 160 149 155 159 153 148 149 153 160 141 149 162 190 205 195 147 90 90 108 120 127 135 141 147 149 152 149 134 130 134 145 125 69 35 36 41 42 36 29 24 23 22 21 23 24 24 28 33 29 27 28 40 51 56 56 66 71 75 49 46 51 66 58 41 43 56 54 37 32 47 54 66 64 58 71 69 72 78 85 83 106 124 141 114 79 79 92 73 48 46 45 70 72 68 79 88 92 71 67 76 66 60 39 29 23 50 70 78 71 67 69 76 66 65 52 61 60 48 68 72 74 84 
35 66 71 78 91 100 95 70 75 81 100 121 144 146 116 107 106 91 64 48 36 39 55 44 43 42 35 27 24 29 46 40 35 26 31 51 56 39 28 22 29 35 25 33 51 49 37 23 20 19 20 19 19 19 19 35 44 28 20 22 22 22 24 20 19 17 20 25 29 28 28 29 32 33 30 31 36 41 41 49 55 63 73 67 57 59 63 69 65 65 61 45 28 21 21 21 16 18 23 26 30 29 24 26 43 63 70 57 46 42 41 46 51 49 52 62 58 36 28 31 44 69 98 134 167 177 166 167 149 152 154 148 139 134 129 132 135 137 142 145 145 141 148 156 151 149 143 153 176 146 92 84 98 108 117 128 140 161 182 191 190 199 189 164 149 145 148 142 141 137 142 152 157 146 139 155 175 197 182 129 87 94 116 122 134 147 152 152 146 153 155 142 128 132 151 145 95 45 35 39 40 35 29 25 22 23 24 26 25 23 29 37 30 25 29 38 48 54 50 48 53 37 30 37 55 78 64 41 44 60 52 38 47 57 61 73 59 60 58 57 64 71 84 93 85 113 132 104 76 86 96 78 54 46 58 68 82 70 68 84 88 80 75 72 59 52 39 31 33 56 91 81 71 61 71 67 73 65 58 66 70 69 76 87 66 88 
48 53 48 52 74 92 88 79 68 75 94 132 157 143 121 105 99 74 44 43 30 36 54 38 37 44 37 24 27 38 44 46 23 24 38 47 51 41 30 24 26 26 19 17 32 40 34 24 19 19 20 20 20 19 23 39 44 25 19 21 20 20 21 19 17 18 21 26 28 26 27 28 31 33 31 34 41 44 47 54 59 64 71 67 58 69 74 69 64 75 76 56 33 22 21 18 18 24 32 34 30 25 24 43 67 82 82 68 54 48 46 48 51 47 49 56 48 31 27 30 52 79 110 154 171 165 162 154 144 148 154 140 133 133 136 138 138 134 132 133 136 138 146 160 165 154 148 171 177 134 89 90 101 108 119 134 146 166 183 183 182 195 184 165 154 151 148 145 147 134 131 140 146 147 145 166 193 197 177 120 81 96 113 119 134 151 159 159 147 155 161 144 129 136 154 157 117 58 36 35 36 33 30 26 25 28 29 28 28 28 36 48 38 30 36 47 54 55 49 43 36 34 49 52 71 68 52 35 41 51 61 54 67 75 77 76 84 76 75 64 62 82 91 90 77 88 110 98 87 96 101 77 54 58 60 79 83 69 64 79 85 82 72 57 50 59 62 56 61 73 86 83 63 58 56 65 53 46 62 70 78 75 74 71 61 80 
51 55 39 40 63 77 81 74 56 66 88 132 150 144 125 116 105 57 38 46 44 43 65 47 33 49 41 26 20 25 38 31 26 32 45 46 49 46 39 29 27 26 24 21 18 27 26 25 23 21 20 19 19 19 19 31 31 19 18 19 18 18 18 15 17 20 20 23 25 23 27 30 35 34 31 35 42 45 48 59 67 65 68 66 56 62 68 60 58 71 79 64 39 22 21 18 21 29 36 35 30 26 37 63 95 100 83 64 54 45 44 45 47 46 45 45 39 29 27 34 54 89 125 166 180 175 168 159 151 148 152 134 135 137 144 148 144 140 136 130 130 135 148 153 159 158 156 167 167 114 88 95 104 110 125 143 155 173 185 178 171 178 175 157 156 150 147 153 150 139 140 131 136 140 160 186 203 195 167 105 80 101 111 120 132 146 152 156 147 150 160 144 130 134 146 151 122 64 37 34 33 33 32 29 30 34 31 30 29 31 40 54 47 39 46 51 48 43 42 34 29 47 59 76 58 51 32 40 43 49 49 65 73 92 81 84 88 103 103 95 98 97 96 79 63 75 89 91 90 94 98 84 65 69 69 66 72 59 65 82 86 72 62 58 53 67 68 75 72 81 76 68 63 57 65 63 49 52 58 76 78 64 68 67 71 96 
57 59 49 51 62 63 60 59 57 56 76 112 121 130 130 142 123 63 43 60 54 51 68 45 36 46 46 27 19 22 28 42 50 45 42 45 53 56 46 36 28 28 26 27 24 20 27 28 25 21 20 19 20 20 19 25 26 22 21 21 20 20 18 16 17 22 21 21 22 25 30 35 39 33 29 32 35 39 48 71 84 72 69 72 63 56 56 52 47 58 74 71 46 22 19 21 22 27 32 34 38 39 38 61 92 101 82 58 47 43 42 46 50 49 44 41 37 28 27 39 71 100 128 169 186 183 175 171 153 151 145 135 132 142 146 140 141 144 140 135 138 141 138 144 155 162 176 177 146 97 80 97 106 113 127 141 153 176 186 178 169 169 164 151 152 147 142 140 150 150 150 146 147 146 173 198 201 187 144 98 88 102 114 123 133 142 140 143 141 145 158 144 127 131 135 135 111 59 35 32 32 32 32 30 31 33 30 26 27 28 34 51 49 40 47 48 45 44 45 37 47 56 79 68 54 41 41 68 57 49 54 58 78 90 99 87 87 102 114 119 126 127 105 84 70 75 79 78 90 86 87 96 91 81 77 66 60 64 80 87 70 58 61 66 80 69 60 68 71 82 80 82 73 68 71 78 63 63 65 62 68 66 67 78 76 49 
29 52 48 49 55 54 42 48 47 52 58 74 93 119 142 156 134 73 46 65 50 49 57 39 32 44 46 25 21 17 22 42 55 57 52 49 55 53 43 32 30 26 30 28 29 25 27 32 30 25 21 21 20 20 20 24 25 24 21 20 20 18 17 15 17 26 25 21 22 28 35 38 46 34 28 27 26 32 45 74 94 78 74 82 81 68 59 53 43 52 76 76 50 25 20 20 23 23 27 38 48 49 45 49 75 95 91 64 48 47 45 46 48 46 44 48 46 30 28 48 86 112 136 168 186 193 188 178 164 153 149 138 142 158 154 141 135 141 140 138 140 138 139 131 146 166 184 182 132 85 83 97 109 117 129 140 155 182 187 178 176 181 173 164 165 162 147 144 150 163 161 157 167 168 179 204 204 175 125 85 86 107 110 123 134 144 137 135 139 146 158 144 130 136 132 126 107 61 36 34 34 31 29 31 33 33 30 28 26 25 31 49 50 34 35 40 45 48 48 56 62 73 79 62 52 42 68 81 75 64 70 68 72 95 110 95 83 82 93 105 117 132 124 106 105 100 87 91 97 78 84 102 95 80 68 63 58 61 73 80 55 45 54 90 113 89 73 71 80 91 105 103 98 83 78 78 84 69 70 77 86 83 83 91 90 72 
73 48 40 33 36 36 32 32 41 42 39 58 76 135 156 154 136 76 56 58 45 39 47 26 33 41 39 24 19 25 21 30 51 57 54 45 47 38 31 29 30 30 28 33 32 30 31 35 46 33 24 21 21 20 23 26 24 25 20 22 22 21 17 16 19 27 30 23 21 31 34 37 42 34 27 27 25 30 42 62 78 74 74 85 95 74 70 53 40 51 73 65 46 25 22 22 21 24 31 37 45 55 55 49 60 77 76 66 57 50 52 50 46 45 46 61 59 39 32 64 108 129 157 178 191 193 189 185 168 153 147 139 145 155 153 138 135 136 136 137 139 144 132 138 141 160 180 169 117 84 88 103 111 122 135 143 161 186 185 185 185 192 185 170 173 167 160 153 155 160 167 169 175 175 179 191 195 159 105 78 91 104 111 122 132 138 138 137 139 141 150 146 135 137 131 127 119 93 68 62 63 45 30 33 33 31 29 26 26 24 29 48 47 30 27 34 40 42 52 51 62 58 51 55 41 51 70 84 67 70 76 79 71 79 96 90 70 63 72 73 88 108 105 105 108 118 105 105 97 85 73 97 96 84 70 65 58 54 58 50 40 40 55 97 129 104 97 92 86 87 100 98 89 81 72 73 70 73 73 86 102 81 73 95 113 127 
105 56 34 27 24 26 24 29 40 47 37 40 87 148 160 142 122 76 56 52 37 42 33 33 32 41 34 21 25 26 29 30 45 48 46 35 30 31 29 29 27 27 27 27 31 26 30 39 44 40 26 24 24 25 29 28 28 22 24 26 27 25 23 21 21 30 29 22 25 31 35 29 32 27 30 27 25 29 31 48 59 57 77 87 89 84 74 58 47 60 60 49 37 24 26 22 24 31 33 36 39 47 55 53 42 48 57 53 54 57 56 57 55 46 48 54 51 35 39 78 116 143 168 190 187 188 187 184 169 152 144 135 134 145 148 151 151 141 136 135 141 144 143 138 155 163 184 162 102 82 92 101 113 126 141 150 165 187 188 187 199 190 181 163 160 164 169 154 154 158 159 161 183 177 187 194 187 148 91 82 96 104 113 124 124 140 137 141 146 141 154 151 141 136 135 137 140 134 127 125 114 80 42 32 32 29 28 27 25 24 27 44 44 30 30 28 31 38 47 59 61 37 47 53 57 55 70 73 56 59 67 78 76 65 73 66 57 57 64 71 82 94 91 86 96 111 113 104 104 86 78 78 100 95 88 79 79 76 71 61 46 39 64 113 144 126 127 128 91 86 84 70 61 63 58 65 60 65 67 87 96 78 70 88 138 153 
94 47 43 30 30 29 32 43 56 61 47 52 99 159 146 115 96 63 45 34 33 34 37 24 32 34 30 23 35 35 29 39 42 46 44 37 32 33 33 28 28 24 22 26 23 29 26 28 38 30 26 27 26 32 32 32 25 24 26 29 29 29 30 28 29 32 35 23 19 32 33 23 24 30 35 31 25 26 36 48 54 63 78 93 92 77 74 66 62 56 53 37 31 28 22 24 29 39 41 41 39 40 44 40 41 45 49 47 46 50 54 56 53 47 38 39 34 29 50 89 123 143 174 189 193 190 188 189 167 160 144 132 132 139 153 167 169 154 139 139 141 146 148 144 152 178 190 154 100 86 93 102 112 131 149 158 171 185 185 195 186 180 162 157 153 161 165 168 150 147 149 164 181 194 203 203 188 132 89 91 101 106 114 126 142 141 137 143 141 137 150 150 133 135 144 144 136 140 147 157 151 108 54 35 31 28 28 28 27 25 28 43 41 33 30 26 29 38 50 55 53 36 36 64 65 65 69 69 62 52 64 75 79 66 62 60 62 70 87 100 105 117 106 100 102 103 101 100 99 103 90 86 86 98 87 71 73 88 86 80 72 67 82 121 145 134 143 121 90 78 70 61 49 49 63 64 59 50 61 95 119 103 108 113 142 172 
35 43 45 40 39 45 50 55 60 61 54 68 117 160 126 86 66 44 26 28 33 43 30 26 34 35 32 36 55 44 36 41 47 46 54 49 41 36 33 31 26 26 23 20 24 22 25 24 25 25 24 26 28 29 37 34 30 30 31 31 28 29 34 34 32 38 41 26 21 29 28 21 23 33 37 31 25 26 40 57 61 72 94 105 96 75 74 71 59 54 35 26 30 20 24 23 31 46 47 50 50 44 36 34 39 48 46 36 32 41 49 52 48 41 36 35 31 36 64 106 146 169 191 203 202 199 187 177 175 163 151 137 130 135 145 161 171 158 147 145 139 147 152 144 152 182 188 140 92 91 98 104 115 136 156 173 181 181 182 185 176 155 147 140 147 154 170 160 158 152 157 173 190 197 203 202 177 120 87 96 104 106 115 138 145 140 136 137 134 132 145 144 131 131 155 154 141 132 150 161 157 121 67 40 30 26 26 25 26 26 27 37 37 31 27 33 51 49 48 46 41 28 32 54 69 57 57 58 58 68 72 92 93 77 69 66 69 81 99 108 113 114 111 111 100 95 87 76 86 103 103 99 84 69 64 51 52 59 62 69 79 96 106 132 137 129 129 95 68 60 65 55 50 48 68 74 48 50 70 110 136 137 124 149 159 183 
27 39 43 37 40 57 65 65 60 52 52 73 119 138 97 57 47 24 23 35 47 43 29 27 34 37 30 35 64 52 35 43 47 45 58 56 49 39 31 27 27 27 27 22 21 24 25 22 25 21 25 29 31 35 34 37 35 35 35 31 26 30 35 37 32 37 43 32 27 32 31 20 23 31 30 26 23 30 52 61 65 81 102 104 87 66 64 54 50 36 27 27 20 20 23 25 32 44 41 42 46 42 36 34 36 41 39 31 28 33 39 42 42 35 33 34 33 43 77 117 157 192 203 211 211 199 179 166 150 157 148 148 137 135 137 144 157 161 146 142 143 145 151 143 155 183 175 115 83 92 99 105 121 140 163 185 186 175 177 183 170 154 141 138 136 150 163 160 158 161 173 180 193 199 207 208 168 109 90 101 105 105 119 135 140 130 126 134 135 130 143 144 127 132 156 168 152 145 148 159 153 124 74 45 32 24 24 24 25 28 26 30 31 29 31 52 66 63 44 32 33 23 31 46 53 54 45 44 57 60 83 86 95 83 79 81 80 83 101 109 105 105 99 96 97 92 78 69 62 79 106 107 91 80 72 65 65 70 57 45 60 72 96 113 134 142 125 99 61 59 62 61 52 52 72 79 50 70 76 109 128 101 117 124 132 80 
43 32 35 31 47 63 74 76 56 45 46 70 115 111 67 46 32 23 31 43 58 44 25 29 41 47 26 39 60 56 39 50 48 45 48 53 50 41 32 24 25 30 29 27 20 22 23 27 26 26 35 39 39 40 37 40 40 39 37 32 29 33 39 44 43 41 46 34 27 34 25 23 26 31 26 24 26 41 67 68 68 84 87 80 58 50 49 45 32 31 33 24 22 21 22 25 31 37 29 27 31 33 33 30 28 29 32 35 32 29 29 33 36 35 29 31 37 53 88 118 152 184 199 205 214 204 178 156 144 137 143 148 155 140 142 143 157 160 151 146 144 150 147 142 157 183 162 99 81 93 100 109 125 146 168 190 187 172 173 176 158 153 149 140 139 143 163 168 154 167 172 173 183 200 215 204 153 96 93 104 104 110 118 130 130 119 126 136 132 129 137 132 126 132 166 171 165 155 159 161 156 125 78 53 37 24 24 24 25 31 29 26 26 29 34 44 62 44 31 35 26 32 37 42 48 45 45 50 60 66 68 75 77 85 95 109 107 91 95 98 84 69 65 76 89 92 84 63 57 67 80 87 81 79 80 67 73 87 85 57 51 56 72 104 127 140 139 106 82 68 72 64 55 53 73 73 85 88 103 104 119 120 97 101 93 59 
34 24 22 33 54 77 88 74 53 37 41 71 104 89 49 34 31 29 31 50 53 41 32 40 63 58 50 43 63 46 45 57 57 42 41 44 44 39 31 25 22 29 31 32 33 20 23 24 25 32 36 40 44 41 39 46 48 46 42 39 35 38 44 50 52 46 43 33 31 39 28 26 29 32 29 28 30 44 63 61 61 71 63 49 40 47 56 51 41 33 33 29 23 22 24 25 30 31 25 24 24 25 27 26 21 20 25 30 31 28 27 29 33 33 29 31 40 60 101 130 163 185 203 210 210 196 173 156 146 141 143 156 152 153 145 148 148 154 140 139 157 160 153 154 180 192 151 92 82 94 104 119 136 157 175 191 184 168 170 165 147 150 147 146 137 139 155 162 160 174 176 171 187 203 207 188 128 89 95 104 108 120 127 131 122 118 125 129 129 129 120 122 121 137 163 174 163 170 174 171 161 126 79 59 44 26 25 23 24 31 31 26 24 27 31 37 43 34 31 37 36 34 38 43 47 49 52 64 74 79 70 64 66 79 94 107 99 79 76 73 63 54 51 73 93 86 82 74 62 77 80 65 59 60 54 49 59 82 93 72 62 65 74 110 125 123 110 107 81 71 74 68 55 56 64 80 89 138 134 128 157 158 129 99 78 56 
55 23 22 40 62 97 91 72 49 43 58 79 90 66 38 31 29 25 36 42 48 44 54 66 60 61 48 50 51 44 38 57 63 41 44 45 41 36 31 27 26 23 37 46 53 31 19 24 24 22 35 45 42 42 37 45 54 53 48 47 40 43 48 58 55 45 37 34 44 54 41 37 34 34 33 31 30 34 44 46 54 54 44 29 36 48 57 62 50 35 29 30 27 28 23 34 36 29 25 25 23 20 21 23 20 18 20 21 23 25 25 26 29 28 30 35 46 76 117 151 173 192 197 206 205 177 156 146 148 153 150 156 156 145 144 139 137 136 133 137 155 163 153 159 193 188 136 88 83 95 110 131 143 163 175 184 175 164 168 168 151 140 144 138 143 140 146 159 163 175 178 172 191 203 199 167 106 86 96 101 110 124 136 131 121 121 126 130 130 128 124 121 129 145 177 178 174 182 182 178 167 125 75 58 49 30 25 25 23 29 31 26 25 27 26 35 48 30 30 41 39 31 41 53 61 64 71 78 79 83 79 64 74 83 89 86 67 53 49 52 59 54 54 65 80 86 78 82 80 78 75 46 35 41 36 37 40 61 66 59 64 57 80 104 110 91 79 74 69 69 65 56 57 55 52 65 105 157 175 172 173 168 134 90 84 56 
32 24 28 43 85 94 84 62 48 54 68 67 63 40 32 28 22 25 32 47 56 63 87 92 71 56 48 50 47 39 40 55 61 55 60 54 47 36 34 32 27 32 45 61 68 55 22 22 23 27 49 52 48 38 34 42 56 58 53 50 41 43 54 70 75 57 35 34 49 53 45 48 45 39 42 34 28 27 30 38 46 43 27 28 35 41 51 53 52 30 26 27 28 28 33 39 41 28 23 24 22 19 17 18 18 19 18 20 22 25 26 25 26 28 28 33 53 96 126 159 187 181 189 193 191 176 151 147 150 150 146 142 145 144 143 137 133 132 130 140 157 157 144 166 190 169 116 83 86 98 118 138 161 166 179 185 170 172 176 180 162 154 135 142 150 148 156 165 163 182 173 173 195 207 197 154 97 87 99 101 113 134 135 123 119 120 122 123 127 137 127 126 138 161 179 186 176 178 180 173 164 119 68 50 50 30 24 25 23 28 31 28 28 28 38 49 51 42 27 39 37 29 46 58 70 66 86 81 77 77 75 83 85 107 107 88 66 48 44 49 61 66 57 59 76 83 84 75 72 81 66 33 31 32 27 29 33 38 58 63 78 70 78 99 98 74 59 61 58 69 67 49 54 50 51 60 100 156 193 182 165 151 113 87 80 56 
29 34 40 69 84 89 66 49 53 65 56 49 38 36 29 28 20 25 46 60 67 78 101 100 71 61 56 50 43 39 39 46 63 65 67 65 50 36 33 30 28 38 49 64 76 72 48 22 24 37 46 51 36 31 30 37 48 58 53 48 40 38 55 89 95 72 45 34 36 46 39 56 51 40 42 35 26 24 26 33 37 30 29 31 40 41 34 43 36 31 25 24 26 29 32 37 37 25 20 21 20 17 17 18 19 19 20 18 23 26 27 25 26 26 29 32 65 110 131 156 194 196 189 190 192 168 150 141 146 142 140 139 136 146 146 146 138 133 138 146 151 151 149 169 195 158 101 88 93 103 122 146 156 175 181 183 177 180 184 176 168 151 143 151 151 158 163 167 175 186 186 180 195 201 187 134 89 91 98 101 122 136 135 126 124 130 129 120 142 148 136 129 146 168 179 177 172 183 174 169 150 104 53 43 46 32 23 23 24 28 32 29 27 38 48 56 59 45 28 34 34 38 47 56 52 55 87 92 71 78 89 87 103 112 107 97 72 58 58 57 66 71 69 66 87 91 82 67 76 82 70 47 33 36 34 39 36 39 55 73 80 82 78 92 78 65 59 59 70 78 79 74 51 60 55 50 80 131 137 149 140 119 98 75 86 59 
50 47 55 59 73 63 48 50 64 71 55 32 37 38 39 24 24 32 44 63 82 94 109 102 79 69 58 47 40 39 38 49 58 55 61 49 42 31 28 29 27 27 48 41 59 75 57 51 34 33 39 32 25 29 30 30 40 51 53 45 39 39 67 99 109 85 51 38 42 39 53 64 53 38 33 27 23 23 25 27 27 26 25 34 37 29 29 24 38 37 32 27 25 32 29 31 30 28 21 18 18 18 19 21 21 21 19 18 22 26 22 22 22 25 27 35 78 126 129 157 195 201 183 185 182 161 145 132 138 139 136 140 142 140 150 154 146 138 140 143 147 138 145 179 195 142 94 92 99 110 123 136 150 168 182 179 175 187 181 174 152 151 147 150 158 155 155 162 168 197 198 195 196 197 171 114 85 95 98 107 123 140 134 125 138 142 130 134 147 147 136 129 147 174 180 178 183 190 190 172 143 89 44 33 43 33 24 24 26 29 32 30 28 35 45 50 60 61 46 41 56 56 67 52 41 52 96 98 86 86 85 93 90 94 95 93 79 64 60 56 56 62 81 88 90 92 73 71 90 94 77 46 44 45 47 54 52 50 59 69 86 92 102 93 83 67 76 84 91 83 84 85 66 50 62 52 63 90 108 116 113 110 92 71 80 57 
50 44 44 47 55 52 48 47 61 68 48 39 31 38 33 32 37 41 47 69 102 120 124 108 89 76 62 51 43 41 49 53 55 42 35 34 31 24 31 28 24 24 29 35 34 58 69 69 53 32 28 26 27 31 30 28 34 46 47 41 38 48 74 109 108 92 60 43 36 45 54 64 51 38 30 24 21 20 21 22 22 22 22 26 27 23 24 39 51 45 39 31 34 32 28 25 33 35 24 19 19 19 21 19 19 22 21 18 22 25 23 19 24 25 24 38 87 134 150 165 201 195 177 172 163 153 140 139 136 133 138 140 138 137 145 150 154 146 146 148 144 142 149 183 188 128 89 93 102 115 128 122 145 167 179 167 168 189 189 166 157 146 137 144 151 152 156 149 165 189 194 194 199 199 158 101 86 97 101 114 133 142 136 136 133 132 127 128 142 136 131 125 138 164 179 185 189 198 192 175 136 77 38 29 36 34 26 26 27 30 34 33 29 28 30 33 51 74 60 72 78 83 68 55 53 58 112 103 95 88 89 88 98 105 92 89 83 60 45 42 36 62 85 100 96 85 75 85 106 115 91 46 42 55 63 75 74 68 80 92 115 125 122 119 94 76 72 107 103 80 81 94 82 66 66 62 74 103 106 113 106 94 76 67 77 62 
35 35 30 43 58 64 57 43 44 57 47 41 39 34 36 52 80 83 73 84 112 127 116 99 80 72 65 62 55 47 47 52 45 31 31 33 32 37 38 30 25 19 23 28 25 36 51 66 51 25 24 28 30 31 32 32 32 41 44 38 36 49 74 103 109 98 78 47 39 49 59 49 40 34 30 23 20 22 25 22 23 21 21 24 27 25 30 47 52 47 31 38 35 34 27 24 38 41 26 20 21 22 24 20 19 21 21 19 23 25 23 22 24 24 27 49 96 139 163 185 197 201 173 163 164 145 149 138 134 134 135 140 141 134 140 150 147 152 150 150 142 138 155 184 172 109 84 95 105 121 125 125 136 169 176 168 178 193 191 183 161 151 139 139 145 159 156 164 184 183 188 196 200 188 147 89 88 98 106 124 141 144 153 144 138 122 118 120 136 131 138 141 141 166 183 194 197 204 191 168 122 64 34 27 34 38 28 23 28 32 34 36 36 35 31 29 48 64 73 75 89 77 53 48 61 96 125 122 97 78 70 82 91 85 65 58 52 46 41 46 51 54 76 74 78 74 83 85 119 137 110 73 56 68 89 108 102 96 106 139 149 156 136 116 100 77 71 89 98 72 70 92 91 72 76 63 73 108 107 94 69 72 73 65 80 59 
48 41 34 38 54 54 44 38 39 43 43 38 31 26 42 68 109 120 92 77 89 97 101 88 75 69 67 67 60 48 42 43 38 35 38 43 59 58 42 31 20 20 18 23 22 24 29 50 40 23 24 29 32 34 34 30 30 33 36 28 38 49 68 98 109 106 91 65 60 69 74 53 32 26 26 22 22 29 32 32 26 22 22 26 28 27 28 36 44 30 34 32 35 29 27 33 41 43 26 18 21 24 24 24 23 21 20 22 26 27 25 25 26 25 34 63 102 136 172 185 197 191 168 164 158 152 148 141 134 135 151 145 134 138 138 138 143 142 145 142 137 145 161 191 155 94 83 96 107 122 126 124 145 167 177 179 194 206 195 187 174 159 145 140 145 147 156 167 176 185 190 196 201 184 125 85 87 98 109 132 139 144 147 145 133 118 114 127 139 138 154 152 158 174 183 192 204 202 189 155 103 51 30 27 35 46 31 25 25 29 32 37 44 56 60 54 57 71 65 83 94 80 51 43 69 103 141 114 94 75 74 72 65 56 32 27 37 34 43 55 65 56 54 65 61 74 81 86 100 136 131 94 75 85 94 102 106 95 111 135 160 160 139 120 98 84 74 72 77 71 63 86 97 77 69 76 81 91 87 67 55 64 71 85 87 40 
73 52 37 30 33 29 29 26 38 43 35 37 29 41 60 81 116 124 94 64 55 56 66 61 52 47 45 48 47 44 46 49 41 40 40 55 70 59 41 19 21 16 19 21 24 21 26 35 35 22 21 27 30 30 28 27 24 26 28 27 36 47 66 100 109 107 90 72 59 68 70 52 35 27 24 23 26 28 31 26 23 21 23 27 28 27 24 28 28 28 29 32 26 28 31 33 39 39 25 20 23 27 25 24 26 24 22 28 33 31 27 29 32 32 41 74 110 135 162 181 178 174 159 157 157 149 148 141 133 146 158 151 137 129 139 140 142 148 142 141 146 156 186 195 142 87 86 98 111 119 121 129 150 166 167 174 194 193 186 175 171 162 151 147 150 152 152 153 174 174 190 209 197 168 109 77 89 100 111 128 135 139 139 135 123 116 119 135 146 147 155 158 168 178 177 187 197 195 177 140 86 40 26 26 37 53 38 23 24 25 25 30 41 57 66 69 65 58 64 70 78 83 43 32 57 102 118 99 98 91 90 81 62 44 31 24 27 35 37 61 73 66 62 72 79 74 81 92 110 132 129 108 93 85 89 89 94 99 101 115 127 147 147 129 107 89 78 61 55 60 82 94 114 104 82 85 79 71 62 53 52 55 66 77 101 71 
77 51 31 27 24 22 27 39 41 56 43 33 41 51 68 87 112 120 102 77 58 51 54 47 41 38 36 39 43 44 52 54 46 37 39 49 51 49 22 19 16 16 16 37 23 23 22 27 30 21 20 26 27 26 28 26 27 30 28 29 34 44 63 103 105 92 86 62 48 45 41 42 35 27 24 25 28 23 20 18 19 20 24 29 29 27 26 24 23 25 24 24 25 22 26 26 32 33 25 23 26 29 26 23 26 25 24 30 34 30 27 33 37 38 50 86 118 134 151 166 163 165 160 153 151 140 148 139 130 136 150 142 133 136 137 144 156 164 149 149 157 181 202 193 124 80 88 101 117 119 116 126 152 158 155 161 175 174 162 165 169 166 154 150 147 154 151 157 165 184 200 206 202 156 97 78 94 106 116 127 136 136 137 123 119 113 118 129 135 134 146 159 173 183 181 195 195 191 165 125 70 35 26 25 36 57 40 25 23 23 25 27 27 33 52 62 60 49 43 48 57 52 38 41 65 105 114 104 90 79 73 56 51 55 49 34 32 36 48 68 88 83 73 80 75 66 81 95 122 133 123 105 93 89 83 75 81 93 103 106 114 131 141 121 93 86 79 67 45 68 88 87 108 110 101 83 71 70 66 61 55 47 37 57 76 32 
54 43 32 25 27 21 27 33 50 50 45 40 36 45 58 72 101 113 104 86 64 56 59 48 39 39 40 41 42 44 46 50 41 34 36 35 40 27 29 26 21 17 38 47 38 23 21 25 24 23 24 31 39 31 29 34 32 33 31 29 32 44 66 96 93 76 75 64 41 32 32 29 29 24 23 28 32 28 18 22 23 24 25 27 30 27 23 22 21 21 19 22 23 22 20 23 27 29 26 23 24 26 23 22 27 24 23 26 28 26 27 31 39 45 67 106 135 142 147 156 163 158 160 161 143 142 143 139 133 133 136 131 133 134 142 141 155 168 157 145 163 193 206 176 105 78 87 107 119 117 111 123 149 159 153 168 167 158 158 160 173 173 159 148 152 151 159 157 184 192 201 215 195 143 87 82 97 109 122 132 137 140 128 123 119 114 120 132 125 136 144 161 178 176 184 202 209 190 163 108 57 32 28 25 35 58 42 26 24 25 26 27 27 26 38 56 58 37 32 30 31 39 43 41 70 103 108 96 81 60 49 44 36 51 49 46 39 44 48 64 86 79 82 74 71 63 75 106 120 125 109 100 83 89 84 76 79 85 86 93 97 102 98 92 87 76 86 71 62 83 89 62 71 113 94 87 104 94 84 75 64 48 35 38 59 55 
47 46 34 31 28 25 21 27 30 37 35 41 44 51 66 69 85 81 77 66 56 57 60 51 40 39 38 39 39 38 42 34 30 30 31 29 23 25 29 32 25 26 35 49 34 23 21 23 24 21 34 51 55 42 32 29 33 33 33 30 35 40 68 81 70 71 82 76 50 41 41 33 29 23 24 26 36 33 22 21 25 27 26 31 34 30 26 20 24 25 18 20 24 22 19 22 26 27 25 25 23 24 23 27 29 29 25 26 26 26 30 33 34 53 85 124 149 153 152 160 153 155 153 153 146 143 138 139 144 142 140 138 135 147 149 150 147 157 153 152 168 190 195 153 86 76 96 112 116 109 106 123 149 156 166 182 180 167 163 168 171 167 153 150 150 159 156 173 185 199 204 207 180 117 79 83 100 110 127 137 139 139 129 127 120 117 128 132 139 146 157 173 180 171 176 205 209 202 154 95 46 30 28 25 35 57 43 25 25 23 25 29 30 29 32 47 50 38 43 41 33 45 45 53 71 96 96 96 74 56 64 61 57 54 63 62 56 46 57 72 80 83 85 76 65 63 83 118 133 116 97 83 68 80 94 106 111 99 88 78 81 87 66 91 98 82 83 61 70 77 95 70 82 104 100 98 114 112 73 51 59 66 45 43 61 99 
73 52 40 28 31 21 23 29 34 31 47 53 49 73 83 83 82 68 54 49 45 48 55 45 38 33 31 30 35 43 42 37 24 30 31 29 23 19 24 25 23 19 23 28 23 24 25 24 21 18 24 39 47 33 23 27 29 33 30 30 32 44 54 66 61 62 93 83 57 47 45 39 30 27 25 25 34 41 28 20 23 26 29 32 37 33 26 29 33 34 23 21 23 22 20 21 26 25 25 25 25 24 26 27 32 31 29 27 26 28 33 36 43 70 108 140 153 161 162 156 150 147 149 146 153 158 144 141 145 150 142 139 146 147 160 153 142 154 165 178 185 195 176 124 75 75 101 115 115 103 109 124 143 154 169 194 191 173 173 176 171 160 154 152 155 156 161 169 188 202 205 206 164 100 78 88 104 115 134 141 145 135 131 125 121 118 133 138 138 156 159 175 189 177 182 200 212 190 143 78 39 28 26 26 36 54 38 25 23 22 24 27 33 34 32 43 48 52 63 66 61 54 57 63 84 84 80 76 64 55 53 62 76 81 77 80 68 56 61 74 80 72 81 72 52 52 87 126 146 124 101 86 66 72 102 121 118 103 78 70 97 72 79 90 103 88 60 65 58 72 91 98 97 113 79 105 119 105 74 53 69 64 51 39 57 68 
54 53 42 26 28 24 20 33 41 43 51 56 48 54 70 68 76 82 61 37 31 31 29 29 25 25 27 28 33 46 61 44 43 33 34 27 25 21 18 19 17 16 17 20 21 26 25 34 26 23 24 30 34 27 26 27 29 31 31 28 23 34 47 56 55 69 97 89 53 44 40 35 31 27 28 24 29 41 33 25 23 27 30 32 35 32 28 31 34 32 22 19 22 22 20 22 25 26 24 23 23 27 26 24 28 31 30 30 32 32 33 40 57 91 132 147 153 159 157 146 140 139 140 145 164 179 157 139 147 140 139 138 147 150 152 151 143 155 173 188 200 198 168 109 69 80 108 120 112 102 109 124 142 149 173 196 191 174 165 166 159 152 156 156 159 152 155 155 179 202 209 202 151 93 79 93 103 119 136 142 139 134 130 131 123 127 133 134 134 143 154 169 190 192 202 211 207 181 119 63 34 27 26 26 36 46 31 23 23 27 32 30 31 29 31 46 52 49 65 66 58 58 61 72 87 75 49 55 55 53 53 64 76 81 72 72 73 75 75 82 66 54 75 70 62 66 88 132 142 126 112 108 71 75 104 114 116 94 81 99 101 103 93 104 100 65 56 47 42 51 71 83 90 78 89 67 91 89 89 75 84 78 29 34 52 51 
32 58 53 29 26 26 20 35 47 47 49 45 38 43 46 50 76 81 66 43 24 25 23 19 19 23 24 23 25 40 64 55 46 49 31 25 22 20 17 15 15 17 19 19 22 23 31 45 36 30 28 28 31 28 25 27 27 30 33 28 25 31 41 57 59 78 102 81 51 38 36 35 33 29 39 29 22 31 30 23 26 28 29 30 33 33 38 34 33 28 21 20 23 25 26 26 26 26 24 21 23 28 26 24 27 29 28 31 36 35 34 43 73 108 139 149 153 152 150 137 130 135 134 137 152 173 151 142 148 147 136 143 149 151 143 144 144 153 163 168 190 199 160 96 68 89 116 124 108 99 113 137 158 165 178 193 190 168 157 156 150 148 158 161 153 143 152 161 165 200 205 181 131 83 83 95 112 124 131 134 129 130 132 135 129 128 133 127 128 146 161 171 184 198 208 216 208 168 104 53 32 28 27 27 34 38 27 23 27 33 38 34 31 26 30 47 52 42 46 54 55 53 57 72 78 55 41 36 45 57 66 63 79 75 57 65 77 77 87 79 71 59 82 91 90 89 107 125 126 112 118 117 78 70 84 100 87 80 73 81 92 98 96 115 87 69 57 44 46 42 69 58 70 67 55 77 49 72 88 89 96 98 53 41 61 65 
43 68 65 32 29 26 27 36 55 55 47 36 38 49 56 62 61 66 53 36 32 31 32 24 21 24 24 21 19 37 61 39 39 41 35 22 21 19 19 18 20 21 21 19 19 19 41 48 40 33 29 25 28 28 27 29 29 30 34 30 27 32 46 47 55 76 91 66 39 30 31 31 29 35 53 36 20 25 24 24 27 28 29 31 33 38 41 39 31 26 23 25 29 34 41 37 28 24 23 23 25 27 25 25 28 27 28 32 31 30 35 64 97 132 149 152 150 151 140 136 134 132 134 133 139 145 143 149 147 149 144 138 150 149 142 154 163 168 170 170 184 201 151 84 78 101 124 125 115 105 120 151 172 180 188 196 185 158 147 146 141 147 165 160 156 156 158 167 180 193 198 170 113 85 89 103 116 132 132 119 122 121 124 124 127 128 131 128 130 149 167 177 182 192 207 214 204 153 91 46 30 28 28 27 32 34 26 27 27 30 32 29 29 25 29 42 40 37 47 59 67 65 73 82 69 51 44 49 38 57 72 93 83 76 76 73 69 69 65 71 72 79 92 93 91 89 98 107 112 110 114 121 78 56 64 64 60 57 50 55 83 70 89 102 80 82 74 70 63 70 67 70 77 76 67 69 70 66 69 57 91 92 73 63 79 91 
71 66 56 29 25 25 23 39 57 62 49 42 48 50 56 65 49 30 29 26 23 34 37 35 32 30 27 20 18 39 72 41 32 48 30 26 21 21 26 27 26 25 24 22 20 28 42 50 38 36 35 28 28 29 32 31 31 29 31 37 41 49 44 45 50 72 72 52 36 33 25 30 25 42 56 37 22 26 26 25 26 27 29 34 34 37 37 38 31 26 24 27 32 39 49 46 29 21 22 24 26 26 27 27 31 32 36 37 33 37 60 93 131 154 161 148 150 154 145 136 135 134 138 137 139 140 149 155 162 150 148 145 154 155 161 163 177 186 187 184 191 195 137 86 92 115 125 126 120 112 125 147 179 192 200 197 175 157 150 143 142 146 166 167 164 156 169 178 183 199 199 158 105 84 96 109 120 130 123 113 115 112 114 113 121 129 127 128 131 143 171 179 194 197 208 211 189 137 75 41 29 28 28 27 30 33 29 29 28 28 30 34 37 30 29 35 37 28 46 65 67 76 98 92 70 48 56 60 56 52 86 85 73 72 67 68 72 61 60 70 76 91 90 77 78 77 79 85 84 90 93 103 72 51 46 43 46 49 52 69 84 84 79 91 103 82 81 75 65 64 54 57 92 72 56 80 78 53 57 59 48 71 59 65 84 99 
67 46 39 26 20 23 23 35 54 55 48 41 43 49 48 48 42 22 17 18 18 26 34 31 34 33 31 24 20 37 76 63 40 42 31 18 19 26 30 33 30 28 27 24 27 41 47 46 40 41 39 33 33 35 36 39 34 34 45 57 54 55 49 43 56 67 62 43 40 32 29 25 27 45 50 32 27 30 29 26 26 25 26 31 35 37 36 32 35 30 25 26 29 34 47 48 33 25 24 25 27 29 29 30 31 34 38 42 48 66 96 127 151 156 166 156 157 160 152 141 134 135 141 151 145 138 147 156 153 158 147 147 151 163 149 160 164 180 187 186 194 178 122 90 108 128 131 133 125 120 131 156 182 200 193 180 169 164 166 156 151 152 163 162 162 159 169 185 191 199 191 142 93 87 103 117 120 121 112 108 110 115 106 113 114 116 119 119 121 140 156 187 204 210 207 206 176 116 62 36 29 28 29 27 31 33 28 26 26 29 35 43 45 35 32 40 41 40 55 66 65 76 99 98 61 43 53 64 59 70 84 89 75 65 76 85 79 79 82 76 81 94 82 57 69 79 81 82 78 78 86 81 71 46 29 32 43 63 72 89 99 80 62 100 99 88 74 59 62 45 30 38 75 65 49 84 80 66 61 59 61 47 52 74 69 60 
14 25 34 31 32 28 27 38 49 49 44 41 46 49 42 47 39 23 15 14 15 23 30 27 24 29 33 36 20 31 67 72 47 38 26 21 20 20 28 29 30 27 26 25 33 38 42 37 33 37 39 47 46 55 59 53 45 46 53 56 50 39 37 37 50 58 41 35 35 33 32 33 43 44 44 26 24 29 27 26 27 25 22 26 33 41 40 29 30 30 28 27 28 33 44 47 36 33 31 28 30 31 33 29 32 36 47 58 74 102 132 156 151 161 163 160 150 153 142 136 134 137 147 156 165 155 145 151 154 158 153 144 152 150 151 153 162 166 175 181 193 169 112 97 121 138 143 143 136 132 149 165 182 190 181 171 166 173 176 162 152 154 157 155 152 160 167 182 203 204 184 127 84 93 107 121 119 110 106 106 114 108 108 110 115 113 118 125 129 133 154 178 199 201 204 197 159 98 51 33 29 28 28 29 33 35 28 26 26 32 38 45 43 36 36 43 52 57 68 67 63 68 90 83 55 50 46 59 67 76 100 104 86 89 96 109 112 102 84 77 68 89 81 54 66 74 75 64 70 78 74 79 66 46 34 48 58 86 89 90 85 77 70 80 101 94 65 64 52 37 25 40 79 66 42 74 85 59 58 57 50 59 65 70 72 49 
18 26 30 37 37 37 37 36 42 43 38 36 36 39 37 32 35 23 17 15 14 25 32 34 22 27 43 41 31 21 49 62 45 25 27 24 23 23 25 27 27 24 22 23 28 31 28 27 36 32 44 48 58 68 67 58 45 37 39 38 29 30 30 31 40 38 31 29 33 39 48 54 47 46 30 21 23 25 26 27 27 26 24 24 30 43 41 31 26 34 30 30 35 34 40 39 37 37 37 33 30 33 33 37 45 62 75 93 113 137 160 161 158 144 153 147 143 138 138 141 142 136 133 157 162 162 163 151 157 162 149 151 147 144 148 157 160 153 157 172 186 159 108 116 143 152 160 157 139 143 162 167 175 187 182 168 161 163 160 150 147 145 151 148 150 145 148 173 193 207 180 111 88 104 113 116 114 108 104 111 112 108 105 112 115 117 122 133 133 140 159 176 190 195 198 186 141 83 43 32 30 28 29 28 34 34 28 23 27 30 34 40 40 33 35 43 56 64 68 67 62 83 92 71 56 56 60 69 65 81 98 102 98 95 109 118 124 103 90 59 54 74 73 68 75 72 64 59 53 60 63 69 56 54 48 48 74 81 75 67 67 76 91 83 101 80 74 75 50 32 25 59 87 72 53 71 81 66 52 52 55 59 73 77 76 107 
32 24 24 28 31 39 37 31 32 33 34 27 25 35 31 28 33 24 19 18 22 25 37 45 41 37 47 45 31 21 30 50 50 32 23 30 26 25 27 27 22 19 20 24 26 22 23 30 35 38 41 46 46 58 51 39 30 27 26 27 25 29 30 32 35 37 36 34 38 45 53 52 43 30 23 23 26 30 28 27 28 24 24 28 27 33 44 31 31 36 31 32 39 36 34 35 35 42 38 33 37 42 53 62 78 97 119 137 150 159 161 159 148 143 141 143 132 136 138 147 149 142 136 133 150 147 147 147 150 153 152 148 152 140 137 150 146 156 155 179 186 147 127 146 171 183 181 173 162 159 163 171 182 193 181 164 147 150 148 142 139 151 156 147 143 141 147 165 196 204 165 106 96 107 112 107 103 100 108 114 115 107 106 111 115 111 125 130 136 148 166 185 191 198 199 180 128 70 40 31 30 28 27 29 33 32 25 23 22 28 34 37 34 30 30 37 45 50 55 48 73 94 101 76 49 71 78 66 71 66 91 89 79 93 96 103 100 105 88 64 46 57 69 78 75 68 58 64 64 53 62 73 66 63 50 59 66 67 51 43 41 76 101 99 96 78 91 84 52 28 34 63 79 83 63 75 74 65 66 61 62 77 86 85 69 58 
58 35 29 29 37 48 36 30 32 38 36 31 35 42 38 35 35 29 23 26 26 22 32 49 50 45 47 37 27 23 17 47 56 45 32 30 32 33 33 28 22 21 23 26 25 24 26 30 35 37 39 53 56 57 47 37 30 26 28 30 25 25 30 32 40 46 47 40 36 37 37 33 27 23 23 25 29 33 33 32 26 22 23 29 33 40 44 40 36 38 31 34 41 35 29 32 37 46 48 49 58 77 91 106 119 135 151 163 170 162 150 144 140 144 139 135 136 136 137 146 157 154 138 139 141 137 135 137 134 144 140 146 145 149 140 137 152 144 158 169 174 165 158 186 200 201 198 195 183 168 169 170 189 191 181 162 152 149 151 142 141 153 162 155 148 152 163 181 194 188 146 96 95 114 106 104 103 105 111 116 117 107 108 111 109 115 118 128 136 148 169 184 192 198 194 165 109 59 36 30 28 27 27 31 38 34 27 24 26 35 40 35 29 24 28 31 39 41 46 64 74 94 93 71 66 78 87 79 49 57 75 72 64 71 88 79 84 90 82 61 48 49 71 80 72 59 62 71 78 65 67 80 71 69 60 72 77 66 36 42 43 71 99 88 97 82 100 99 43 28 48 61 76 66 59 60 58 62 75 83 80 86 84 74 63 49 
21 30 34 38 56 46 45 34 42 44 39 40 45 42 36 32 38 26 26 30 46 29 21 43 42 39 38 31 22 23 21 28 50 41 35 35 39 37 36 28 23 24 26 28 26 28 33 32 33 38 46 62 71 63 48 36 37 29 33 47 39 25 29 31 39 49 49 39 32 29 25 21 21 22 23 25 27 32 37 38 31 22 20 31 39 43 48 38 35 36 31 34 38 32 30 33 48 63 75 83 99 122 130 141 151 152 154 164 159 145 139 131 138 134 134 134 132 133 137 146 159 159 150 146 147 144 142 142 140 135 135 133 144 154 149 155 166 156 145 161 163 158 175 187 197 201 205 205 197 178 167 175 185 191 177 174 157 149 143 146 137 147 156 148 150 164 169 186 185 174 124 91 104 117 113 109 116 128 117 115 118 113 113 114 113 111 118 121 131 146 170 188 194 196 189 148 89 49 35 32 30 28 28 35 42 37 30 27 32 40 41 32 27 28 32 34 35 45 54 65 64 61 65 56 50 78 87 80 69 58 72 75 65 72 85 72 70 70 69 55 67 67 76 74 60 51 48 53 64 58 58 78 69 69 73 76 85 69 38 40 59 72 82 85 91 109 120 105 50 51 57 67 57 63 62 62 65 78 89 91 86 72 73 53 51 67 
16 37 40 49 52 54 35 42 47 39 35 39 40 35 27 35 27 27 21 44 58 57 45 40 35 33 40 37 28 26 23 21 32 33 36 44 43 42 37 27 27 28 30 32 31 31 35 30 36 41 49 72 80 64 47 46 33 28 35 50 48 33 26 30 35 42 41 35 29 25 21 21 24 24 25 26 25 28 36 38 31 25 24 28 36 42 38 32 32 34 30 32 36 37 45 64 78 98 114 124 142 160 156 155 152 153 156 158 156 149 134 138 132 135 136 137 131 136 136 141 153 164 153 143 146 144 140 145 137 131 131 136 144 157 157 168 172 165 161 162 162 151 156 161 166 179 182 187 185 167 167 171 177 191 187 172 170 149 141 148 142 145 151 149 147 154 166 174 182 166 111 96 117 126 123 121 142 163 139 123 122 115 117 120 113 116 114 118 136 147 181 199 200 198 187 137 75 43 37 34 32 31 32 37 40 36 31 30 32 38 36 27 32 40 38 48 59 52 51 56 50 50 51 54 49 57 77 82 79 63 67 84 70 73 84 67 55 58 59 76 92 102 85 71 46 42 34 31 42 46 52 61 59 62 60 77 82 79 47 50 58 67 75 74 111 127 156 122 80 74 77 68 55 61 74 88 86 86 96 94 83 67 50 60 67 69 
38 49 55 52 52 40 30 40 40 31 27 30 29 26 26 27 30 21 20 32 58 63 67 55 34 33 49 48 40 37 31 27 25 30 37 46 48 49 39 32 30 29 32 34 33 32 37 30 29 42 57 81 91 75 56 46 37 27 23 40 40 27 25 24 27 30 32 33 29 25 23 24 26 25 26 25 24 28 36 35 34 29 28 34 36 39 37 32 32 33 36 43 54 67 83 104 122 135 143 146 167 183 165 149 149 143 144 149 152 147 141 138 136 137 139 143 140 136 139 143 154 170 159 152 148 144 139 143 139 133 137 134 142 146 154 157 173 154 157 171 150 151 159 173 169 178 174 167 170 168 169 169 183 187 172 165 156 158 157 150 153 163 164 151 148 150 153 171 188 164 113 116 144 158 145 141 161 178 156 136 129 116 124 120 119 117 115 131 138 157 189 205 203 197 176 119 62 40 36 33 32 34 36 37 36 34 32 33 32 34 30 26 34 43 55 68 72 68 49 53 53 60 63 52 57 60 68 81 86 80 80 84 82 75 91 65 57 53 63 72 102 115 95 70 47 34 28 27 36 53 64 64 51 49 74 83 96 104 68 62 68 79 65 77 110 135 161 170 110 88 93 77 63 59 72 81 81 79 85 94 87 74 71 81 76 77 
43 55 58 67 60 47 46 41 32 24 20 23 23 22 30 31 30 35 30 23 34 47 52 51 40 31 38 43 39 40 43 38 33 29 33 46 52 50 45 39 38 36 38 34 31 33 45 36 28 37 60 91 96 75 52 42 33 31 23 26 30 26 22 23 24 26 27 28 26 24 22 23 24 25 27 25 26 34 38 37 38 37 38 39 36 40 39 33 37 44 56 71 88 104 114 127 140 146 152 150 170 190 168 154 152 146 143 140 146 149 145 135 137 135 146 143 138 140 139 136 155 171 164 153 161 156 143 140 143 149 139 140 142 150 143 157 155 154 164 149 146 144 158 162 167 174 171 165 171 176 172 177 177 181 157 137 151 150 150 154 156 173 175 158 143 137 141 164 178 162 125 152 182 180 176 162 170 173 157 152 140 129 135 127 120 122 130 147 155 157 194 207 202 191 158 98 52 38 34 33 31 33 34 34 33 35 34 33 32 32 28 27 35 43 49 51 55 46 40 51 61 72 68 68 79 82 75 76 89 79 75 84 72 76 101 88 77 59 55 57 85 101 82 52 43 32 34 34 43 79 81 66 67 76 92 125 132 111 75 66 81 86 85 81 91 116 150 172 133 80 83 85 73 80 71 75 71 70 82 87 91 87 73 62 54 23 
64 56 74 82 74 61 58 48 33 19 22 21 25 34 45 36 33 33 25 23 20 23 33 38 39 38 38 32 30 35 42 47 40 34 31 41 45 46 44 49 50 53 57 59 36 36 49 42 29 45 67 91 99 76 45 36 31 38 31 20 27 23 24 22 26 26 26 26 27 25 24 22 21 24 26 24 31 39 38 39 45 44 43 42 37 40 42 45 56 73 87 102 112 118 121 127 131 140 144 142 155 162 157 149 150 147 139 143 145 152 148 150 142 144 143 147 141 137 135 134 145 166 155 157 161 154 143 138 144 144 151 143 160 154 149 146 150 158 156 158 146 155 149 153 153 161 161 164 174 173 162 161 171 166 151 152 148 159 153 147 151 173 165 152 143 142 142 156 173 163 150 186 204 204 193 195 185 179 169 175 166 162 171 151 137 139 158 172 160 158 188 202 206 189 143 84 48 35 33 32 30 32 31 30 33 36 34 31 30 27 27 26 37 46 44 44 30 36 47 54 62 80 78 79 90 88 72 62 64 67 77 77 76 94 110 110 96 75 55 54 80 90 59 38 33 44 56 60 71 92 88 64 68 81 97 118 133 111 66 67 83 102 96 85 92 83 115 145 131 81 68 68 83 89 90 79 71 75 88 104 108 99 79 52 27 22 
49 53 67 78 60 52 46 44 28 20 19 24 24 41 62 40 21 21 21 21 25 25 21 28 38 42 52 42 29 29 43 46 41 31 29 34 34 38 44 44 46 53 70 65 55 38 53 42 47 58 78 97 98 83 48 33 35 43 36 33 26 21 21 24 25 29 29 29 29 29 24 22 24 23 22 27 35 42 40 39 43 41 41 40 43 56 64 73 90 105 117 122 127 128 125 129 127 138 146 141 145 155 158 169 171 157 153 151 150 147 156 164 155 143 146 145 149 146 140 131 136 157 150 146 149 145 135 137 139 148 148 154 158 157 140 139 150 142 155 151 159 163 157 149 149 156 153 161 176 175 156 147 151 144 145 147 159 164 163 153 161 162 159 147 152 148 152 156 161 154 154 181 196 192 196 197 200 192 192 203 194 195 196 175 158 161 187 192 173 170 194 207 207 187 132 76 42 36 33 32 33 33 31 29 32 37 30 30 26 28 23 28 33 43 49 42 37 44 60 71 69 75 75 71 78 71 58 46 56 75 83 80 85 80 90 85 88 69 65 67 78 82 53 34 37 51 67 73 81 95 83 62 86 107 97 116 127 107 101 89 102 120 102 98 93 87 81 116 126 109 69 62 59 76 77 74 69 67 96 112 111 105 84 61 37 21 
15 35 44 44 45 39 35 34 27 26 20 18 25 47 73 44 21 19 20 23 26 29 25 23 30 43 53 43 30 31 45 40 31 29 29 31 33 37 35 42 48 57 66 68 45 48 53 49 49 74 82 99 100 81 55 44 38 41 44 43 33 22 20 26 29 29 27 26 27 26 23 24 24 24 24 29 38 41 39 38 36 36 36 45 60 77 93 110 130 131 127 128 129 128 136 139 139 141 149 155 164 178 200 212 210 186 164 174 160 142 160 163 155 138 137 145 158 154 151 140 141 146 147 143 141 139 137 141 144 149 153 160 161 142 141 150 148 144 144 146 147 158 142 135 148 151 148 155 165 169 166 157 148 149 141 144 156 168 160 159 164 166 152 149 154 159 157 146 144 149 146 164 167 162 158 162 170 175 183 194 193 189 193 184 179 187 202 193 179 195 207 210 209 178 120 64 42 35 35 36 37 36 34 29 32 36 30 25 27 23 27 26 29 32 40 45 36 45 68 92 69 56 53 53 51 55 51 48 66 78 83 87 78 79 74 82 67 69 68 61 78 66 54 46 46 58 64 74 89 108 108 105 116 135 129 117 115 113 117 127 127 115 107 106 106 88 75 82 116 115 99 67 65 54 55 61 56 62 84 106 100 91 85 71 50 19 
28 32 32 34 37 36 36 34 40 37 28 26 30 55 79 43 22 22 21 21 25 29 27 26 28 36 44 34 27 40 48 36 23 21 24 26 30 35 34 34 50 65 66 70 61 62 77 51 53 75 82 95 89 76 61 55 42 36 41 46 36 24 23 28 32 31 26 25 25 26 25 25 25 27 33 39 43 42 39 38 38 37 49 64 79 103 124 141 154 160 150 132 139 134 134 148 148 154 166 177 195 212 228 235 218 189 177 179 182 163 160 168 142 135 136 141 153 157 152 144 136 143 143 138 144 143 144 145 149 144 153 154 158 145 136 152 153 143 141 147 141 144 138 136 140 150 154 152 149 164 174 174 168 165 159 155 157 157 146 144 157 166 144 146 160 166 162 157 146 148 162 161 161 160 151 157 160 156 163 173 170 165 167 175 183 191 185 174 185 205 212 209 205 170 108 58 37 34 35 37 37 37 35 30 31 33 29 26 25 27 26 34 27 26 30 37 34 33 58 82 72 42 35 39 40 42 51 54 64 71 73 83 87 81 91 107 87 75 77 70 76 60 52 48 54 65 70 80 98 116 138 133 130 155 148 138 114 116 134 145 139 119 106 115 111 91 69 66 96 117 126 101 91 75 51 59 58 65 94 94 95 84 82 71 52 39 
61 47 49 40 34 35 34 38 43 42 36 31 39 60 69 35 21 22 21 21 24 26 22 22 27 29 31 27 29 43 47 29 21 19 20 21 27 34 29 31 41 55 67 72 69 81 80 56 58 77 84 86 75 70 64 60 46 35 38 42 35 27 27 29 35 37 34 33 32 31 31 28 34 42 49 50 45 41 39 40 44 57 72 89 117 137 147 157 153 159 159 163 155 157 154 154 163 181 201 217 229 232 228 209 189 175 172 195 201 179 176 168 155 143 149 142 156 159 157 154 142 134 138 146 149 150 144 155 150 145 155 166 156 153 148 144 144 138 144 145 137 136 144 137 140 152 148 152 151 148 167 173 165 162 155 156 163 151 146 147 162 168 154 145 158 171 167 156 157 164 163 163 164 168 167 164 159 151 148 166 172 161 164 172 172 167 170 166 193 214 200 195 201 169 102 55 35 34 34 35 34 34 35 32 30 30 25 26 27 31 37 44 41 24 25 28 28 25 33 64 57 38 35 38 33 36 44 44 49 49 62 80 83 73 108 122 88 90 95 84 90 76 64 51 62 76 93 120 128 146 159 152 144 148 162 137 128 130 143 138 129 99 94 102 115 94 73 68 87 125 127 138 125 99 78 59 60 71 80 84 71 70 63 56 52 69 
65 65 70 54 36 30 34 28 24 32 30 29 44 58 56 29 22 21 21 24 26 25 22 20 22 25 23 22 31 43 43 28 22 21 20 18 21 24 26 34 40 53 58 66 58 67 70 46 54 76 78 77 73 75 76 64 48 38 36 36 34 30 25 27 33 40 41 42 41 40 36 39 47 55 54 44 37 36 41 51 66 80 108 122 135 155 172 171 164 162 163 153 176 182 190 201 204 218 231 234 223 206 192 171 151 157 167 186 202 187 173 169 164 169 162 154 173 173 171 167 155 140 147 162 161 158 159 156 157 153 154 156 154 150 154 146 140 139 144 143 141 145 153 153 148 149 160 157 152 147 145 155 150 146 145 151 163 158 151 149 154 164 153 151 163 164 155 155 155 163 160 154 159 170 163 160 158 152 145 152 156 157 168 170 177 179 177 189 206 203 174 162 188 168 106 53 36 33 35 34 32 34 34 32 32 29 25 24 28 32 41 51 47 28 23 27 29 25 32 48 52 40 37 40 31 30 36 34 32 36 46 61 54 69 96 117 84 103 109 87 89 95 90 79 63 81 119 135 157 161 163 141 127 133 131 138 129 146 138 119 95 75 69 87 100 85 62 60 70 88 106 100 123 112 80 80 75 88 91 68 60 51 47 47 47 55 
78 78 80 54 33 38 36 22 20 27 27 33 47 57 48 28 29 24 22 25 26 23 21 23 19 22 23 23 27 35 32 23 22 23 24 22 22 23 30 43 39 39 50 53 48 64 58 38 42 58 61 70 78 90 87 71 50 36 30 32 33 30 25 27 30 37 42 46 49 49 46 48 54 55 47 38 36 44 59 69 82 107 132 141 144 149 172 194 197 190 178 172 184 210 225 227 231 228 217 200 179 158 152 145 144 147 156 167 199 197 176 175 168 176 180 173 176 181 163 158 152 154 157 160 158 147 143 155 162 156 158 154 155 156 153 150 140 139 133 138 145 163 185 183 177 179 172 174 179 163 152 154 148 148 155 158 158 162 161 150 147 152 157 162 161 168 151 156 170 161 163 158 158 162 155 149 153 156 152 143 140 157 166 167 158 181 187 194 205 200 168 151 175 168 110 55 34 33 36 34 34 35 31 31 35 32 27 24 23 31 30 43 40 29 25 31 27 32 33 46 50 52 43 37 31 26 31 29 27 43 52 57 58 65 91 110 85 111 124 76 90 104 122 96 81 82 109 133 137 136 128 107 97 102 123 126 139 137 121 93 84 63 64 62 76 72 47 50 70 69 56 65 72 78 76 76 91 100 99 68 43 35 34 42 46 52 
66 84 74 49 36 48 41 24 22 25 27 32 50 63 43 31 34 28 24 23 22 20 21 19 22 19 22 26 26 29 23 22 22 25 26 23 22 22 31 47 36 29 37 46 53 56 54 34 32 38 49 68 82 95 91 68 45 31 31 39 37 31 29 28 31 38 43 45 52 56 56 55 55 51 45 44 54 71 79 91 93 109 138 145 137 139 148 175 181 196 201 205 222 230 234 229 216 201 182 161 147 137 135 138 141 150 155 172 198 211 198 172 169 175 182 177 186 161 155 146 151 153 153 149 138 135 134 140 157 159 155 165 153 155 148 142 134 136 131 133 143 164 192 198 188 182 167 169 179 177 164 159 152 165 167 167 173 173 172 163 156 158 163 180 172 168 169 170 173 166 156 159 156 160 156 150 154 161 154 154 158 171 186 173 156 170 186 190 200 212 190 162 174 169 114 61 35 35 35 34 35 35 29 31 38 35 28 23 22 25 26 27 34 25 27 29 29 23 29 32 44 50 52 33 27 32 31 33 44 57 67 68 72 70 78 93 92 115 129 98 95 126 137 123 93 88 98 109 101 100 109 103 98 98 103 114 112 117 92 79 69 66 51 53 56 51 53 56 62 74 52 32 41 46 47 51 61 79 80 75 61 42 39 41 36 37 
65 67 59 39 45 49 51 31 30 29 27 34 55 66 45 28 31 29 25 27 24 24 21 23 17 26 32 27 34 33 30 33 25 26 26 24 23 21 28 42 30 24 31 40 39 57 40 32 30 33 47 62 87 94 79 60 36 30 43 50 42 33 29 29 34 38 42 39 46 51 59 57 52 53 55 62 73 87 100 99 102 114 135 142 145 136 146 164 182 203 222 231 233 225 211 196 181 167 151 143 144 141 144 132 137 147 158 173 199 217 204 178 155 156 171 173 169 163 141 149 157 161 147 145 149 148 147 140 152 165 162 156 166 154 149 145 145 136 142 148 147 161 185 186 170 159 153 152 166 165 156 159 149 150 167 166 166 174 172 166 182 179 175 182 176 170 165 165 158 146 151 153 145 153 154 154 156 164 170 166 162 170 183 163 150 162 173 172 185 197 198 180 180 164 129 74 39 35 36 36 37 34 29 33 39 39 32 26 23 23 23 22 25 27 30 35 34 32 32 32 38 59 54 50 40 46 47 49 61 72 71 64 73 67 60 83 96 131 142 121 109 123 138 125 107 81 93 94 84 85 122 139 124 101 90 92 92 88 76 55 60 49 48 43 46 51 59 59 54 63 60 54 50 48 50 47 47 47 73 79 81 75 54 47 34 34 
63 53 44 41 42 54 44 44 40 36 39 35 51 72 40 27 38 40 36 31 32 24 22 18 34 41 37 37 33 34 37 37 35 28 29 29 34 28 29 31 24 25 31 33 48 59 44 32 28 37 44 66 84 90 72 45 32 34 47 48 37 30 27 32 31 38 39 35 36 45 49 54 56 63 72 81 91 101 106 113 116 125 142 155 162 159 170 198 215 231 236 225 209 186 175 160 148 146 143 139 141 146 150 145 129 132 145 155 182 202 199 175 148 145 147 168 166 158 147 157 180 174 150 153 163 163 161 157 166 163 154 154 152 160 149 148 154 151 149 156 159 156 187 186 162 152 146 148 150 154 153 157 160 150 148 156 152 157 162 172 191 193 175 167 160 165 154 152 150 146 158 162 155 159 151 149 153 157 163 162 153 150 148 151 142 153 157 161 165 174 179 189 192 180 144 102 55 33 38 38 38 33 31 33 37 41 36 29 26 24 22 21 21 24 29 33 35 35 35 39 38 55 71 67 76 79 76 80 89 87 72 69 71 68 56 80 102 138 168 132 130 117 117 117 96 87 89 96 83 86 124 135 118 105 93 88 90 87 66 56 56 57 62 64 43 52 47 44 41 60 75 76 76 64 53 66 66 60 56 70 86 81 74 50 49 49 
80 54 46 45 40 36 44 37 39 44 48 37 53 59 35 27 44 46 36 30 26 26 22 37 45 50 44 33 29 25 22 29 24 30 36 38 45 45 49 36 28 30 31 32 48 56 42 28 26 33 47 63 77 79 60 43 38 42 42 37 25 25 26 29 33 32 35 34 35 34 44 52 62 75 88 97 107 115 123 129 131 140 156 169 181 193 206 226 234 231 216 195 173 158 152 145 142 140 140 135 130 137 149 146 141 130 134 152 177 197 198 186 163 147 159 165 176 178 156 159 181 167 159 157 163 163 157 164 172 169 150 139 151 156 153 156 161 155 146 146 146 157 179 202 184 170 154 148 147 155 153 167 165 159 155 157 153 159 171 170 181 183 163 152 151 150 147 143 141 147 156 159 156 162 162 144 141 149 153 148 145 151 152 145 144 152 163 170 172 168 179 197 207 190 163 131 88 46 35 39 37 33 31 33 33 37 34 29 26 24 24 23 22 23 23 28 29 30 31 29 40 55 68 84 88 97 102 105 104 93 89 77 80 76 65 75 99 129 152 162 142 132 112 115 98 96 100 111 111 113 128 120 126 114 91 90 93 88 69 55 55 59 71 77 73 36 36 36 46 76 86 82 86 70 73 86 80 65 50 58 75 91 75 63 59 37 
62 54 63 55 38 41 40 36 32 48 51 41 43 49 25 28 40 43 33 27 29 33 38 42 49 44 35 31 31 24 21 21 25 35 38 38 41 46 53 49 35 31 31 35 40 48 32 30 25 31 53 64 77 74 59 45 42 38 33 25 24 26 28 36 36 33 35 34 34 35 49 66 77 92 107 108 121 133 137 140 143 153 169 187 200 217 230 231 215 198 181 166 152 146 147 142 133 133 131 132 127 122 138 146 145 146 145 154 178 192 201 201 182 171 175 178 189 190 162 151 155 159 157 171 169 159 154 150 167 165 149 137 146 157 154 155 159 149 144 146 149 154 174 193 184 172 162 152 152 161 162 160 167 159 158 160 148 156 166 161 157 164 166 156 154 158 140 142 140 135 141 151 148 157 152 143 138 145 154 142 148 151 157 152 142 147 155 160 170 170 183 209 219 193 166 155 117 84 44 35 35 33 33 34 33 33 31 28 25 23 24 25 25 24 25 23 31 32 29 30 40 57 65 74 86 91 101 105 97 90 84 89 85 76 70 80 96 104 139 147 153 135 128 108 109 104 120 146 160 152 130 130 128 125 91 78 97 96 73 60 56 60 72 81 68 57 43 48 61 80 74 70 72 74 80 79 73 55 58 61 83 87 78 70 69 38 
36 58 73 64 43 42 47 35 35 39 49 35 35 36 23 26 36 42 35 29 37 41 44 45 43 40 36 36 32 25 22 23 28 32 33 33 31 30 46 40 36 36 26 37 40 38 33 32 28 34 45 71 72 69 58 41 33 29 29 28 33 34 39 43 41 37 34 32 34 44 64 85 98 116 133 136 145 161 167 158 156 171 197 213 225 229 222 198 183 167 155 148 146 141 138 131 128 126 127 130 132 135 123 134 141 147 148 151 169 189 203 212 204 184 176 181 174 177 156 142 146 149 160 165 170 167 152 151 160 160 151 150 149 152 151 146 146 148 146 147 159 155 168 167 157 150 148 145 153 166 159 163 171 175 171 162 156 153 149 154 149 150 160 161 159 162 151 147 139 137 139 151 150 151 147 136 135 147 159 149 146 159 157 155 156 150 156 151 153 166 178 188 203 197 174 161 155 118 80 43 33 33 34 35 33 30 29 27 25 22 23 24 25 26 25 26 25 32 33 33 45 67 61 69 79 94 103 107 97 86 83 81 76 69 63 78 92 109 123 145 148 135 122 118 81 101 128 164 172 154 127 100 124 118 91 97 120 115 89 68 73 86 76 72 72 58 50 55 57 64 69 58 67 64 64 74 59 63 66 76 81 76 74 79 83 74 
65 76 76 64 40 41 45 42 33 45 47 31 35 26 23 29 45 52 47 38 39 43 47 48 45 52 53 45 33 25 22 28 33 31 31 33 29 25 32 31 39 44 32 29 34 31 37 34 29 28 46 54 56 64 45 35 34 33 32 38 38 45 49 46 45 42 37 37 41 56 79 101 106 129 150 143 147 168 174 168 178 195 221 236 226 206 177 163 155 151 149 147 144 139 134 125 125 126 129 134 140 149 140 122 133 140 142 144 160 181 198 214 201 188 173 165 163 157 150 155 155 158 163 166 169 165 168 160 159 158 157 161 159 149 142 142 140 141 144 144 151 166 162 165 143 144 147 153 155 168 160 164 181 174 170 165 160 165 159 159 160 149 147 154 160 161 162 156 142 142 143 152 152 152 150 144 140 151 151 153 155 144 147 155 162 160 155 150 158 166 170 177 190 195 191 176 168 150 111 70 41 34 35 37 34 29 27 28 26 24 23 22 23 26 28 27 26 30 33 40 66 83 80 70 80 85 89 90 77 67 65 59 65 56 47 54 73 87 114 130 133 127 117 98 86 105 128 155 168 143 103 88 90 91 88 111 150 132 95 90 90 118 95 74 76 64 39 32 31 57 62 64 67 62 66 55 61 53 47 57 69 54 56 75 79 60 
73 89 74 53 33 31 32 32 45 45 42 37 23 26 24 36 55 66 58 46 41 51 67 68 68 80 83 63 41 28 25 32 41 40 42 42 30 24 25 23 38 52 44 26 20 28 31 29 23 32 46 49 66 59 49 36 42 39 34 36 41 52 54 49 48 47 45 47 58 76 102 119 131 145 161 153 143 152 170 182 199 222 233 224 198 172 150 143 147 146 144 144 139 135 127 124 125 132 129 131 139 146 141 128 123 133 138 139 156 170 193 201 210 193 182 177 174 168 179 182 183 181 176 176 169 179 174 176 171 155 154 163 160 142 146 148 140 146 142 145 162 167 171 162 147 151 156 157 155 160 163 164 168 164 153 150 159 172 173 176 169 153 145 150 158 162 161 159 155 145 146 161 152 146 156 149 146 142 156 155 158 146 142 159 168 162 155 144 154 173 177 181 192 193 187 184 170 167 142 110 65 39 35 39 36 31 29 28 27 26 24 23 22 24 28 30 29 34 39 49 78 99 87 77 80 70 67 69 60 56 48 50 46 46 41 37 64 74 84 119 114 110 107 89 89 100 126 143 134 119 83 66 72 66 69 109 138 112 93 99 107 137 104 89 90 73 39 22 37 50 65 72 79 79 71 61 46 39 35 57 78 70 64 84 94 107 
80 95 65 39 35 23 29 54 49 41 33 19 22 22 29 43 59 70 65 55 51 70 96 94 93 110 111 78 45 32 34 37 44 48 59 57 36 25 24 19 27 51 49 35 22 22 31 28 35 39 49 61 57 60 39 35 47 39 34 33 42 50 51 46 48 50 53 63 82 99 117 139 148 157 171 162 145 150 178 203 226 231 217 197 170 150 142 145 144 141 143 143 134 127 124 125 126 129 131 125 125 139 135 134 131 130 136 141 148 166 191 207 211 207 193 192 197 194 200 200 192 185 181 179 176 173 187 185 171 153 156 155 156 153 160 165 156 157 151 145 164 172 178 164 156 156 163 169 170 167 167 162 165 160 152 153 152 167 175 178 168 159 155 160 160 154 158 159 149 152 150 153 152 146 153 156 149 148 153 160 156 145 140 149 156 152 147 147 156 162 172 186 194 184 187 184 179 173 169 139 96 54 39 42 39 33 31 27 26 26 26 25 24 25 27 28 37 42 45 63 77 91 86 85 78 69 59 63 60 54 56 50 42 37 41 53 62 79 82 95 99 96 96 84 81 109 118 107 106 84 50 50 65 61 68 113 123 82 93 105 116 124 105 87 95 67 40 47 47 70 80 82 89 96 83 58 52 39 37 53 85 75 76 107 115 109 
90 87 63 47 37 45 59 63 57 33 17 17 17 21 29 42 58 63 74 70 68 81 109 105 103 115 106 69 39 38 41 53 45 46 61 51 35 34 31 23 25 38 47 37 31 30 33 46 58 57 57 48 54 46 35 42 51 42 33 40 43 46 45 42 48 61 69 95 117 122 135 148 144 153 158 158 156 172 199 225 230 209 185 162 148 144 145 143 144 137 144 143 136 129 127 126 126 126 126 127 125 132 134 134 134 132 133 138 142 160 189 215 216 216 208 214 216 214 206 204 197 197 197 191 179 183 185 180 174 172 159 166 163 161 170 172 170 174 164 153 164 178 180 188 174 164 168 186 177 180 178 173 173 168 173 160 160 161 161 161 160 162 158 160 157 147 142 144 145 139 136 145 143 140 149 153 147 150 153 154 151 142 143 145 143 141 150 142 143 152 152 172 185 182 193 184 186 188 181 160 126 81 55 47 44 35 32 28 25 28 27 26 26 26 28 31 32 42 51 54 70 75 77 78 81 63 59 61 51 58 58 58 50 38 40 47 68 66 80 91 78 83 92 88 99 99 82 77 69 65 52 48 58 56 86 133 125 83 86 116 113 124 86 96 94 82 65 68 82 86 96 114 104 99 87 62 55 51 48 57 58 56 60 98 118 57 
44 71 54 51 56 58 58 57 31 15 17 19 15 21 28 43 48 61 72 79 75 82 104 107 99 98 86 52 33 36 53 58 71 47 39 38 29 43 41 34 26 26 29 33 31 37 44 58 71 68 54 53 50 46 42 47 51 41 41 44 47 51 44 45 64 83 102 123 145 155 164 168 156 145 150 162 182 211 228 221 199 172 152 142 134 138 143 147 137 135 133 140 136 130 129 127 129 127 127 129 135 130 131 131 131 129 133 132 141 154 191 207 218 221 220 221 225 217 211 210 216 211 207 197 185 186 187 186 188 185 184 174 176 164 161 171 166 183 176 173 174 170 190 190 185 170 165 178 175 180 191 186 180 175 160 166 167 168 159 153 151 157 159 150 150 143 145 139 137 137 136 140 147 144 140 141 144 145 145 148 147 141 145 148 144 151 149 149 147 146 155 155 161 165 183 188 186 201 196 178 148 114 75 56 44 37 32 29 27 27 28 28 28 31 34 32 33 43 39 49 49 53 65 69 64 57 53 53 44 44 48 50 47 40 43 45 49 67 68 79 68 74 89 97 93 74 51 40 52 73 65 60 53 55 85 130 137 93 90 118 134 126 84 95 110 103 92 108 105 98 123 130 134 113 96 74 63 71 68 74 72 50 52 78 103 55 
45 54 52 40 35 39 36 21 11 15 18 17 21 33 44 44 49 50 59 68 66 67 94 110 104 92 76 58 52 49 47 78 77 60 31 22 34 41 46 35 33 26 28 29 37 55 53 50 65 58 54 62 65 59 51 53 53 53 50 51 52 52 51 60 86 110 116 126 144 153 165 170 156 149 163 181 208 231 227 192 161 146 141 139 136 137 148 148 142 131 131 132 132 133 126 134 129 131 128 127 127 130 123 127 132 131 130 131 136 145 174 194 204 215 225 228 227 224 221 221 223 221 216 209 204 206 203 202 198 194 186 187 187 177 171 166 161 167 175 170 168 175 181 195 190 174 170 172 173 179 191 179 169 164 159 159 175 174 168 151 149 156 162 165 160 150 142 140 138 144 141 145 152 146 149 151 152 152 149 144 150 146 148 157 155 156 155 148 148 156 153 165 154 163 187 196 202 209 209 194 175 139 109 72 50 36 32 30 27 28 29 31 33 33 36 36 39 37 41 35 37 46 62 83 68 61 64 54 44 39 37 41 40 42 41 50 58 56 65 65 67 73 93 88 78 54 39 40 53 62 67 60 51 51 67 105 122 107 109 124 148 125 92 101 129 106 115 123 125 135 132 160 154 133 110 79 76 71 65 74 81 81 78 78 95 95 
73 71 69 45 29 33 23 15 12 15 16 21 35 53 57 55 49 49 48 51 55 56 87 116 109 88 69 67 75 70 65 78 83 66 31 30 34 46 40 38 32 32 35 44 58 66 62 48 45 44 49 58 64 67 67 64 67 64 63 58 52 56 69 84 106 122 129 135 141 146 153 156 157 174 196 211 216 216 198 166 144 142 143 141 134 132 141 143 134 131 128 130 134 129 137 136 135 127 127 129 127 125 127 131 131 134 132 128 135 140 149 167 172 187 205 215 224 229 228 230 229 229 226 223 219 217 214 213 213 198 189 195 197 189 181 172 169 165 175 179 182 180 192 202 202 187 170 165 163 181 170 169 163 162 177 184 173 177 168 166 150 157 162 173 165 151 142 132 140 147 146 143 144 140 147 156 168 161 145 149 156 154 162 156 153 151 147 144 140 142 158 156 161 172 192 197 199 206 205 200 190 171 145 109 68 44 35 33 33 31 30 30 29 28 31 38 41 38 36 33 30 35 62 77 78 59 66 61 42 36 39 44 38 38 41 45 52 62 54 61 69 73 83 82 68 56 55 47 42 49 65 65 53 50 62 65 86 103 107 129 146 113 93 120 123 119 103 120 143 137 153 170 151 121 91 80 71 78 64 62 75 90 86 73 76 65 
61 80 83 62 35 37 31 15 13 13 17 25 34 42 46 41 41 43 41 38 49 57 88 106 101 87 68 72 93 88 78 80 74 54 37 30 44 47 58 45 39 45 49 52 57 62 51 40 43 44 45 54 61 72 76 77 73 66 63 61 54 66 87 104 118 131 145 151 150 150 153 166 180 204 215 210 192 173 155 138 137 142 143 140 135 131 140 139 134 132 137 132 130 131 135 145 137 126 133 137 135 127 128 128 129 130 131 134 135 134 144 145 150 159 173 184 195 203 211 218 224 230 233 229 225 224 219 223 222 211 203 206 204 197 190 191 182 190 187 195 190 190 182 187 197 186 167 158 167 172 177 163 167 175 177 188 176 153 162 169 172 151 154 153 164 164 154 145 139 145 147 143 139 135 138 151 166 165 145 145 153 158 158 148 140 144 140 138 137 142 142 149 148 165 173 182 192 194 191 192 189 182 171 139 102 64 43 38 36 33 29 27 25 25 27 39 37 34 27 31 30 34 52 78 63 62 59 57 42 39 40 46 47 42 38 44 52 59 64 71 75 65 69 72 62 68 63 53 41 58 85 85 71 70 65 60 64 90 116 141 142 113 92 108 124 105 111 122 128 130 141 141 122 89 76 69 73 92 75 72 85 73 81 62 64 74 
44 56 69 47 30 40 30 19 16 19 23 27 28 30 32 30 32 38 42 32 36 53 68 83 81 90 90 104 118 101 90 97 67 50 33 35 45 63 71 64 57 64 64 57 48 49 46 48 50 54 62 69 65 67 70 62 58 53 53 64 69 82 110 125 131 144 157 157 149 154 170 189 213 216 211 187 163 146 136 130 135 139 139 140 138 135 137 138 134 136 140 146 145 127 134 143 132 133 135 139 136 126 125 124 129 132 133 134 134 129 130 139 142 147 154 160 165 171 183 188 196 203 210 215 220 228 232 229 228 224 220 219 216 214 207 205 213 205 209 204 206 199 189 182 184 178 169 167 174 173 167 176 175 166 167 178 172 154 154 162 160 153 132 146 156 164 167 148 140 148 148 146 143 134 139 151 165 161 148 141 146 145 145 146 139 139 137 136 139 150 159 158 158 167 169 175 190 204 194 192 199 192 183 161 134 98 60 40 36 34 31 28 26 26 29 34 34 22 21 24 30 36 45 62 61 59 62 56 52 38 44 59 56 51 59 52 50 56 68 74 76 67 66 60 54 49 50 39 40 57 88 92 75 76 84 74 72 95 129 150 144 110 97 100 105 112 118 120 125 126 116 115 84 62 59 50 64 88 86 97 100 100 82 73 60 60 
29 37 44 35 27 37 32 20 21 24 24 26 28 28 29 31 27 46 56 41 31 41 58 68 88 112 119 134 136 108 98 104 88 66 48 49 60 64 86 75 62 71 60 41 36 30 29 29 37 48 60 61 54 48 39 38 36 33 42 69 84 104 133 148 150 151 155 152 143 152 176 199 214 211 192 167 151 142 139 139 139 139 137 137 135 132 134 132 130 129 141 151 154 141 132 136 137 138 134 131 128 126 129 128 124 129 131 128 128 126 127 131 136 140 142 146 151 159 169 177 173 170 174 183 194 206 216 220 221 226 229 232 230 228 224 223 225 222 217 216 210 216 206 200 192 192 192 193 183 179 172 175 183 176 165 169 174 166 156 166 158 161 153 143 152 148 147 141 144 158 160 154 151 141 138 138 149 144 142 147 140 132 141 144 157 150 144 143 148 154 166 178 189 190 189 194 200 210 202 203 211 208 192 179 160 135 88 51 36 34 33 29 27 27 30 30 28 20 21 27 34 37 43 47 57 56 69 60 57 47 51 73 77 69 71 64 48 58 69 73 84 88 76 60 47 37 40 40 44 64 90 82 74 78 82 82 83 100 121 143 130 94 88 96 106 117 131 140 130 132 127 107 76 62 54 57 67 97 106 120 145 126 107 85 62 46 
41 34 34 27 25 40 33 22 23 24 23 27 30 26 30 26 28 50 62 47 36 44 59 77 90 113 112 114 115 98 78 95 90 85 76 68 61 81 83 65 47 41 35 27 22 20 23 31 44 44 41 38 31 26 27 25 29 32 51 84 107 131 149 159 157 148 150 154 155 172 193 204 197 189 165 150 143 142 142 141 139 138 134 133 133 132 134 131 131 128 129 142 156 138 135 139 143 142 138 131 133 135 136 133 128 128 126 128 133 133 134 135 135 134 135 139 144 149 158 162 156 153 158 165 174 179 182 185 187 199 211 223 228 230 232 234 230 228 228 224 223 223 224 215 212 208 209 207 201 184 186 189 192 195 178 173 176 167 163 156 171 168 168 164 149 145 140 147 156 174 171 154 152 145 137 136 136 144 152 157 149 145 138 162 176 172 166 158 161 160 161 180 181 199 200 200 206 204 196 195 204 206 201 178 168 151 122 74 43 34 33 30 27 28 30 30 23 24 21 24 27 28 33 45 41 60 65 70 63 56 58 78 86 90 81 72 61 66 72 73 97 107 92 67 47 55 51 60 68 81 96 88 77 73 75 81 86 90 107 132 112 94 87 95 108 120 153 152 153 152 142 120 95 74 71 77 91 117 130 160 153 129 102 74 56 27 
29 24 24 20 25 44 42 23 21 25 27 31 42 29 24 31 37 44 53 44 43 55 69 71 91 104 97 95 101 98 83 63 71 80 70 60 83 81 86 59 28 26 22 22 25 31 40 55 58 49 33 23 22 24 24 24 32 46 70 103 138 155 158 157 147 145 150 156 174 192 203 195 175 154 148 137 136 137 139 139 135 136 137 133 131 137 134 135 131 127 128 139 156 141 131 137 133 136 131 133 135 134 135 130 129 132 131 129 132 138 143 143 134 132 129 135 141 144 146 144 149 143 143 157 159 161 166 162 159 167 180 196 202 209 221 222 222 225 229 234 232 232 231 228 222 220 215 211 206 204 203 201 200 194 186 181 183 180 163 161 153 171 175 178 165 138 142 144 159 173 164 150 152 147 140 139 141 146 157 166 160 152 155 162 176 176 163 166 173 176 180 181 187 191 203 218 213 220 202 187 184 187 194 185 169 169 146 110 65 40 34 31 27 29 29 24 23 21 22 20 20 24 35 41 43 51 66 67 70 59 55 62 65 78 87 75 78 78 58 60 87 105 98 82 83 88 96 80 80 90 86 79 76 80 73 84 84 81 98 124 120 99 98 103 104 125 153 175 162 153 136 111 90 76 84 94 107 132 161 159 131 91 62 69 53 27 
21 17 17 16 25 48 46 24 23 30 39 50 55 38 23 26 31 35 37 40 55 69 70 67 81 104 105 91 91 102 88 54 57 80 86 82 80 88 76 49 29 26 26 28 34 38 42 44 44 30 22 26 27 25 26 28 43 61 92 126 155 174 169 153 149 145 147 170 186 204 202 173 154 145 138 133 133 136 137 135 135 139 137 135 136 136 141 140 135 130 127 138 163 150 137 138 140 147 138 126 129 128 128 127 124 133 133 129 134 136 144 147 138 130 129 129 133 140 135 142 145 144 143 141 149 158 159 158 149 155 165 168 176 186 198 199 192 200 210 216 223 228 234 234 234 229 226 221 219 221 219 217 208 199 191 190 206 198 189 177 176 173 187 189 166 147 149 143 148 162 152 146 152 147 144 143 148 151 166 172 162 167 158 164 170 163 164 162 168 182 198 208 201 208 218 213 232 238 222 196 168 171 178 191 192 182 173 138 97 56 37 31 29 26 28 24 20 23 24 23 24 31 39 41 37 44 56 58 61 56 65 60 53 72 77 76 83 68 51 48 78 95 96 102 99 115 112 95 94 94 92 79 79 76 85 81 74 68 85 112 110 114 110 111 119 119 143 146 136 129 102 83 63 64 76 89 98 124 156 134 86 48 57 67 54 38 
17 13 14 14 19 39 40 24 21 34 45 69 76 53 29 30 37 35 37 52 68 73 69 61 74 113 113 83 80 92 78 52 65 92 91 80 70 54 54 48 32 28 24 27 31 31 30 26 22 23 29 30 30 29 27 43 66 88 116 137 154 163 152 152 147 145 160 185 205 200 182 163 142 143 138 136 141 140 138 137 137 141 140 138 135 136 139 140 138 136 130 137 159 151 134 134 157 158 146 131 120 125 130 127 130 132 136 136 132 127 132 132 132 134 132 129 133 147 150 150 155 149 141 141 142 150 151 145 147 150 149 157 154 166 186 181 172 176 179 186 188 201 209 218 219 227 227 227 232 228 229 227 219 213 206 209 210 210 203 202 203 198 195 197 181 173 169 163 152 156 159 154 160 149 141 145 146 151 164 176 171 170 172 178 181 181 174 174 177 183 205 212 213 214 203 215 221 241 243 218 190 164 170 179 189 190 173 160 125 82 48 31 26 28 24 23 23 24 27 28 27 31 34 33 27 34 44 53 56 52 71 74 60 58 66 61 53 57 46 52 78 83 106 105 94 93 98 101 111 125 114 87 84 72 75 86 67 66 70 90 106 113 120 122 121 124 112 118 112 101 92 64 41 57 80 84 93 111 126 101 55 50 67 60 55 63 
17 14 14 14 15 25 31 21 20 29 52 71 87 67 46 39 50 48 45 63 73 78 74 58 86 132 121 90 76 80 65 55 62 73 71 61 41 35 49 43 26 21 20 26 30 31 29 27 23 24 28 30 27 26 36 58 87 112 138 151 147 142 144 141 145 158 178 198 198 181 160 146 141 138 138 143 145 145 139 136 141 144 143 145 143 138 136 139 133 135 136 139 145 142 132 141 144 162 148 135 135 125 130 136 133 144 134 133 136 127 121 128 130 135 134 129 132 150 157 151 152 145 139 144 146 147 142 137 139 144 146 147 148 154 164 160 152 156 165 169 174 175 181 181 188 193 203 209 217 228 229 235 234 230 227 225 221 215 211 208 210 207 201 199 194 198 199 177 173 170 167 172 175 159 152 152 145 147 161 175 176 180 178 183 186 188 186 189 194 204 215 219 218 210 219 208 214 229 242 240 213 183 161 164 174 187 183 173 152 112 69 41 27 26 26 24 25 28 30 30 28 27 32 29 24 25 31 44 62 63 65 74 53 62 57 49 42 47 49 61 71 92 102 100 74 67 85 120 135 149 134 107 85 68 72 83 85 68 62 80 113 125 122 122 133 104 96 93 86 81 75 48 38 67 93 96 108 108 111 74 50 61 67 58 35 65 
21 19 19 16 17 22 23 18 20 32 51 74 78 67 46 44 47 44 52 59 73 82 85 72 104 140 131 93 82 70 69 59 57 50 48 46 36 34 40 32 19 19 21 26 29 30 33 33 27 25 29 29 25 30 45 64 102 129 141 147 149 142 138 148 159 180 195 201 178 156 146 137 134 134 132 140 144 142 147 143 147 152 153 157 154 147 147 141 136 135 141 140 137 134 135 135 148 144 152 157 148 145 136 143 150 149 141 131 134 129 134 137 136 133 130 125 127 138 140 142 139 139 144 148 145 142 132 132 136 140 146 151 153 150 151 148 141 147 155 160 163 157 164 162 163 169 173 179 189 197 207 216 224 226 232 234 233 229 228 222 221 218 214 209 210 214 213 208 200 198 188 186 189 178 169 172 170 162 165 172 180 185 171 177 187 193 194 203 206 212 219 214 218 223 206 206 197 201 222 243 233 207 172 155 167 180 192 183 167 136 99 58 34 28 28 28 28 27 28 28 26 27 30 33 25 21 23 36 67 77 70 70 69 73 92 66 52 58 53 51 77 85 83 79 77 79 102 119 134 139 141 118 111 82 70 83 92 80 51 56 99 111 100 110 105 86 68 69 65 57 59 54 55 82 100 95 113 112 110 79 58 58 59 33 33 56 
11 19 22 21 18 21 24 28 36 54 72 78 64 56 45 41 45 47 50 52 56 71 87 86 102 137 109 86 71 64 62 71 51 37 39 39 30 30 34 23 19 21 24 28 26 25 30 34 31 31 34 29 27 45 66 89 122 151 160 148 146 151 149 153 176 191 195 183 165 146 137 137 131 132 132 134 135 140 152 153 151 154 154 156 151 145 143 143 141 140 147 147 139 134 135 136 131 142 146 156 157 142 154 149 142 143 135 126 130 134 136 141 136 133 131 129 131 133 131 128 138 136 136 144 138 131 129 126 132 136 137 146 144 139 142 140 142 146 148 152 148 153 160 163 155 155 155 160 168 172 179 188 190 198 207 219 221 227 230 231 233 232 230 225 224 223 223 220 221 212 205 205 209 195 191 196 192 186 180 180 189 187 177 181 188 203 203 205 211 218 213 217 217 206 194 172 168 177 194 224 241 225 194 164 161 175 182 189 175 153 126 84 48 30 29 30 28 26 28 30 29 28 33 34 27 23 24 32 60 78 77 84 78 94 111 83 65 69 62 52 73 84 73 84 130 127 113 109 103 120 149 137 136 113 82 80 90 83 46 48 71 74 74 71 72 64 63 77 70 75 77 82 86 107 99 93 109 116 110 95 78 76 46 28 30 30 
20 23 22 19 32 37 32 41 60 79 96 90 66 44 43 45 53 57 51 50 44 54 75 93 105 107 96 87 68 39 52 52 35 31 35 35 29 34 31 20 21 22 25 27 25 25 27 32 32 34 34 30 37 63 88 101 134 158 154 148 147 147 150 166 180 186 179 164 152 144 137 134 135 133 138 137 132 139 150 143 137 139 140 140 137 136 137 139 137 136 140 142 137 139 143 141 142 146 152 146 141 149 158 157 141 143 129 130 134 131 132 131 128 131 134 136 139 137 134 142 148 146 140 137 133 133 132 131 131 135 139 141 142 137 133 137 140 143 147 147 148 152 163 163 160 156 154 154 153 155 159 170 173 178 187 194 194 197 203 211 220 225 228 232 232 233 231 230 228 223 220 219 221 211 206 208 205 203 205 205 207 204 200 206 210 216 214 218 220 223 222 208 201 189 166 150 153 160 175 194 225 239 216 185 162 162 168 184 182 166 146 115 72 38 27 28 28 28 33 36 34 32 33 33 26 26 33 38 53 69 85 101 87 98 114 94 68 84 77 66 79 92 86 116 152 144 110 95 99 143 157 143 139 124 105 86 90 85 72 68 73 74 66 67 71 70 83 86 87 88 94 94 99 107 116 99 125 112 98 87 95 81 47 31 31 32 
37 25 20 38 56 44 34 31 44 79 95 96 76 57 38 57 61 49 49 47 47 41 76 102 102 94 92 87 61 39 47 45 29 28 30 31 29 36 29 21 24 25 26 28 26 26 28 29 30 29 30 41 60 83 104 121 133 150 150 145 148 147 156 177 196 183 160 151 142 139 134 134 132 139 140 137 136 137 148 141 134 139 145 143 134 132 134 134 136 139 143 141 138 141 143 150 151 144 144 140 131 137 150 156 146 145 147 132 139 136 134 133 133 133 139 146 145 140 137 142 151 149 140 138 138 138 139 134 137 140 146 144 144 137 139 139 138 136 142 142 148 144 152 149 150 159 150 146 147 143 155 163 163 163 171 172 173 170 175 180 189 195 201 215 223 231 233 234 231 231 229 229 226 224 218 217 214 211 217 214 210 212 209 217 215 217 221 225 226 229 215 197 179 162 153 147 145 155 157 173 198 229 233 196 165 142 155 180 186 176 165 143 105 59 30 28 29 30 33 35 34 32 32 29 23 24 33 43 52 67 88 128 104 97 132 120 97 96 101 84 99 115 109 127 143 115 98 87 87 103 130 110 101 107 106 106 97 85 81 80 78 67 71 79 67 66 76 78 83 95 93 87 77 99 112 119 137 122 84 76 87 80 47 31 31 39 
30 21 32 54 54 46 21 22 42 62 80 82 75 64 57 70 72 54 40 60 58 46 81 109 98 89 75 70 43 44 48 44 28 23 27 27 32 34 33 29 30 28 31 30 28 29 30 32 30 27 37 58 76 103 124 134 156 149 145 147 149 151 173 196 201 185 160 143 142 138 139 135 133 136 139 134 130 138 145 149 144 150 152 145 136 130 132 133 134 141 145 139 137 137 143 159 154 144 140 138 133 131 146 141 141 149 143 144 143 143 140 147 145 138 140 145 148 143 139 139 144 138 137 142 146 145 138 135 137 141 143 148 147 149 141 145 144 135 136 141 141 144 142 142 146 154 157 150 150 149 158 158 149 150 154 161 163 167 166 166 167 171 177 191 206 211 215 220 226 227 227 228 231 234 233 231 226 224 225 221 215 214 217 217 216 217 224 230 226 220 207 188 162 150 147 142 145 148 154 160 176 210 230 214 173 151 155 177 187 183 175 162 136 87 46 29 29 30 31 31 31 28 28 25 23 22 27 40 49 70 95 126 124 117 138 149 122 95 97 107 124 149 143 128 120 100 111 106 73 72 86 76 68 72 83 92 86 67 55 65 65 68 75 80 84 57 58 64 69 83 81 74 67 90 110 122 156 119 79 78 76 63 45 36 26 26 
18 26 41 48 48 27 30 34 35 60 57 55 59 57 64 86 80 55 53 69 57 56 75 96 82 65 59 41 39 39 47 31 22 25 22 32 31 34 34 29 34 32 30 32 29 27 28 30 30 31 49 65 86 111 149 173 165 155 145 143 150 164 182 186 183 165 149 140 135 138 139 138 135 134 135 133 133 131 144 152 156 151 147 141 138 137 143 137 138 141 142 139 140 137 142 159 158 136 136 139 134 140 149 154 138 137 142 148 153 148 149 152 154 145 142 147 142 145 146 146 141 137 135 145 155 152 142 139 138 136 143 150 154 151 149 146 144 141 135 135 135 136 137 131 139 151 148 155 157 157 161 159 147 141 146 150 157 161 162 158 160 160 163 175 181 186 188 197 204 204 200 200 212 225 231 230 233 233 234 230 229 228 225 228 228 232 235 225 211 201 183 173 162 145 140 141 144 147 151 154 162 186 222 229 200 175 156 170 182 173 176 167 153 120 71 36 32 32 31 31 27 26 25 26 26 29 27 32 60 76 77 107 125 125 148 154 122 84 86 104 151 180 161 149 113 85 107 117 87 68 71 70 63 58 63 74 71 46 40 48 59 57 58 76 75 80 65 52 54 58 76 75 78 82 97 119 152 114 85 89 77 52 46 50 40 15 
28 44 46 47 33 39 48 46 51 61 63 59 47 53 64 91 81 59 55 54 59 51 67 69 56 44 34 36 31 35 27 20 27 22 26 33 31 32 27 28 31 30 31 30 26 26 27 26 26 45 62 73 89 129 169 181 178 152 143 147 164 178 192 178 158 150 142 141 143 142 142 135 132 131 132 133 133 135 139 148 154 149 137 138 147 148 145 145 136 142 141 137 141 139 138 149 148 136 136 137 129 134 150 150 140 133 138 147 158 145 147 147 155 157 151 152 145 148 146 143 147 141 140 150 156 152 145 140 140 135 140 148 147 146 140 148 153 142 135 131 129 132 133 137 134 139 142 135 149 156 163 158 155 149 147 147 148 150 150 149 150 154 149 153 160 158 159 167 176 174 168 167 178 192 200 203 210 219 226 232 232 230 231 231 231 231 223 205 187 172 164 157 155 145 134 141 143 142 142 145 148 163 196 220 227 194 168 166 169 172 157 165 160 140 96 53 33 33 32 29 27 25 26 26 28 29 32 34 61 83 74 87 106 133 145 141 112 82 82 96 130 158 169 161 124 90 95 112 104 77 76 75 72 63 61 72 69 50 33 40 45 41 36 41 76 83 81 69 58 77 92 102 85 96 92 112 137 108 113 122 98 53 59 72 66 77 
67 60 52 42 41 54 53 48 48 68 65 66 58 51 75 99 79 62 48 48 51 57 56 56 44 31 30 34 30 23 18 23 27 29 28 31 32 27 26 31 30 27 30 30 25 27 28 29 38 63 81 92 106 124 153 166 157 150 146 153 168 189 185 168 153 144 149 162 166 161 146 136 135 133 131 135 137 143 148 144 147 143 136 139 145 141 142 142 142 147 148 142 141 139 135 141 138 133 135 136 130 130 134 142 140 135 132 141 144 151 149 153 156 163 163 155 159 155 150 145 149 149 147 147 149 146 140 143 142 139 144 148 141 137 138 140 145 143 136 131 133 132 142 142 145 146 143 140 150 159 157 150 147 146 145 145 142 139 136 139 143 146 145 145 147 147 142 148 157 157 152 152 159 166 169 170 174 181 192 206 214 218 222 226 218 204 195 177 160 156 144 144 141 138 133 133 136 133 137 140 141 152 170 204 220 217 170 158 163 154 164 161 163 153 123 76 41 31 32 29 28 26 24 25 25 38 47 34 58 78 73 78 109 125 138 121 100 75 74 77 89 127 155 155 127 89 86 98 97 86 77 89 77 66 62 67 74 68 44 32 40 37 34 43 77 98 102 95 96 104 109 104 94 101 125 130 128 112 147 161 116 64 62 84 75 91 
62 61 48 43 51 64 58 47 51 72 76 80 72 67 90 100 81 58 46 37 39 46 42 48 36 25 28 28 26 20 21 27 35 37 34 32 27 25 29 34 33 27 34 38 29 29 34 37 52 76 93 111 139 143 141 153 161 152 153 158 180 180 166 153 144 145 156 169 166 154 143 135 141 139 136 137 142 152 144 138 136 139 137 138 143 136 138 141 143 146 148 140 137 138 138 136 134 131 133 137 134 133 135 136 141 144 137 135 149 154 160 155 157 156 151 155 151 157 151 148 158 156 151 150 149 144 147 149 149 143 138 139 135 135 132 134 139 140 143 142 132 136 140 145 145 148 147 145 148 154 148 142 141 142 140 141 139 136 136 134 140 140 143 141 139 140 138 142 150 149 148 149 151 153 158 159 158 157 166 176 182 184 192 198 187 177 165 156 152 146 138 135 139 135 130 131 132 129 134 151 152 148 164 183 220 221 195 161 155 158 164 165 165 162 147 108 60 33 30 28 27 27 26 25 30 43 71 53 54 74 67 82 103 113 119 104 83 69 62 61 78 120 149 137 103 92 90 89 96 85 76 86 77 54 58 60 80 83 63 46 41 47 38 57 74 89 110 115 108 102 106 76 65 94 134 142 123 111 152 163 124 71 68 81 72 58 
67 60 42 40 52 77 68 47 55 84 98 95 84 89 96 90 68 52 41 28 30 28 39 48 32 26 26 26 23 24 24 27 37 42 37 31 29 29 27 34 29 24 33 40 32 30 31 39 51 71 88 121 152 156 146 149 156 159 160 174 180 176 155 138 135 141 150 151 143 138 131 132 141 135 131 138 140 143 145 134 137 141 143 143 145 143 142 145 140 141 144 137 137 143 142 138 136 135 133 137 138 141 145 147 153 150 143 135 141 149 155 148 144 152 143 141 142 145 142 150 155 158 158 152 150 147 145 151 158 155 145 141 136 134 135 138 139 146 149 149 141 134 139 141 141 144 148 140 142 142 143 141 144 141 137 136 138 140 139 140 139 143 153 152 143 141 140 136 139 140 139 139 142 144 147 150 150 152 159 159 158 156 165 169 168 156 156 153 144 147 143 135 135 135 129 128 130 135 146 162 169 149 149 169 194 220 216 186 156 166 163 168 171 172 160 132 86 43 29 26 24 26 25 27 23 45 69 55 57 66 70 71 90 97 110 90 86 63 57 69 80 107 132 116 86 96 96 90 95 95 75 78 62 52 68 59 75 82 55 37 47 50 54 58 71 87 121 122 115 113 93 63 44 68 115 152 128 101 139 142 109 68 58 73 64 55 
75 57 34 38 60 92 91 68 67 102 111 101 94 96 97 78 53 49 34 30 25 28 46 53 37 27 27 26 28 29 26 26 33 45 40 31 36 34 31 29 27 25 32 37 32 31 31 52 69 80 95 131 162 166 156 144 151 154 167 173 176 164 151 143 134 135 139 135 129 133 132 136 145 144 141 137 136 141 142 140 144 145 142 142 142 144 139 142 139 140 146 144 147 150 147 137 139 142 136 137 140 144 152 158 157 162 149 142 141 147 147 145 154 152 149 141 141 143 146 146 152 152 157 155 150 144 147 153 160 164 164 166 154 138 133 136 140 138 147 147 144 145 145 139 140 143 143 140 140 141 141 142 138 138 135 133 135 140 139 138 141 142 151 153 146 145 143 140 137 138 137 134 135 140 144 143 146 154 159 154 148 147 150 160 159 161 159 157 154 153 148 149 140 134 129 131 134 136 144 164 163 145 141 150 170 199 218 209 174 157 166 164 183 180 160 150 111 61 32 26 25 25 26 28 26 35 65 56 48 66 66 72 81 98 106 102 95 82 79 88 81 84 103 109 97 90 86 84 95 105 89 64 45 43 71 66 66 83 36 31 45 59 53 70 76 93 121 122 120 110 82 54 43 57 98 125 134 126 141 137 104 79 62 68 56 43 
89 56 42 49 77 97 95 87 92 108 108 97 88 88 90 74 59 46 34 31 33 31 39 45 34 26 29 27 32 29 26 24 34 45 50 38 35 38 31 34 34 32 32 35 35 43 59 83 100 102 120 145 167 171 161 153 147 157 167 173 162 155 154 146 142 137 135 133 130 134 134 139 151 157 158 148 137 137 135 141 139 143 147 148 141 144 145 144 143 137 145 155 158 154 149 141 146 150 140 140 141 141 145 148 154 155 159 147 143 145 135 135 151 162 149 143 145 151 151 153 151 147 153 152 149 152 159 161 159 162 170 181 170 147 137 139 137 139 144 146 153 148 149 145 135 137 136 137 138 144 141 135 132 135 136 131 132 136 137 137 141 133 137 138 131 137 143 142 138 141 138 135 141 149 144 139 139 149 156 148 140 140 144 147 149 151 160 162 151 152 153 146 141 133 133 129 133 133 130 138 148 136 142 150 160 186 215 214 190 155 148 155 180 167 155 153 134 84 43 30 28 25 24 26 29 36 65 73 55 57 72 74 73 82 104 96 102 106 109 100 79 69 100 129 107 80 77 73 91 112 91 75 41 44 79 62 71 82 63 49 73 83 77 79 84 90 102 96 104 96 63 53 66 77 82 106 130 128 145 136 108 85 74 66 62 26 
72 51 44 70 91 86 80 93 102 104 100 86 74 76 84 77 64 43 37 38 42 38 33 35 29 31 29 35 31 28 27 27 30 44 47 48 41 36 43 40 46 48 41 42 48 61 78 92 96 104 127 153 158 160 153 144 154 161 167 166 159 152 149 146 140 139 138 136 135 135 135 135 140 154 156 152 142 137 139 137 138 142 149 150 150 149 150 156 150 136 143 161 172 168 150 153 156 157 150 142 141 142 148 141 142 149 150 152 147 142 141 147 158 167 164 154 147 154 155 152 149 147 147 142 145 147 158 157 151 149 157 167 162 145 140 141 143 138 140 150 156 157 151 146 141 135 135 141 144 140 140 134 133 135 137 132 133 140 139 138 138 135 133 130 134 136 144 143 137 137 137 138 149 151 149 138 143 141 148 146 140 137 144 141 142 145 145 155 149 143 143 147 139 134 135 137 129 129 126 126 130 133 135 145 169 192 208 223 201 167 141 155 169 159 150 158 147 106 60 34 30 27 25 26 27 32 58 74 61 59 73 73 70 69 90 79 99 139 107 91 74 72 129 156 100 73 66 81 86 93 93 85 59 50 90 60 52 95 102 85 114 125 114 111 111 101 79 79 88 76 69 62 80 95 103 114 131 148 134 141 113 81 57 68 69 68 
57 42 35 74 94 70 67 86 94 95 81 70 67 64 71 70 52 41 37 42 42 34 32 28 33 33 35 34 38 34 28 31 27 29 44 44 47 49 47 55 61 59 56 51 49 66 68 70 87 97 121 147 160 149 149 154 163 171 170 159 156 147 140 138 144 137 141 139 133 138 144 139 146 150 149 141 139 147 141 140 137 133 147 153 142 144 146 150 152 142 137 163 176 174 170 154 158 157 148 150 146 154 154 147 138 142 147 146 144 146 147 150 160 165 173 167 153 156 156 150 153 149 144 145 140 146 154 160 150 146 147 151 150 146 149 149 144 143 139 145 155 156 151 151 145 142 148 157 152 148 142 139 140 139 140 139 144 146 151 148 144 142 144 140 140 141 142 143 137 138 140 141 147 151 147 151 147 146 144 142 141 143 140 140 138 138 146 147 140 140 139 138 136 133 135 137 136 128 126 122 123 124 130 138 168 191 198 219 226 185 152 152 156 153 157 166 158 125 79 39 30 27 26 28 27 27 48 61 55 58 67 76 76 77 88 79 112 136 114 66 40 63 118 138 94 71 89 96 93 90 89 94 71 66 92 71 50 110 122 130 132 140 122 121 123 114 97 86 91 76 73 70 71 90 108 108 127 137 152 159 136 88 52 55 81 73 
82 42 41 74 94 60 53 73 78 72 67 62 59 60 63 45 34 37 41 37 38 30 25 35 37 36 37 39 41 38 36 27 28 29 35 41 43 48 57 57 57 56 53 51 62 76 76 79 94 114 130 150 165 172 162 167 175 176 169 158 149 144 131 137 139 142 136 136 135 144 141 145 146 151 140 135 141 148 149 142 140 143 152 154 143 137 137 151 160 151 149 148 165 170 176 167 153 152 154 149 151 164 163 147 142 136 143 140 143 140 144 149 147 154 166 164 153 150 151 150 148 151 150 144 147 152 159 159 157 148 145 148 151 156 159 151 146 141 141 138 146 145 149 152 154 149 154 158 155 149 149 148 146 144 144 145 140 143 142 146 144 146 147 142 144 142 138 144 142 146 143 148 150 139 143 148 154 144 140 143 145 145 141 139 138 143 147 147 141 134 132 135 130 126 129 144 141 135 126 121 125 130 137 143 156 171 174 197 229 205 164 150 155 163 177 173 161 144 101 55 30 29 27 28 28 36 45 51 44 54 61 67 65 75 84 72 91 119 79 47 39 51 103 113 79 92 105 104 98 106 84 93 78 62 93 91 77 101 131 141 150 133 130 124 129 128 117 111 105 91 83 91 103 104 100 82 90 126 132 153 135 88 54 55 78 85 
92 47 48 78 87 52 55 66 61 70 66 71 69 68 65 40 41 40 41 42 40 33 31 36 43 43 41 38 40 42 39 35 35 40 42 41 42 49 56 51 47 47 52 54 72 94 84 80 109 123 142 161 167 169 172 176 175 165 151 143 143 136 143 140 144 138 139 135 138 141 143 133 139 142 141 136 138 146 141 144 143 145 151 152 143 139 141 152 156 164 161 161 152 173 176 168 160 158 159 152 149 161 161 157 151 141 139 146 145 146 144 145 145 149 162 161 146 153 147 145 153 151 149 145 145 146 150 152 148 146 146 147 152 154 154 150 149 142 146 152 148 145 148 154 157 157 151 156 149 153 153 147 147 144 146 147 145 130 135 132 138 143 139 134 138 139 136 140 140 137 141 145 151 141 147 144 150 142 143 143 150 144 144 141 140 141 142 143 134 135 137 132 133 125 133 146 148 135 130 127 130 142 142 143 149 150 153 180 208 212 188 165 164 175 184 173 157 150 125 75 36 27 29 29 28 37 44 36 39 60 68 65 64 63 72 70 76 83 52 64 66 79 111 109 88 115 115 107 123 119 100 90 71 76 88 110 112 102 118 135 143 148 133 137 130 123 110 115 105 89 88 104 112 102 79 57 69 103 120 116 112 86 59 52 69 91 
57 49 75 88 76 67 61 62 61 65 89 90 87 75 62 47 38 42 36 34 40 34 31 40 39 41 45 43 39 43 47 41 44 53 52 47 46 52 52 49 43 48 54 59 72 96 85 89 114 144 162 161 164 161 173 187 178 156 145 135 140 144 149 151 144 141 142 148 143 145 143 140 137 141 151 145 139 142 135 136 140 133 138 143 139 140 151 150 150 156 166 168 172 166 180 162 161 162 166 157 147 156 158 158 156 146 147 141 145 146 142 145 149 158 167 168 155 156 154 150 154 152 147 145 145 148 148 146 149 145 145 151 155 149 152 152 150 156 164 177 176 160 150 156 158 159 160 157 154 156 156 146 144 142 148 155 148 142 137 143 157 163 151 137 134 136 140 142 141 136 131 140 147 149 144 153 142 147 144 149 146 140 135 144 138 130 136 135 137 135 134 136 134 134 135 149 142 138 136 135 144 146 144 142 142 150 161 169 190 207 209 181 162 174 167 167 167 157 144 96 49 28 30 29 32 35 39 29 43 61 70 66 59 59 65 59 70 64 68 78 84 95 115 106 115 136 131 118 120 117 89 84 83 72 98 124 136 113 105 129 139 137 161 130 117 119 121 115 102 92 96 110 117 96 67 53 66 94 110 126 105 86 67 53 49 42 
30 65 104 98 92 71 63 53 41 66 96 105 86 68 54 31 30 36 31 29 36 38 39 38 37 38 42 47 50 51 51 49 53 60 57 49 43 47 51 45 50 52 69 74 88 94 102 109 133 150 168 168 151 159 171 184 172 154 143 143 148 152 155 149 140 141 142 150 148 148 150 147 139 147 156 151 151 151 141 135 137 136 138 136 138 146 150 158 149 146 150 164 169 181 178 170 156 158 162 162 157 156 153 151 151 145 146 141 139 137 143 146 150 160 174 164 156 157 153 154 157 153 150 151 151 149 144 149 145 143 145 148 157 155 150 158 164 157 168 181 174 156 150 151 152 151 151 147 145 147 146 145 139 140 142 154 152 139 142 150 170 177 167 153 140 135 138 142 145 142 134 136 148 141 146 136 142 147 151 155 148 133 141 144 138 136 130 134 140 137 133 129 133 129 133 132 134 130 133 133 141 140 140 141 140 146 156 159 166 192 210 197 171 166 167 178 178 163 151 119 65 35 31 31 32 37 35 36 49 56 52 45 47 57 59 60 75 74 68 78 78 77 92 102 116 138 125 101 100 85 75 95 88 87 101 122 141 119 98 121 128 138 132 118 87 86 113 106 89 90 101 100 90 70 48 30 33 63 100 124 114 81 66 59 44 50 
24 68 109 101 92 71 50 34 39 76 104 98 88 62 42 29 33 33 31 30 32 38 42 41 38 37 37 45 54 58 56 50 51 52 48 44 44 51 50 51 48 60 80 114 114 124 133 134 142 162 167 166 160 161 173 179 169 156 140 142 155 155 154 147 140 137 141 145 149 151 156 148 137 143 152 146 151 158 147 138 138 140 141 140 134 133 146 146 146 143 141 148 160 165 182 170 160 152 151 156 154 155 160 159 149 144 141 140 135 142 145 147 150 146 153 155 148 154 149 149 156 152 151 153 152 145 149 147 150 148 152 159 164 162 165 164 159 154 154 152 151 142 147 148 151 152 147 146 140 143 143 138 139 135 147 147 148 146 146 153 164 167 160 157 145 137 137 139 143 144 142 141 149 139 135 137 137 147 163 159 161 148 142 144 148 156 140 141 143 148 139 135 131 134 126 126 125 129 131 132 134 135 134 138 134 131 139 148 156 177 210 197 168 165 170 198 196 171 157 135 83 43 32 35 32 38 37 42 52 51 37 38 43 54 65 72 75 69 57 71 66 71 90 94 131 132 114 94 83 61 69 95 91 100 98 120 140 132 114 128 118 107 113 86 74 62 77 84 70 83 86 74 59 51 40 29 22 29 74 107 107 75 66 66 47 38 
20 55 83 82 77 61 35 32 56 93 102 90 66 53 37 35 40 47 39 34 38 37 40 38 36 35 29 30 37 39 38 32 30 30 31 37 47 60 54 46 44 43 79 111 133 149 161 163 158 172 171 161 157 160 169 174 168 154 146 137 148 155 145 138 140 138 132 140 138 145 144 138 138 142 147 140 142 151 145 141 141 147 149 151 144 137 140 148 147 143 144 141 143 152 167 171 159 146 142 145 148 156 165 167 160 144 142 142 146 148 153 158 147 149 146 152 155 155 149 148 154 155 159 154 152 150 148 151 146 147 154 158 162 166 172 172 166 155 151 151 145 148 144 148 151 154 157 150 151 150 147 145 140 143 145 148 142 140 147 155 160 159 151 152 145 139 141 139 139 147 140 145 144 152 148 147 145 148 145 155 155 152 145 144 167 178 170 156 152 144 140 136 139 147 144 129 134 133 135 136 137 130 133 139 138 141 138 153 154 170 206 208 174 154 169 188 198 177 162 143 102 53 34 31 35 34 35 49 52 40 40 40 41 55 69 68 74 58 62 75 87 93 91 112 133 138 122 114 79 51 64 94 105 100 99 100 141 146 147 150 133 94 92 91 70 70 81 76 61 80 73 61 55 56 42 31 31 34 59 91 95 78 70 80 69 44 
40 43 50 48 55 38 32 42 76 96 89 65 52 34 29 32 51 52 47 39 38 41 40 33 32 37 30 28 26 28 28 27 22 21 24 33 46 58 56 45 42 46 59 95 124 137 161 153 166 172 168 155 158 161 164 162 152 148 138 140 144 143 140 135 137 137 132 131 139 138 137 137 143 146 143 143 141 151 150 143 142 147 158 163 159 149 151 153 148 147 136 143 146 148 163 165 158 148 141 145 147 149 156 158 153 150 145 143 142 144 150 152 145 139 146 149 155 152 146 145 145 154 156 155 155 156 157 145 141 141 146 152 158 167 175 176 170 165 165 157 158 154 147 137 143 157 151 152 156 158 151 145 139 140 147 142 138 140 143 145 151 147 146 148 145 146 148 145 144 141 142 136 151 158 169 165 148 144 141 138 151 155 158 159 158 171 157 151 150 145 135 142 146 159 163 146 137 136 135 133 132 130 130 138 147 148 150 147 153 159 198 222 187 156 149 166 176 173 167 154 117 69 36 33 32 30 32 47 50 40 34 38 51 62 80 76 74 64 64 87 115 113 115 116 126 124 136 125 90 59 78 109 127 122 93 87 113 132 139 161 138 102 88 66 64 68 84 77 67 78 74 64 66 57 41 38 37 43 52 64 73 69 67 89 82 62 
40 34 34 34 32 35 42 64 77 82 61 52 44 30 26 32 45 58 53 41 41 48 53 38 34 42 42 38 31 28 34 28 25 28 29 35 48 58 54 49 46 53 66 97 129 143 143 148 152 161 151 157 167 168 160 154 149 140 141 142 138 140 138 136 140 133 130 130 137 144 140 145 149 152 148 152 163 159 159 155 150 155 158 170 171 156 150 150 146 144 144 143 154 158 155 155 151 153 145 144 146 146 150 152 159 151 147 142 140 143 146 150 142 137 141 145 147 147 144 143 150 156 161 155 157 163 157 153 144 142 141 143 147 152 160 159 162 157 159 157 155 156 151 143 154 153 153 155 166 169 158 149 142 138 142 139 139 139 142 144 142 145 149 150 151 147 148 146 138 141 131 131 139 155 163 165 154 143 140 135 141 155 164 173 171 145 134 142 136 138 144 145 150 173 176 152 150 145 132 135 133 129 130 130 141 139 133 142 145 155 179 209 195 162 143 145 163 170 168 158 131 84 43 32 37 35 27 45 46 32 34 42 60 79 97 76 74 61 53 74 97 106 111 109 123 117 146 150 108 82 97 124 145 135 104 93 89 98 125 153 134 110 81 65 57 62 75 69 69 72 65 62 68 57 48 51 45 41 42 46 61 62 58 64 69 85 
37 34 37 38 40 48 68 72 72 49 35 42 38 32 27 27 38 53 65 58 50 66 63 44 37 46 46 46 42 40 33 28 36 45 43 53 65 61 58 57 56 60 75 105 139 145 139 149 153 148 148 161 176 169 156 149 147 147 147 147 142 140 142 144 137 135 136 130 135 146 144 142 151 151 151 167 175 168 166 166 160 155 157 162 166 157 149 142 145 147 141 146 153 153 151 145 146 149 148 145 142 151 149 155 157 155 144 139 141 138 142 148 139 139 140 146 146 146 146 146 146 153 152 149 151 149 151 147 146 145 143 144 148 150 152 159 158 163 159 152 154 150 145 143 147 154 144 154 169 169 160 151 142 139 139 139 143 146 141 142 145 151 149 152 142 145 148 142 140 143 145 139 132 140 147 155 154 145 138 135 131 136 158 166 161 158 139 129 134 138 135 149 150 164 164 154 150 151 145 139 139 135 131 131 135 136 126 135 145 152 162 190 199 176 153 151 160 168 176 167 140 100 52 38 36 37 29 35 32 31 33 45 61 85 97 67 66 56 47 60 90 89 88 107 99 118 148 157 110 86 96 117 140 140 128 114 99 86 121 157 146 104 87 78 75 69 64 74 69 63 53 65 66 55 47 53 47 37 36 44 74 65 42 38 39 49 
38 48 52 56 57 71 70 71 52 31 27 31 36 33 31 31 33 44 71 69 55 61 58 42 43 49 48 53 55 49 32 32 48 47 47 53 54 53 50 55 63 75 82 105 138 140 144 151 159 151 149 162 175 165 149 144 142 142 141 143 143 140 147 143 141 140 150 146 140 143 142 144 145 146 148 163 168 156 152 165 159 146 143 152 160 151 145 150 146 148 145 143 146 149 148 143 143 145 146 152 145 139 141 142 151 149 144 139 138 144 143 151 147 143 142 146 147 144 146 144 143 145 143 145 149 145 141 141 142 145 149 154 157 154 153 157 164 158 158 153 149 147 142 140 149 147 148 146 155 154 147 146 144 138 139 141 150 157 144 142 155 159 154 146 144 145 145 144 146 157 156 154 146 135 143 152 153 147 149 144 134 140 140 153 156 147 154 137 125 135 135 135 141 144 141 124 139 144 139 141 141 136 133 134 135 137 138 131 139 147 145 169 196 181 155 151 158 159 176 173 154 115 74 47 40 31 30 32 30 29 34 37 53 73 89 61 56 51 43 70 105 95 93 105 95 96 139 156 108 84 95 101 108 116 125 121 92 80 103 130 122 96 87 85 93 82 72 73 75 57 57 79 74 42 34 43 39 40 44 68 93 77 39 31 35 50 
38 62 76 81 72 59 54 46 32 26 30 28 32 32 37 39 37 38 61 63 56 52 42 39 54 58 51 50 50 43 33 43 46 47 32 34 41 31 42 53 64 80 102 123 143 150 151 159 158 150 149 164 172 163 154 145 144 142 140 141 142 140 140 142 134 137 156 154 146 144 141 141 145 142 148 158 159 139 145 161 155 144 142 151 160 155 148 147 145 140 138 138 142 151 153 142 134 141 148 153 150 141 140 141 145 154 152 145 144 145 148 149 145 143 145 142 143 145 142 144 147 146 143 146 148 147 143 143 145 149 155 162 164 158 153 155 157 155 149 143 152 150 146 152 154 154 146 154 148 143 146 145 141 146 143 141 152 158 154 150 157 160 149 147 148 154 152 148 146 153 158 153 151 146 139 143 152 167 169 164 155 139 149 145 147 157 159 154 137 137 144 140 142 147 141 133 133 137 133 137 138 135 133 133 138 146 147 141 138 138 140 157 179 183 163 152 154 157 171 181 165 136 90 59 46 32 30 34 33 34 37 42 46 67 80 56 59 48 45 86 114 109 98 97 87 84 122 147 121 99 101 109 108 104 120 112 78 74 93 97 96 83 79 94 100 96 82 80 72 64 75 97 77 39 24 33 43 46 59 79 100 70 37 30 34 47 
41 59 76 74 59 43 34 32 35 46 47 40 31 31 35 44 49 45 41 48 49 45 37 41 59 60 48 38 34 29 31 41 45 33 27 30 29 34 44 49 59 84 124 149 159 162 165 170 164 153 152 164 166 158 154 150 146 142 139 138 139 138 136 135 132 132 145 148 142 140 141 144 142 144 141 157 146 137 139 157 160 140 135 144 155 162 146 144 143 141 140 140 143 155 154 142 131 132 139 146 141 138 145 145 143 148 150 146 145 148 150 145 142 141 141 148 142 146 148 143 150 149 143 145 149 149 143 141 143 145 150 156 160 153 147 150 152 156 153 145 150 149 149 152 152 147 153 152 158 152 147 148 149 146 152 146 143 154 149 152 152 147 139 144 148 158 158 148 147 143 142 152 159 150 141 151 169 173 182 177 160 154 147 148 134 139 155 153 157 148 147 146 146 155 151 146 140 137 135 132 133 133 134 133 137 141 145 143 143 147 147 155 178 194 175 168 163 156 168 181 177 149 99 64 49 42 32 34 32 38 44 54 51 55 58 45 51 41 44 80 110 104 97 98 89 89 118 148 122 97 110 115 116 125 111 90 93 96 87 96 85 75 79 95 109 95 96 81 72 71 90 97 68 31 29 37 46 63 76 80 88 70 49 40 41 57 
47 45 49 55 43 41 34 40 51 69 71 56 41 35 34 46 64 71 57 43 47 49 41 50 52 45 36 31 28 26 27 35 33 30 30 30 30 37 45 47 56 93 134 156 156 150 158 164 157 149 152 163 159 150 147 148 145 141 140 143 144 143 139 139 136 140 149 144 137 138 141 147 148 140 147 144 145 139 145 158 163 152 135 137 157 164 160 147 146 152 154 147 143 150 151 144 138 141 138 140 145 148 148 150 148 142 142 142 140 150 147 144 134 136 146 155 151 152 150 147 148 149 148 149 149 151 150 142 141 142 143 149 152 148 147 148 159 158 157 152 144 145 142 142 145 142 148 161 156 159 157 146 143 150 155 153 150 146 147 149 148 143 145 146 147 152 154 149 144 145 143 150 159 156 165 174 171 179 170 165 169 159 164 149 138 130 141 160 158 160 146 134 135 139 145 134 136 133 132 143 135 134 137 141 142 135 132 135 144 155 154 156 177 186 177 174 179 162 163 172 179 156 109 60 50 48 34 29 32 38 46 47 49 44 45 47 47 44 46 67 89 94 100 104 109 103 116 136 118 96 94 109 113 95 81 84 104 104 96 87 88 79 94 108 112 98 93 92 71 76 89 94 54 32 32 37 47 60 73 80 81 81 84 72 54 65 
21 28 37 39 47 52 44 38 53 74 84 70 57 44 37 35 61 75 68 54 50 41 48 48 43 33 29 30 32 28 26 27 26 34 32 28 34 39 45 57 72 103 142 154 142 140 147 153 150 147 154 163 156 149 144 142 144 142 144 149 149 146 144 138 144 149 151 147 137 135 143 150 150 147 139 148 138 144 146 157 168 158 151 141 146 168 152 148 146 147 150 150 141 141 144 143 144 147 142 145 157 156 150 154 148 146 141 142 145 145 142 138 136 138 158 175 169 156 153 145 147 149 146 144 145 146 147 149 145 143 142 145 144 142 148 156 157 161 159 154 149 152 151 150 142 142 145 146 153 155 157 155 145 147 153 155 154 152 152 156 154 156 151 153 145 149 142 144 148 144 143 146 160 178 176 171 166 154 157 155 153 158 155 152 156 151 146 157 174 164 154 137 130 133 132 136 135 134 143 147 148 142 146 151 152 141 132 135 144 143 150 153 162 175 172 173 180 170 156 162 168 165 116 61 51 54 38 26 34 37 37 45 43 49 48 55 58 58 57 68 74 89 102 136 149 132 124 128 116 100 97 96 98 88 70 83 109 100 74 82 79 69 80 100 105 86 85 87 74 70 95 94 65 39 42 49 52 58 71 74 80 87 80 68 57 47 
19 28 35 40 53 54 40 34 51 72 85 91 76 56 44 39 39 62 71 62 48 45 51 51 45 36 31 35 31 27 23 22 26 29 31 31 34 40 52 70 89 124 155 160 150 139 146 154 153 154 155 161 155 148 144 140 143 143 146 147 142 143 141 145 146 150 153 147 138 136 140 146 149 148 149 148 144 143 144 150 160 160 156 155 147 147 146 142 138 142 146 145 141 141 138 139 148 148 141 139 150 147 142 150 162 142 145 148 151 147 137 137 138 143 160 184 173 160 153 149 151 151 145 144 141 143 148 146 146 146 145 146 149 138 145 154 158 155 158 153 148 151 159 158 149 143 146 143 140 147 154 157 154 144 145 151 153 155 161 165 163 158 154 150 152 142 146 143 148 146 137 143 175 174 169 161 141 148 151 149 153 149 147 155 155 158 147 143 156 159 151 145 137 127 129 134 138 141 140 148 136 134 143 143 145 143 136 136 136 138 138 143 159 176 166 163 166 153 150 157 171 166 128 71 53 70 42 30 34 37 35 44 58 61 62 65 62 71 71 81 83 73 107 145 183 169 138 130 127 122 119 95 93 100 83 73 85 71 57 68 64 49 52 74 90 75 78 84 75 77 104 107 66 57 76 80 93 97 93 90 94 82 76 65 52 41 
30 33 37 51 58 58 40 47 52 59 76 91 83 67 53 45 47 55 70 62 53 50 54 53 42 36 43 35 29 24 21 25 27 31 32 37 39 41 54 82 101 129 160 162 146 140 152 156 158 154 158 156 146 146 148 145 141 141 143 144 141 141 146 148 150 149 148 147 141 135 135 141 140 143 150 152 148 144 146 148 150 154 155 152 147 143 136 142 146 147 153 149 138 137 134 143 146 147 141 138 140 142 139 156 171 152 133 142 150 147 140 141 140 137 146 165 166 159 157 157 156 152 150 146 147 145 149 150 152 149 146 153 154 156 143 148 153 152 149 151 144 142 150 149 147 144 149 143 145 143 146 161 157 146 144 141 143 151 148 154 149 149 147 151 148 153 143 148 152 147 144 151 163 165 149 138 146 145 150 153 161 153 143 141 154 139 134 143 144 145 145 147 147 137 129 134 141 150 146 142 140 133 133 135 140 145 145 140 137 130 136 142 152 174 174 157 144 144 159 166 175 179 143 82 71 78 51 38 37 44 40 39 54 64 61 72 77 83 103 109 104 89 91 137 163 169 149 131 123 126 104 81 79 106 97 72 69 55 63 79 73 59 57 67 80 72 75 82 74 91 124 108 69 76 96 98 102 103 104 103 98 91 79 70 59 43 
28 30 38 58 70 66 62 57 52 42 48 63 65 60 55 52 51 59 65 53 46 52 53 42 33 36 41 39 26 20 25 27 31 35 38 43 47 44 64 118 117 138 162 159 143 146 151 153 150 162 162 153 145 147 151 150 142 139 140 140 142 145 150 150 150 147 148 147 141 140 143 141 144 143 142 149 146 143 148 153 152 146 146 143 142 143 142 142 146 150 151 148 141 134 137 139 147 140 134 141 148 139 145 160 180 154 131 129 136 138 137 149 147 134 133 146 151 153 158 156 153 151 147 149 148 146 147 149 149 150 140 142 158 157 157 146 148 149 149 148 146 142 141 143 140 147 153 156 157 167 153 155 161 148 145 144 146 142 147 139 142 146 142 150 154 147 147 145 146 154 154 152 160 152 138 138 138 139 146 162 160 154 146 152 150 147 140 142 153 140 133 149 155 144 142 140 146 150 151 149 144 143 141 131 136 144 146 141 134 131 134 136 144 168 178 157 142 149 158 173 181 187 154 97 81 83 55 47 46 53 57 53 51 62 65 83 98 110 110 132 104 76 95 101 112 126 121 115 105 102 95 62 75 104 109 88 78 92 80 95 93 75 84 83 73 67 74 84 80 113 161 118 72 91 118 94 76 92 105 110 107 104 96 79 67 48 
31 35 39 58 75 75 74 64 51 39 35 37 40 42 42 46 55 64 62 47 42 44 40 29 26 30 34 28 20 24 29 32 34 37 45 48 48 51 98 142 136 144 156 154 151 148 158 147 146 162 162 152 145 145 149 148 144 141 141 144 143 142 145 144 147 145 143 141 137 139 145 152 145 148 148 144 146 154 157 153 152 146 140 141 138 144 139 142 137 139 141 145 150 144 138 143 140 135 130 141 141 142 136 154 169 155 139 134 133 131 136 145 153 143 138 144 145 144 147 150 147 146 144 146 146 146 147 141 148 152 148 145 151 154 149 152 149 150 150 149 149 151 153 147 146 143 155 162 177 177 173 156 153 152 147 149 146 148 146 144 152 156 150 153 153 148 145 143 147 151 154 154 152 151 152 145 129 139 145 149 159 154 145 156 163 146 149 160 159 150 143 143 151 145 136 145 143 148 151 150 156 146 140 143 135 135 140 140 138 133 134 133 138 159 173 156 142 140 158 167 184 196 166 106 94 84 52 47 41 44 59 62 67 70 75 90 114 109 111 99 80 75 87 107 107 107 111 105 97 102 103 93 85 99 97 96 106 105 102 89 79 71 85 101 83 74 87 93 96 146 188 130 74 106 114 87 77 80 99 114 121 129 142 129 107 104 
23 36 41 55 66 83 74 61 49 42 37 34 35 36 39 43 54 64 62 48 38 35 33 24 24 25 27 21 19 25 30 36 35 38 47 54 54 63 100 143 127 131 145 142 148 156 157 152 146 158 159 149 145 145 143 143 145 150 150 148 148 144 138 142 148 146 142 143 139 137 146 151 152 150 149 148 156 168 172 163 147 143 148 143 144 146 142 136 138 135 135 146 156 149 141 140 137 131 131 140 148 134 138 139 152 145 139 141 143 137 129 140 145 140 139 144 143 140 140 143 145 147 146 143 146 147 143 141 138 149 156 149 145 148 144 149 154 149 146 148 147 152 163 159 152 142 152 154 159 174 162 157 147 145 153 146 148 149 151 151 155 157 154 157 154 150 145 149 142 143 148 145 144 148 150 145 146 147 148 152 159 155 151 150 158 153 145 157 169 157 151 154 148 142 140 143 144 148 155 162 158 153 143 142 141 133 136 138 143 141 141 139 142 156 170 156 139 146 144 156 173 190 169 115 106 80 40 40 35 42 57 73 87 105 109 120 137 131 105 96 75 73 104 117 112 133 135 117 97 96 106 92 88 99 95 98 110 120 99 90 70 74 97 108 109 97 101 101 107 154 180 126 85 100 110 88 77 86 102 107 121 153 169 167 159 179 
29 35 36 46 62 79 69 54 47 41 36 36 39 40 43 47 52 57 53 42 35 34 31 29 23 24 23 22 24 22 32 38 38 41 47 59 66 71 103 127 124 144 139 139 149 156 164 149 147 155 155 150 144 140 139 141 145 145 148 159 158 149 148 143 145 142 142 148 149 145 148 158 153 150 147 140 150 169 175 167 159 147 140 147 147 150 145 137 137 137 136 144 153 145 138 136 143 128 132 144 149 141 138 139 141 140 139 141 146 144 137 138 141 135 133 137 138 138 138 142 141 141 141 139 143 144 144 144 146 153 154 154 152 152 159 152 150 148 150 149 144 146 151 154 148 145 142 150 148 150 159 150 146 150 152 155 145 146 153 150 150 150 147 154 155 150 150 146 146 143 149 158 151 141 142 142 141 148 145 144 152 159 148 156 167 157 147 148 149 150 153 154 156 145 142 149 145 143 150 154 160 147 145 143 141 132 129 137 136 141 140 138 144 153 168 162 156 147 149 146 159 179 170 135 115 79 36 41 45 56 62 75 97 118 133 144 148 144 123 85 77 90 82 82 88 101 134 129 91 92 92 79 98 102 114 122 126 115 107 97 91 91 109 121 123 122 107 105 116 153 172 119 88 89 89 80 85 92 92 100 114 128 148 161 163 165 
16 29 42 51 59 72 56 46 49 41 33 34 38 41 44 47 45 42 41 34 26 25 32 29 25 25 25 29 31 31 29 39 40 39 49 65 72 73 97 117 140 152 144 145 150 159 162 156 151 156 153 156 147 139 142 140 140 140 146 158 164 161 155 146 143 138 139 148 152 153 160 160 154 152 146 139 138 150 155 158 156 151 140 144 147 152 143 138 136 140 139 142 148 146 143 151 148 142 128 138 142 140 135 137 138 141 138 136 140 144 146 148 152 144 137 136 138 137 139 143 141 139 137 138 142 144 149 151 151 158 157 146 150 161 160 161 149 144 149 158 150 144 154 152 152 142 148 147 147 148 153 151 146 143 149 146 147 142 153 154 153 147 146 151 156 159 155 150 146 149 155 162 154 143 140 144 136 142 136 135 145 150 149 157 170 165 149 144 140 136 142 146 149 149 148 149 142 140 142 144 146 150 145 139 139 130 137 135 141 142 141 143 148 156 171 180 166 161 150 152 152 165 173 140 112 72 39 46 50 48 52 70 83 95 109 113 140 147 124 92 87 86 70 59 45 75 119 124 104 101 95 81 94 119 123 135 125 108 100 101 95 84 91 103 126 141 129 115 132 161 163 124 87 78 75 78 82 89 91 106 123 136 146 166 174 180 
23 31 45 52 54 56 43 41 48 43 40 43 41 42 45 41 42 35 31 27 21 19 25 30 27 25 30 35 38 43 37 38 48 47 58 75 78 80 94 117 143 155 143 140 148 148 155 157 154 159 152 150 145 143 142 139 140 137 137 146 150 150 155 161 167 164 162 163 154 155 166 164 150 148 144 142 139 143 142 145 152 151 152 145 150 142 144 141 144 143 138 142 142 140 141 144 149 136 132 133 135 135 137 133 137 142 147 146 139 141 149 163 162 156 149 145 141 140 142 141 142 143 139 138 140 141 140 141 138 142 147 142 141 149 166 165 154 152 155 155 156 157 156 158 151 150 148 147 147 146 147 150 139 140 138 137 138 140 147 154 154 144 141 145 151 160 152 150 154 163 167 165 153 146 146 152 152 144 145 144 144 147 151 149 161 161 148 141 143 143 138 147 148 145 152 146 144 139 146 146 143 143 142 140 136 142 142 147 144 139 141 147 146 153 170 177 165 145 149 150 154 168 175 147 108 68 40 53 54 38 52 72 74 78 79 97 122 133 119 88 78 72 62 51 56 65 97 118 102 107 99 90 110 113 123 130 115 90 103 103 85 72 52 67 93 127 139 123 139 150 134 118 91 80 77 81 85 90 99 119 143 160 164 174 172 150 
29 27 34 36 33 45 36 36 41 45 54 51 44 36 43 46 37 33 37 27 21 22 26 29 30 24 28 30 36 45 49 54 55 55 59 71 75 82 97 113 150 145 130 138 143 147 155 165 173 160 156 151 146 145 147 140 143 147 144 142 141 145 152 167 177 178 182 175 160 162 167 170 159 147 142 141 149 147 149 143 141 151 154 155 147 145 146 153 151 149 143 141 136 137 139 135 143 143 139 137 141 136 140 141 136 143 157 160 147 138 150 164 163 161 154 152 151 145 140 141 146 145 140 138 140 141 138 137 135 136 141 148 145 140 148 155 156 152 160 163 161 162 159 150 147 145 146 142 143 144 145 143 137 143 146 144 140 140 147 149 147 141 140 146 156 156 154 142 153 167 167 164 155 142 151 158 159 151 146 147 145 152 148 150 158 156 147 144 147 148 150 149 153 148 145 148 144 146 145 144 143 141 140 135 140 142 146 147 147 141 140 143 147 155 171 176 163 145 141 144 152 166 176 154 115 69 43 55 65 49 52 78 74 74 86 86 101 97 88 60 59 51 38 55 67 64 99 103 105 105 100 109 111 114 116 110 89 99 105 101 96 87 72 57 84 116 134 132 148 136 112 101 90 70 74 74 76 82 88 105 128 146 162 168 156 136 
27 29 31 25 26 35 38 34 36 54 52 51 37 39 46 48 42 39 46 36 25 24 29 36 35 31 29 26 31 49 61 65 63 55 56 67 75 91 103 127 161 154 128 136 144 144 160 171 175 170 156 154 152 147 146 140 143 151 149 145 145 142 149 149 155 157 162 181 172 164 168 164 158 150 141 145 145 153 152 151 145 149 155 153 145 143 146 151 153 154 145 143 135 137 139 145 140 147 145 148 150 144 148 146 144 139 147 155 145 140 150 156 157 149 152 152 150 144 140 139 143 144 137 134 139 139 140 137 132 135 142 155 158 154 140 139 134 147 152 154 163 162 155 146 146 150 143 142 142 147 145 140 135 142 148 145 142 141 150 148 146 144 144 147 151 158 145 143 147 158 166 164 155 153 151 161 164 158 152 150 150 151 152 147 151 154 145 142 151 150 150 155 150 143 148 144 148 150 150 147 144 144 139 135 137 138 142 149 154 152 147 144 146 158 173 176 170 155 147 141 148 167 175 162 120 80 37 49 66 61 61 78 94 94 87 82 83 76 70 73 63 49 54 69 69 89 97 111 103 106 106 110 119 115 117 99 93 97 115 101 107 108 105 75 76 102 97 104 127 130 108 99 73 60 57 64 65 71 89 114 124 146 161 154 130 100 
23 31 29 21 21 27 33 32 49 53 53 43 38 39 51 53 46 50 59 41 25 24 25 30 38 34 34 28 27 46 61 62 63 58 58 64 74 93 110 137 169 145 136 141 150 151 156 174 176 159 153 155 151 146 144 137 138 140 143 138 141 150 141 143 142 136 146 150 157 152 146 148 153 149 148 146 142 139 146 151 148 147 159 151 146 141 144 151 147 144 146 138 135 139 151 143 144 141 142 147 149 148 147 146 144 141 139 144 138 141 141 147 140 141 137 146 146 139 139 135 140 138 130 132 133 133 130 132 133 134 141 149 162 154 143 133 129 130 141 145 149 158 148 144 147 149 146 140 145 145 144 140 135 137 138 138 136 140 145 147 144 145 146 144 145 145 144 140 146 155 172 163 162 152 156 159 161 157 157 155 147 145 146 145 147 148 146 146 150 150 155 156 152 150 147 146 145 145 147 144 141 142 141 136 133 138 136 147 155 162 155 150 146 160 168 177 173 164 159 148 151 170 180 167 130 81 40 33 59 54 64 98 108 107 83 77 82 73 84 89 79 70 66 70 89 98 119 115 120 132 119 125 113 106 109 97 90 114 130 121 113 120 99 93 74 88 77 68 103 122 110 89 65 51 60 61 68 75 104 133 143 166 171 149 110 58 
22 35 31 24 26 31 34 42 48 55 50 40 38 37 37 39 38 42 46 33 22 23 22 26 36 39 42 43 37 39 53 58 66 68 62 62 70 89 111 146 161 144 134 158 165 158 167 177 173 158 150 149 151 148 141 142 137 138 140 143 147 149 153 139 138 138 134 141 137 142 140 146 146 145 152 150 143 140 144 146 151 152 158 164 151 148 151 159 154 144 138 138 131 140 148 149 143 144 139 137 145 147 153 144 139 142 144 148 147 138 137 139 134 137 142 142 144 145 138 136 140 142 133 133 135 132 131 130 132 136 136 139 140 145 142 131 129 133 133 139 146 146 146 146 150 152 147 144 145 146 144 143 139 137 137 137 137 139 142 141 140 143 147 147 148 146 144 140 139 157 175 170 150 150 149 152 150 146 149 153 147 142 144 147 146 141 140 141 141 139 145 148 149 156 151 146 143 136 142 137 137 145 143 143 139 139 141 141 149 154 161 151 151 153 163 170 168 159 164 160 160 175 182 172 131 84 44 29 42 48 64 90 110 91 77 80 83 75 97 96 88 71 61 68 80 115 142 126 121 135 133 136 124 114 100 102 97 115 129 127 104 84 91 74 90 86 87 72 93 118 120 80 49 53 68 83 99 119 131 150 146 151 154 131 98 87 
37 51 46 40 44 50 53 50 46 42 31 33 29 23 26 27 26 28 29 24 24 25 27 34 35 41 48 53 52 48 51 57 64 68 59 56 63 81 105 145 158 135 150 166 161 162 164 176 173 151 147 150 154 150 151 143 140 137 140 139 142 154 153 148 141 140 141 145 141 142 150 157 153 145 152 154 143 143 144 149 147 146 151 162 156 137 143 159 158 142 139 133 136 138 143 146 145 144 141 135 141 152 163 150 144 137 148 154 152 145 140 140 143 138 140 141 139 137 140 139 148 152 143 138 139 137 137 136 132 131 141 134 136 143 143 140 133 138 145 144 142 142 142 146 152 153 151 152 149 149 144 145 142 142 144 143 142 143 146 145 146 148 150 153 151 148 143 142 141 155 181 171 153 148 146 149 152 145 144 150 149 144 148 150 144 138 139 138 140 141 138 141 154 159 159 149 142 143 135 140 150 142 150 140 140 140 140 142 140 149 153 152 149 149 157 170 172 156 157 159 157 168 178 167 131 80 42 34 36 47 69 86 93 85 84 88 75 92 114 118 97 74 66 55 76 127 147 139 124 130 142 152 143 128 115 109 103 100 101 97 77 51 61 79 98 102 81 76 82 106 114 91 57 60 83 96 102 120 106 104 98 86 90 87 85 90 
79 57 42 33 34 37 38 36 31 24 23 20 22 22 20 21 23 26 25 21 23 25 32 35 39 37 44 57 57 53 56 56 60 61 54 54 63 82 108 149 152 143 157 171 162 153 166 171 164 146 149 147 149 153 148 148 141 138 141 139 141 154 155 149 146 142 148 148 148 145 156 162 161 149 154 158 144 142 144 143 147 141 147 157 152 139 136 151 154 149 135 135 134 139 140 136 139 138 137 134 132 150 161 154 142 138 135 141 144 142 142 144 140 144 138 135 136 141 137 133 141 148 140 135 137 135 134 135 130 137 137 142 140 148 148 137 134 140 153 153 148 146 143 147 148 145 147 147 149 148 146 139 142 144 148 146 146 148 147 153 152 152 152 155 151 148 149 153 154 150 169 159 154 150 146 149 159 153 145 147 146 145 145 145 145 139 145 152 150 145 146 138 148 159 152 149 151 142 148 154 157 160 147 149 142 146 143 147 143 145 143 145 147 152 161 179 181 161 151 147 152 166 168 170 137 79 40 30 39 49 70 73 69 79 97 83 80 108 146 149 118 95 79 75 94 120 153 135 128 121 121 130 124 110 111 117 93 81 82 70 52 42 41 80 104 114 82 69 69 83 96 82 67 69 91 88 92 80 66 66 71 78 62 69 74 74 
112 48 25 21 20 20 19 23 25 23 24 24 24 21 19 18 21 26 28 20 19 23 27 34 32 39 48 53 56 57 56 55 60 64 62 62 69 87 121 159 165 173 188 190 166 161 161 170 162 148 146 147 144 144 144 149 143 145 146 146 149 152 155 148 148 149 147 153 149 150 148 158 158 151 156 158 145 141 141 141 135 142 136 146 144 138 140 144 151 147 143 134 143 143 142 140 135 142 144 140 139 150 159 155 144 136 134 133 135 143 139 140 143 143 139 136 138 141 139 134 134 137 138 140 143 139 132 131 130 129 141 141 149 152 153 138 135 143 150 155 151 145 148 145 144 139 136 135 139 142 139 143 144 146 149 148 148 148 149 149 156 158 157 153 148 144 151 157 158 150 146 144 141 148 141 145 156 154 149 148 147 148 149 155 151 149 157 157 152 147 139 143 141 144 147 148 152 157 149 155 161 149 153 151 149 148 153 153 156 147 146 143 152 155 159 165 174 152 138 144 151 158 165 170 144 81 40 29 42 58 64 47 44 67 80 78 80 123 151 148 126 102 87 96 107 127 130 133 111 104 93 85 86 94 104 106 96 95 90 69 45 36 40 62 111 102 78 69 75 74 80 74 75 74 89 85 73 75 62 68 87 95 90 67 67 75 
71 30 18 20 20 18 20 20 25 28 29 36 29 21 20 23 23 29 38 26 19 22 27 30 31 41 51 62 65 63 60 59 62 69 73 75 77 90 124 164 185 201 220 208 176 158 163 167 157 149 146 145 144 143 146 149 151 150 152 145 144 151 144 146 150 150 149 148 149 149 150 153 153 146 145 145 138 138 141 137 143 143 148 146 145 141 143 139 143 150 145 139 138 141 141 138 141 142 149 142 139 146 152 146 141 140 142 138 145 145 145 140 148 140 141 139 140 140 136 135 133 138 144 148 153 149 139 131 137 140 140 139 138 146 140 140 136 137 147 145 136 142 143 145 141 142 138 139 137 138 137 138 143 145 147 146 146 148 146 151 156 163 162 153 147 144 141 149 154 153 146 137 140 145 143 138 146 147 147 147 144 143 149 151 156 153 153 154 151 148 146 146 158 151 144 152 156 157 159 149 153 151 149 152 151 145 150 150 152 154 149 152 150 155 154 167 157 141 139 143 152 166 165 170 146 80 45 44 51 76 76 46 36 55 87 84 95 129 123 116 96 69 78 93 113 134 134 120 115 102 82 79 81 83 85 102 99 115 104 72 40 33 56 60 81 86 63 57 68 71 59 65 81 92 83 77 64 78 78 73 78 98 89 77 63 54 
19 21 21 20 21 21 16 18 20 21 34 41 31 26 24 32 31 35 45 34 23 24 30 33 32 39 59 71 78 79 65 57 63 69 80 89 90 96 137 175 189 220 225 209 182 162 166 164 154 145 145 145 145 142 143 148 144 146 151 152 146 148 147 146 145 149 145 147 147 146 147 150 151 142 140 143 139 137 139 136 138 149 149 155 147 142 140 138 136 143 143 135 135 136 139 146 144 146 143 138 138 141 143 140 140 138 139 142 149 149 143 148 141 143 135 136 137 133 133 135 134 140 142 141 143 142 134 137 139 146 143 139 136 135 139 136 136 136 140 141 134 142 149 141 142 141 148 146 146 139 135 132 137 142 146 146 144 145 152 153 160 163 157 152 146 150 143 146 153 149 148 143 138 150 148 141 144 143 141 142 141 137 138 146 153 155 149 149 153 152 158 169 182 175 161 149 157 161 156 157 155 157 154 150 146 149 143 149 150 154 160 156 155 158 174 184 170 150 150 147 153 166 167 175 144 85 51 45 63 94 102 74 56 74 99 97 112 124 113 103 75 73 88 109 140 149 144 131 117 109 88 80 83 83 86 103 112 110 80 48 32 51 61 69 62 65 53 65 68 65 63 78 104 101 87 62 59 62 72 70 69 96 94 86 90 113 
22 25 20 18 20 19 18 19 24 24 36 43 33 25 31 34 31 31 42 36 27 29 35 37 41 52 56 75 88 78 62 55 58 74 95 102 88 92 135 176 201 205 198 186 159 156 160 167 153 145 145 144 142 143 139 140 141 143 150 157 152 143 145 142 145 143 145 146 145 143 149 149 151 152 151 148 144 144 140 137 137 140 149 146 152 149 146 145 141 139 144 140 137 145 144 142 146 139 138 136 135 139 140 143 138 139 136 139 150 150 140 137 140 128 136 135 135 135 135 130 133 130 133 131 131 137 137 133 139 142 146 144 143 144 144 142 143 140 144 143 145 154 152 143 140 142 144 140 141 139 135 135 133 137 143 142 138 145 150 161 163 160 162 155 152 147 151 148 146 150 148 143 148 146 153 144 140 145 149 144 140 143 140 145 149 159 154 151 158 165 156 171 180 169 154 154 147 152 148 143 147 148 145 144 146 142 150 145 153 155 163 166 163 165 174 185 175 161 162 162 154 162 166 166 148 82 50 42 51 82 108 78 58 72 102 105 101 117 112 105 96 98 122 145 160 155 141 128 122 105 90 77 81 74 91 116 109 83 58 32 44 54 74 71 69 70 65 74 72 60 67 99 113 96 77 67 59 61 63 65 80 98 103 96 92 91 
26 22 19 14 17 20 24 29 33 34 45 40 28 27 25 39 32 20 34 38 31 34 43 55 70 76 75 79 90 83 60 55 66 87 104 103 86 83 136 186 192 189 165 148 146 142 160 170 157 151 145 143 145 142 141 139 142 140 146 156 146 142 141 143 142 141 137 142 140 140 143 152 153 155 153 153 154 146 147 145 141 145 147 150 149 153 154 149 139 138 141 142 143 153 160 151 140 138 140 141 138 135 140 138 141 138 137 141 148 145 143 136 129 128 131 132 131 134 129 126 122 124 125 126 128 131 132 131 135 142 145 150 146 146 147 145 151 151 146 147 146 152 151 144 144 147 140 138 136 138 133 136 131 127 128 131 133 138 147 155 164 161 165 163 153 153 143 148 148 140 147 146 142 147 150 157 151 153 160 161 153 148 157 157 162 163 162 167 166 156 154 149 151 151 147 149 158 151 149 142 140 144 138 145 146 146 148 154 150 153 155 160 162 163 162 171 162 161 171 164 171 177 171 180 146 85 44 31 36 59 76 71 47 63 102 103 104 124 120 121 103 122 139 152 154 136 117 119 103 94 80 85 78 80 94 97 81 64 48 65 55 64 68 62 69 70 79 76 66 45 58 84 80 65 79 73 76 81 73 82 85 105 109 103 85 65 
11 21 20 18 25 31 32 38 36 39 49 40 26 23 34 48 51 31 32 39 39 38 54 69 87 102 87 87 96 87 68 65 85 97 100 93 81 88 138 175 176 160 147 146 149 153 159 173 164 148 144 142 141 145 141 142 141 139 142 151 148 147 150 149 147 143 139 142 141 140 147 145 151 147 150 157 157 150 149 142 142 149 152 150 146 147 149 148 136 135 138 137 139 154 160 151 143 141 143 147 143 140 142 141 141 142 142 138 138 135 130 130 123 123 124 124 131 131 134 131 132 130 131 133 128 139 135 135 133 136 142 143 143 148 148 144 148 154 148 144 141 142 143 143 151 151 148 140 149 145 136 137 134 126 124 126 130 136 145 150 152 150 147 151 150 146 154 152 145 147 135 138 139 142 163 178 177 170 171 161 156 154 151 160 163 164 168 174 173 163 154 151 150 145 143 151 151 162 150 147 152 146 147 147 149 147 149 155 156 145 149 149 160 168 165 166 167 165 166 167 173 181 190 192 167 97 38 32 31 36 74 69 57 60 91 102 117 130 137 118 108 115 121 131 124 103 102 112 96 79 77 84 88 104 91 74 51 46 68 81 80 62 48 49 58 68 69 71 49 45 59 81 66 71 94 97 87 87 81 81 90 107 107 94 71 39 
20 22 27 29 35 40 39 37 36 41 50 39 26 21 26 52 63 35 29 36 35 44 52 67 85 90 79 88 89 88 75 76 98 100 93 86 79 89 137 165 151 138 138 145 151 154 159 173 159 146 143 142 144 141 142 137 136 136 139 145 146 148 156 147 147 146 147 147 145 142 144 147 142 145 141 148 153 146 149 143 140 145 150 146 147 142 147 144 138 136 139 147 144 143 146 142 143 143 139 139 138 139 142 137 140 138 138 138 127 121 123 119 126 128 142 149 155 166 172 172 174 164 169 169 172 169 166 159 154 141 138 141 141 147 151 144 143 152 157 151 148 144 139 142 142 146 143 141 150 153 143 135 137 133 129 129 132 138 142 147 148 146 141 147 153 155 153 156 159 158 150 141 145 148 157 171 170 161 159 160 154 148 147 153 153 159 168 175 170 168 161 162 156 152 141 138 157 154 149 147 151 154 144 144 147 145 157 161 154 149 141 153 167 179 175 170 167 165 165 159 152 163 184 192 164 111 59 44 42 38 60 68 51 57 77 91 107 137 129 96 93 95 106 103 97 87 103 97 83 72 65 70 103 119 86 50 38 40 63 81 84 62 52 43 65 71 66 57 50 64 90 111 103 109 134 123 100 79 67 71 84 90 95 81 57 49 
23 27 32 34 41 42 32 36 38 44 53 40 26 22 20 44 56 41 28 31 34 33 43 51 64 65 70 74 77 83 75 79 93 96 89 84 79 83 137 171 145 137 137 137 144 150 157 168 161 140 144 146 144 143 136 140 138 134 138 138 139 149 150 148 145 148 152 147 144 144 146 142 144 142 143 144 143 152 152 152 143 142 144 149 157 152 150 150 136 139 142 152 153 141 138 136 141 144 137 134 137 143 141 133 132 132 129 126 121 125 132 138 150 167 171 179 183 184 171 172 173 157 167 184 186 188 177 183 174 164 160 162 149 151 151 137 140 146 156 156 156 148 146 147 150 146 137 133 147 160 143 142 140 140 136 136 137 135 137 138 143 147 147 154 160 157 152 149 161 171 161 150 153 153 155 153 150 154 156 157 153 147 143 146 144 147 154 161 158 158 158 154 156 154 145 151 152 154 143 140 152 151 145 141 139 146 152 155 152 148 157 167 184 183 176 173 160 149 155 145 142 158 173 166 146 106 76 68 53 47 59 61 52 53 69 77 96 126 114 100 84 85 82 84 90 97 105 94 71 72 62 76 121 129 76 40 47 61 67 93 100 109 82 73 90 82 63 67 88 102 125 140 132 137 157 143 117 82 61 71 76 86 79 70 68 46 
28 26 30 33 39 42 36 38 37 39 49 41 28 22 23 34 49 33 29 34 36 33 27 35 44 48 51 61 58 64 78 68 81 86 84 81 74 81 141 172 149 139 140 136 141 153 157 176 165 148 142 143 147 139 141 142 144 139 140 137 139 146 151 148 147 152 155 149 144 145 144 144 144 146 147 145 146 145 158 151 149 142 138 146 158 158 159 150 148 146 140 148 149 139 140 136 138 142 138 135 139 143 139 134 128 122 125 132 135 147 166 169 168 160 157 154 156 162 154 151 156 151 160 186 190 188 186 177 164 153 169 183 171 164 164 156 148 147 145 144 146 145 150 158 161 151 142 132 143 152 153 146 151 149 141 141 143 139 141 141 141 146 141 150 158 149 147 149 160 166 156 153 146 152 149 143 142 147 154 157 150 145 148 149 146 146 152 157 160 162 154 153 154 147 144 144 153 147 140 144 150 149 146 138 145 143 153 152 150 154 163 179 169 164 157 161 158 142 145 147 146 153 162 144 109 100 80 66 68 68 64 55 49 53 61 56 81 97 114 120 108 95 82 79 92 107 105 78 65 59 60 90 138 145 88 48 59 83 90 93 124 142 113 93 110 97 84 97 116 142 142 144 129 131 142 140 112 84 69 65 69 71 76 81 80 90 
25 35 30 31 39 48 47 41 35 30 40 40 29 25 29 34 38 30 30 42 50 37 28 27 34 37 44 47 36 58 69 67 75 79 75 71 67 80 135 170 141 137 137 137 146 149 154 170 166 145 142 144 146 145 146 151 148 146 144 141 145 147 147 149 150 152 155 151 147 147 144 148 153 144 148 148 145 149 153 162 153 141 136 140 145 149 150 149 147 152 149 145 146 145 138 138 137 141 140 138 141 139 137 129 126 129 145 159 162 164 166 157 145 132 122 118 132 136 132 135 152 147 168 183 193 193 188 182 150 139 165 180 172 159 165 169 175 170 156 142 132 129 133 151 153 153 144 141 141 147 144 150 149 148 141 137 139 144 155 151 146 142 144 146 150 152 148 150 157 158 152 148 157 154 158 159 149 145 147 152 152 148 143 146 142 146 154 156 159 159 153 152 149 146 141 147 149 148 145 145 147 144 143 147 146 151 157 153 147 153 162 173 167 148 148 159 151 139 142 149 147 145 148 127 106 80 74 67 72 94 71 50 44 52 59 65 71 85 108 117 118 96 83 81 101 98 81 74 71 62 64 98 149 156 117 77 60 85 92 91 123 136 125 102 137 149 131 140 164 166 165 149 126 112 109 91 76 61 57 53 47 48 55 60 62 71 
56 50 40 34 40 49 48 44 34 38 44 41 33 28 27 32 33 30 31 43 49 39 27 25 32 35 40 35 36 48 69 76 79 71 62 58 59 77 142 163 142 133 136 143 150 149 148 161 164 142 142 143 141 147 148 150 158 149 139 140 138 144 143 149 151 153 152 143 147 148 148 159 155 149 146 144 144 146 146 151 150 144 145 139 145 145 146 140 142 155 151 146 149 146 142 136 142 144 143 142 141 137 125 126 138 151 169 180 172 161 144 136 127 120 115 122 112 118 114 128 136 147 165 182 183 190 194 184 154 137 148 167 152 141 134 141 165 172 175 163 150 135 133 134 143 140 143 140 143 144 147 148 145 140 137 133 136 147 163 157 146 145 139 146 151 152 150 148 150 154 150 148 145 158 168 167 162 148 144 148 157 160 154 144 143 144 145 150 153 150 144 145 152 145 150 157 153 151 152 149 143 141 149 149 151 150 154 151 150 146 158 167 159 155 156 162 151 141 140 142 147 145 141 133 99 77 66 55 76 105 79 55 52 56 55 55 64 70 82 100 95 87 94 102 100 91 70 75 84 72 73 91 128 148 137 110 75 82 79 93 108 131 111 120 155 169 164 173 166 175 160 145 122 111 96 72 57 48 46 42 32 37 39 33 37 53 
55 61 53 49 45 48 41 35 45 55 52 47 35 31 28 27 29 29 29 36 37 27 25 36 41 37 36 41 37 49 77 91 85 68 55 57 63 86 140 167 140 132 139 144 147 145 144 167 163 148 151 146 146 146 159 160 167 165 147 135 144 144 141 145 152 150 146 144 139 148 152 152 155 147 146 145 142 140 137 139 147 146 151 149 137 145 144 138 144 153 154 146 150 161 153 151 150 150 141 134 128 121 122 132 153 164 162 162 155 142 135 125 128 123 120 133 137 139 156 170 184 190 199 206 208 203 198 187 158 134 135 140 141 130 126 125 139 154 157 163 156 155 152 143 134 132 133 139 141 146 158 160 142 143 133 133 138 151 159 152 147 145 141 136 142 151 147 143 151 158 156 144 145 158 166 170 160 150 145 143 156 166 168 162 156 145 142 146 149 155 148 147 146 148 150 152 149 151 154 156 152 142 147 151 150 143 148 145 147 149 150 158 150 151 157 161 160 147 143 141 140 142 149 134 98 65 63 50 67 98 83 71 55 56 46 44 55 56 77 97 86 93 108 95 103 78 69 71 80 70 64 88 113 127 143 135 105 72 69 73 94 107 102 106 126 143 135 131 128 129 132 127 119 123 111 83 69 60 55 46 35 29 37 28 16 14 
44 59 59 55 52 40 36 37 52 58 47 36 32 30 28 24 25 27 27 29 29 23 27 40 43 34 34 37 46 54 74 87 76 58 62 74 73 85 140 167 140 137 143 146 143 140 147 167 168 151 151 149 144 154 159 164 168 163 149 153 161 162 154 150 144 149 150 145 152 153 151 151 144 145 147 135 138 138 138 149 147 159 157 142 143 137 143 139 142 141 135 130 141 160 160 151 146 136 132 119 117 128 133 143 152 149 146 146 145 139 122 125 137 139 148 168 185 197 211 221 222 219 224 224 222 220 212 205 183 166 159 158 156 152 149 146 150 140 134 134 142 153 161 160 151 131 126 134 138 150 166 163 150 139 134 135 140 143 150 145 144 153 148 143 146 146 147 146 147 159 150 138 142 153 159 154 150 151 148 146 144 154 162 161 159 150 145 151 156 157 156 146 145 144 142 146 143 144 157 160 156 156 151 146 148 150 150 153 155 151 152 158 156 151 157 166 165 164 151 141 138 151 158 151 105 69 69 53 62 83 74 76 72 56 41 52 50 48 80 97 84 93 90 97 85 80 79 74 68 61 67 87 124 113 119 144 135 81 60 70 96 98 93 84 99 99 84 82 78 82 90 88 95 108 98 77 71 70 71 68 49 39 40 37 25 25 
26 47 52 51 52 45 44 46 55 48 36 30 30 31 32 25 25 25 23 23 24 21 23 35 38 26 28 46 56 56 70 70 60 58 75 86 74 90 142 171 159 143 143 151 146 139 146 169 171 145 145 139 134 143 151 147 149 146 138 144 157 161 155 147 151 148 152 156 154 156 152 146 143 147 145 137 134 135 144 149 153 155 157 151 133 141 139 145 143 135 130 132 141 151 147 137 124 123 119 139 145 149 153 151 136 128 131 137 139 144 149 162 184 193 193 196 199 204 198 194 194 191 199 210 215 217 222 229 224 219 217 212 207 202 194 192 183 163 141 125 121 130 147 158 162 154 136 128 137 143 157 155 138 138 133 138 142 137 142 138 141 147 147 140 145 149 140 137 144 146 143 139 141 152 150 148 145 147 150 148 144 148 151 154 156 149 151 151 157 158 156 149 149 153 153 147 141 144 144 149 157 156 158 152 147 149 152 156 159 148 155 160 154 162 155 164 166 163 153 144 146 154 168 151 110 71 76 74 59 67 69 88 95 86 67 62 58 46 74 80 88 83 85 75 68 75 69 64 57 51 70 104 126 114 110 150 134 95 54 72 86 98 81 85 89 87 74 69 59 68 71 56 64 78 67 48 50 55 62 62 52 43 48 48 35 25 
23 38 48 52 57 56 48 49 46 40 35 35 30 30 28 26 23 24 21 19 19 19 24 36 36 30 32 42 51 55 52 55 52 58 78 80 84 97 153 193 166 145 151 156 156 151 151 169 169 151 140 132 136 134 140 142 143 145 140 138 141 146 150 158 155 155 149 149 149 146 147 145 137 147 149 141 136 140 143 148 149 158 164 157 147 135 142 143 141 133 133 138 137 137 133 122 110 110 135 160 171 169 169 151 138 123 123 137 159 180 197 199 201 190 168 157 150 151 144 141 149 149 158 173 181 188 203 216 231 235 240 244 239 230 224 215 210 195 174 158 141 130 124 137 162 165 157 141 128 137 143 138 135 137 134 140 137 137 136 142 145 142 142 139 143 151 150 139 137 143 146 149 148 147 156 149 150 146 148 143 145 148 154 151 158 153 147 157 153 158 154 147 148 154 159 155 145 144 144 140 141 149 158 160 152 147 151 152 155 155 149 154 159 155 157 160 159 149 144 146 155 159 163 149 95 66 72 89 77 65 69 105 115 120 104 99 62 55 55 68 74 82 72 50 58 56 65 63 48 50 69 108 126 126 135 161 151 98 65 70 91 90 100 100 92 97 80 72 63 66 66 63 60 68 54 36 35 38 41 41 41 34 43 49 33 12 
25 41 56 61 63 55 46 40 39 40 42 40 31 29 29 24 25 24 22 20 21 22 25 34 37 31 27 35 43 50 49 51 49 64 89 100 101 116 165 195 166 142 143 153 157 149 146 156 151 140 139 137 132 137 134 138 141 150 152 149 141 143 156 163 161 154 151 143 143 146 152 149 143 146 153 146 142 139 139 141 143 150 160 157 148 137 137 137 137 131 131 131 128 127 122 110 106 132 146 164 166 166 147 147 124 134 159 177 192 198 184 164 148 131 121 114 116 113 108 112 115 111 111 114 119 130 150 175 195 213 230 242 247 247 237 232 225 218 214 203 190 165 144 135 146 166 168 160 144 130 133 134 136 145 139 138 141 131 142 145 144 154 144 134 146 150 154 151 138 142 148 149 152 151 146 158 152 150 146 145 145 152 148 154 155 149 144 151 152 149 150 146 139 146 150 146 145 148 147 141 148 140 157 162 156 153 151 152 155 151 155 155 146 150 153 153 148 138 133 145 154 162 165 144 92 51 74 105 88 77 94 106 119 127 125 103 83 59 55 61 74 78 61 67 67 80 87 81 60 49 74 91 122 138 170 168 167 120 86 74 100 112 136 125 109 97 80 68 54 48 60 52 54 58 49 42 42 46 49 56 52 44 43 45 34 24 
32 51 73 76 68 52 43 36 38 42 44 37 33 31 29 25 24 22 21 24 27 30 30 35 37 34 29 29 40 55 59 48 48 67 96 113 103 116 152 182 162 135 135 144 148 147 143 143 138 137 141 141 137 134 140 140 140 146 151 150 143 140 152 158 156 158 154 148 148 147 156 154 145 144 150 143 139 143 137 139 140 145 144 150 141 139 136 135 134 131 130 130 130 128 116 106 137 150 151 150 150 145 142 129 154 177 185 186 175 147 123 104 101 93 91 84 83 79 78 81 83 81 81 79 81 90 101 113 135 155 177 208 235 247 252 247 238 232 229 220 209 188 169 158 147 149 162 163 150 131 126 127 144 152 148 143 141 142 141 144 150 148 150 150 147 154 153 146 144 136 143 151 149 143 146 144 148 150 146 144 144 153 153 149 150 140 141 142 151 147 144 148 145 144 143 143 144 151 156 161 165 164 149 164 155 154 156 154 152 152 151 144 138 146 149 162 149 140 140 149 156 163 165 138 84 55 57 94 89 78 104 112 112 113 109 106 81 75 77 83 85 72 72 82 73 76 83 76 54 50 61 88 107 153 161 164 137 131 94 79 82 119 138 131 107 94 81 66 56 54 54 59 57 53 51 49 45 46 48 45 42 35 35 32 29 32 
35 56 78 84 71 57 47 46 42 39 38 32 34 33 31 30 30 25 23 26 29 31 33 28 36 37 31 28 34 52 58 57 54 61 90 105 110 110 154 191 161 131 145 155 151 149 142 136 142 136 142 141 139 140 142 144 138 141 146 148 145 142 146 151 148 151 156 152 148 159 150 155 152 142 140 144 141 149 146 141 147 138 137 137 138 136 136 136 133 132 133 127 124 118 114 135 148 162 142 131 135 138 141 165 183 185 170 144 114 92 79 73 73 73 73 68 66 69 69 71 71 72 76 76 78 81 86 92 96 107 122 149 185 219 239 251 251 246 237 230 211 192 186 177 158 139 146 155 152 139 124 130 140 156 148 144 146 147 149 148 148 151 144 145 152 151 148 144 141 144 143 146 153 142 134 141 144 152 152 144 150 165 164 164 149 140 136 147 144 147 146 147 151 155 155 148 142 150 157 168 181 173 166 151 156 152 151 151 154 156 148 144 146 154 162 157 147 137 141 149 164 173 166 127 75 59 46 73 80 92 110 115 96 98 94 87 81 87 101 100 90 68 74 70 64 56 58 55 45 45 57 72 99 132 147 124 109 111 100 83 98 128 144 120 98 90 70 70 71 56 56 57 54 46 40 38 36 34 25 21 23 21 28 30 22 35 
53 55 70 81 73 65 68 64 46 33 28 31 35 39 34 37 34 29 25 28 31 33 33 31 27 38 39 30 28 44 57 70 71 68 74 93 106 118 165 202 181 147 160 175 167 151 139 144 147 145 135 138 138 142 143 141 139 140 143 144 146 150 143 143 141 146 147 147 162 161 164 160 157 145 140 142 144 147 142 145 140 137 130 132 132 133 138 132 137 133 132 126 110 122 144 148 161 144 124 126 133 151 168 175 174 152 121 100 84 68 59 61 64 64 65 63 65 66 65 67 63 70 73 74 81 84 86 90 95 97 97 108 133 167 197 227 247 253 251 239 223 204 194 191 169 148 142 152 165 157 141 124 135 140 136 136 140 141 149 150 157 164 148 141 149 152 149 142 147 148 151 155 163 156 146 147 143 151 156 146 151 166 174 164 152 144 141 140 147 145 144 145 147 161 158 157 148 145 154 152 170 167 157 151 146 152 156 154 162 164 157 163 168 176 176 157 149 146 142 151 166 182 165 113 79 67 51 58 92 111 122 91 78 71 79 89 74 95 110 109 92 70 78 81 71 71 66 58 51 55 72 86 87 106 119 114 95 85 92 82 100 122 123 90 70 64 60 61 71 67 59 55 53 53 40 34 32 25 21 21 20 35 41 37 30 19 
45 50 57 73 73 74 80 75 48 27 29 28 36 37 34 34 34 28 28 30 31 35 36 27 29 37 36 33 27 36 56 78 89 87 75 83 87 103 159 214 187 141 154 165 157 140 140 140 152 147 135 134 140 146 143 142 147 142 140 140 146 151 147 141 144 147 148 143 148 163 156 156 152 145 142 142 140 140 138 134 138 129 127 129 132 132 131 133 128 129 131 115 110 135 153 160 148 129 123 139 160 166 170 157 123 97 84 76 62 55 58 61 62 58 60 58 62 64 55 53 55 54 58 63 69 74 80 84 86 95 96 99 107 122 148 180 212 239 251 251 240 223 213 207 189 167 149 154 167 176 154 139 130 134 130 129 137 138 138 145 157 169 160 145 151 160 152 143 145 148 149 158 168 168 160 153 143 147 147 150 144 154 155 156 149 144 142 140 144 149 149 147 142 146 155 150 146 144 146 151 146 160 152 148 146 155 158 156 154 143 148 152 165 171 155 149 143 156 147 139 154 176 154 108 76 82 63 75 114 138 137 87 59 57 78 88 94 99 111 102 84 78 90 85 93 100 86 73 74 69 78 97 82 74 88 100 89 75 70 74 74 90 83 64 55 68 77 70 78 76 69 71 80 75 69 55 42 33 24 20 29 31 41 41 32 13 
56 45 49 64 76 77 82 68 40 32 31 28 30 31 31 34 31 31 32 33 32 30 33 34 34 40 36 31 29 31 42 65 88 102 92 75 68 83 143 207 206 154 159 170 154 144 135 135 148 148 138 137 141 144 142 145 157 146 139 140 144 152 146 143 151 160 150 140 138 147 152 149 153 150 149 150 137 142 139 142 133 128 130 134 134 133 133 128 130 128 125 112 125 148 166 158 148 140 152 173 172 164 144 109 83 68 61 53 52 57 58 60 56 50 49 46 46 43 35 32 31 33 34 37 41 45 49 55 62 74 84 93 102 108 113 132 159 194 226 248 251 239 228 219 208 189 170 156 160 172 168 153 138 133 131 137 139 141 139 136 137 153 149 145 152 159 155 144 152 155 148 152 168 163 156 151 139 137 152 146 145 144 147 148 150 156 144 138 139 143 148 145 142 151 155 154 146 146 149 147 150 150 154 149 147 154 167 157 144 143 134 148 158 155 160 143 154 170 167 149 155 174 153 99 73 67 77 90 115 146 127 93 55 53 73 92 109 112 95 77 73 78 103 110 100 91 77 66 56 48 52 64 62 48 56 79 84 69 67 58 66 74 63 49 46 59 65 61 54 53 61 71 83 94 67 51 39 30 21 24 30 30 34 39 44 38 
51 44 44 63 74 76 71 51 32 30 31 26 27 32 36 40 35 33 35 37 39 40 43 43 44 43 34 30 33 30 30 45 68 96 102 85 65 70 137 196 214 183 169 166 156 143 139 142 148 152 145 140 140 142 141 149 154 149 148 143 139 147 144 143 153 161 154 139 138 141 145 147 142 146 148 144 149 146 157 158 160 144 143 144 133 132 129 129 132 130 115 127 138 154 153 141 137 156 181 182 168 128 101 81 62 54 53 51 51 55 54 46 46 44 41 32 26 24 22 23 23 23 27 30 30 27 26 29 32 40 51 66 83 93 100 108 120 145 180 221 245 252 240 231 217 206 188 165 156 166 179 168 147 133 129 135 138 139 137 139 134 141 143 147 153 158 158 164 172 174 169 170 180 182 173 166 151 149 158 158 151 148 147 149 151 154 157 142 140 140 141 141 142 156 158 155 149 150 148 150 146 145 147 146 146 148 151 148 152 147 150 153 155 162 157 155 153 178 182 167 173 175 152 102 71 73 84 108 108 107 119 86 75 72 63 93 106 102 76 59 57 60 111 104 77 72 54 45 44 33 42 59 54 46 51 69 83 80 71 65 64 77 64 42 30 37 46 42 36 35 46 69 80 69 61 40 30 23 22 29 36 40 35 45 64 57 
41 48 52 60 75 70 55 38 27 26 28 23 27 32 35 38 33 31 33 37 42 47 47 43 38 40 34 32 38 36 35 41 53 84 100 93 77 82 122 190 210 182 157 145 143 142 146 139 143 147 142 138 137 143 143 142 152 151 155 155 140 139 145 141 149 158 158 145 144 143 149 146 142 141 138 146 142 140 151 162 161 158 155 149 142 134 128 129 130 124 126 142 150 142 130 131 143 174 187 172 126 95 74 59 49 49 54 52 49 50 43 37 35 39 40 32 24 21 23 24 22 22 28 35 34 29 27 26 28 28 27 38 52 65 78 94 106 116 137 176 216 243 253 241 227 213 190 166 152 164 181 183 157 139 130 135 141 139 138 139 138 139 139 137 140 143 153 159 170 173 166 168 164 160 159 157 151 156 167 168 157 158 162 155 156 161 153 152 151 143 145 143 148 160 154 144 145 145 143 141 141 143 144 146 142 138 136 138 149 157 154 148 156 149 157 149 148 157 166 168 168 163 120 78 50 57 85 118 105 89 81 78 86 75 80 87 86 74 57 56 53 72 109 92 72 59 54 50 40 46 61 71 62 52 53 65 75 78 82 72 74 82 71 48 36 34 40 37 37 33 45 52 60 60 60 48 35 29 26 38 53 42 43 62 75 94 
58 59 62 67 71 66 44 29 21 24 25 24 32 30 29 29 30 30 33 38 42 44 46 41 37 43 40 36 40 42 44 42 48 66 86 84 65 68 108 157 201 178 146 137 141 145 142 142 141 143 144 142 142 152 158 150 145 149 158 152 140 145 157 149 144 153 154 148 142 143 147 153 142 138 139 143 138 139 132 138 143 135 138 142 134 132 132 129 130 128 144 165 166 136 134 147 175 181 175 136 103 75 56 46 44 47 48 40 32 30 28 19 21 23 25 24 22 20 22 23 22 23 28 34 33 29 27 30 36 35 27 28 39 50 55 68 86 105 117 139 172 215 244 251 239 222 192 163 148 158 174 182 163 144 132 135 139 140 137 138 139 141 137 136 135 135 144 152 151 157 162 157 165 151 142 142 144 149 164 162 151 146 148 153 154 157 159 156 152 157 152 151 155 163 153 144 150 148 142 140 140 146 145 142 137 136 140 144 156 157 150 149 146 141 144 150 145 148 165 178 176 158 107 62 69 68 87 122 108 73 60 64 76 76 90 81 69 50 62 76 89 111 110 84 57 61 56 48 51 60 69 61 57 46 46 54 57 66 77 70 73 81 78 71 52 37 39 49 49 49 44 44 37 47 50 46 31 23 26 51 54 55 62 66 80 46 
29 62 59 58 58 57 39 32 24 23 24 28 34 31 23 23 27 28 31 41 45 44 45 41 35 35 33 32 38 44 49 48 52 64 76 76 63 56 90 151 193 190 154 143 145 140 145 142 145 145 143 138 146 159 163 155 148 147 147 147 147 158 172 169 151 149 151 146 140 140 151 148 145 141 143 141 143 132 137 130 130 133 131 130 132 131 130 127 120 122 135 168 159 139 142 173 180 174 141 110 82 60 45 44 44 44 39 28 21 20 18 21 19 18 20 23 24 20 21 23 22 23 26 29 27 24 24 31 40 41 32 30 42 52 47 40 61 84 99 120 139 173 217 244 249 236 208 171 148 149 157 161 160 147 132 129 131 136 132 136 136 139 136 140 141 142 151 150 143 150 147 163 171 176 164 154 154 149 154 159 152 144 141 141 149 155 155 148 149 142 154 147 148 154 146 142 148 150 145 140 140 143 139 135 135 140 147 158 157 158 154 151 147 145 153 150 151 158 170 181 190 155 96 77 98 97 85 101 88 69 56 75 79 89 95 95 71 68 95 113 134 136 102 61 50 67 55 54 59 54 51 43 45 49 53 55 55 61 67 71 61 63 73 80 72 55 46 48 57 56 44 28 27 26 38 31 20 12 24 36 56 49 55 66 57 48 
36 54 54 40 47 45 46 41 33 24 27 27 28 28 22 24 30 29 32 47 58 55 52 45 33 27 25 29 38 45 54 57 54 65 74 73 71 61 81 133 178 192 163 145 144 144 142 148 148 148 149 140 138 144 149 144 143 146 145 150 151 148 159 154 149 145 150 146 142 141 149 157 146 146 145 143 137 140 136 135 136 135 136 138 135 135 134 129 122 129 148 164 154 141 150 168 172 142 121 89 60 43 42 40 38 35 29 22 18 18 22 18 19 19 22 28 31 24 19 20 19 20 24 25 25 24 23 23 29 31 29 30 39 48 41 36 40 59 77 98 119 143 177 219 247 247 227 187 151 142 140 147 146 144 138 134 128 133 138 137 139 141 138 143 146 150 153 159 149 143 153 152 167 175 174 171 171 163 156 160 155 153 150 144 151 154 153 150 138 145 148 149 143 148 146 144 146 150 144 141 141 141 138 140 143 143 151 156 155 152 154 148 150 158 158 155 154 158 169 179 181 148 89 86 100 108 72 81 81 70 83 91 97 97 114 100 82 98 105 125 135 107 66 37 44 62 63 64 64 58 41 35 45 53 56 62 64 66 79 77 66 49 51 65 70 71 60 39 41 38 34 24 19 24 25 22 18 15 15 34 43 47 37 36 34 29 
57 51 36 34 37 49 42 39 31 26 26 22 24 25 27 34 39 37 37 51 65 65 55 47 37 27 30 38 42 43 57 58 55 57 63 72 72 69 72 107 158 189 171 148 143 140 144 151 155 155 147 143 136 138 139 140 143 144 143 149 151 147 141 145 146 150 155 151 140 142 149 151 151 149 143 140 137 138 136 135 131 137 137 139 137 134 136 120 124 147 167 161 161 153 161 168 141 120 95 72 46 43 40 36 30 26 23 19 20 21 18 20 19 18 22 30 37 33 26 21 20 21 27 28 26 28 26 22 22 25 30 36 33 35 38 35 43 44 53 84 102 121 149 181 225 248 241 206 163 140 138 140 142 147 145 141 135 133 132 133 136 143 142 146 142 137 150 155 152 149 150 152 167 175 174 176 178 169 165 159 158 153 155 153 152 151 152 148 141 141 147 143 145 146 151 148 147 142 138 140 142 148 145 151 152 148 152 156 158 155 151 152 153 156 168 149 156 162 167 178 175 144 92 75 93 84 78 78 76 86 94 99 95 90 103 93 94 99 115 128 123 84 44 33 34 57 71 67 71 57 45 34 34 41 49 53 56 67 79 83 68 43 33 39 62 75 67 63 47 41 33 23 23 22 19 26 17 18 20 29 46 42 35 22 24 25 
59 40 27 26 34 42 37 30 24 27 27 21 20 25 32 42 52 51 39 42 58 63 60 51 39 33 41 44 40 41 56 56 47 46 47 47 59 58 57 87 131 177 173 144 143 145 155 168 175 172 156 140 134 135 139 149 148 144 141 142 150 149 147 145 148 151 154 152 142 139 148 157 151 151 153 138 137 140 140 137 141 135 139 139 131 132 136 113 130 151 154 155 147 162 169 149 122 85 73 48 42 41 35 30 25 23 21 21 21 19 20 20 19 18 19 24 33 34 30 24 19 23 28 30 27 27 25 24 22 27 36 36 29 29 35 41 41 45 48 61 89 101 121 148 190 231 244 223 177 148 139 148 151 151 155 150 134 133 134 129 137 144 150 153 143 134 136 156 155 154 154 162 167 185 191 174 167 166 158 156 149 155 157 152 147 146 149 146 139 142 142 145 145 148 154 149 145 142 137 143 154 151 148 152 154 148 147 163 158 157 157 152 141 150 153 153 150 157 164 175 174 134 91 66 58 83 83 93 83 83 94 99 76 71 85 84 98 94 100 114 115 66 39 35 36 63 65 64 70 65 44 35 32 40 46 50 58 67 81 80 61 49 41 41 53 53 66 68 69 68 53 34 26 22 27 28 21 18 33 32 37 39 30 25 26 27 
26 28 28 26 33 36 30 23 24 28 28 22 23 26 30 51 64 60 44 35 43 61 66 59 44 39 43 41 37 37 48 48 40 41 37 29 35 44 49 73 117 167 174 154 149 150 151 160 167 167 161 143 140 132 142 148 154 146 142 141 145 153 150 149 145 143 153 149 137 142 149 150 148 151 157 150 139 146 145 143 140 138 139 138 133 138 131 125 132 142 136 127 146 164 156 135 104 76 50 41 39 35 29 24 24 22 21 20 20 20 20 20 19 19 19 18 22 27 27 21 20 19 23 28 24 24 25 23 25 30 34 32 28 29 40 42 40 40 46 52 60 83 95 124 158 202 233 230 197 161 145 142 146 146 147 150 135 132 135 136 135 143 148 148 147 140 139 144 151 155 162 159 171 182 189 184 168 161 163 159 153 150 150 149 144 139 141 147 140 143 149 143 146 150 152 151 143 139 138 147 155 149 151 158 157 154 156 157 160 153 158 146 137 133 150 149 156 158 176 183 169 121 78 59 55 72 93 93 87 78 84 86 72 71 74 91 100 97 85 98 89 54 35 34 47 61 55 50 63 68 48 31 37 51 57 56 72 86 82 69 66 68 58 64 62 55 46 58 69 73 69 50 34 29 28 32 24 43 50 39 31 29 30 39 39 22 
16 26 36 41 38 32 29 26 28 31 32 29 33 34 34 50 61 56 45 38 38 53 60 58 44 35 36 34 33 38 40 44 44 46 39 26 26 37 47 70 105 159 182 159 148 146 149 143 143 150 145 152 145 140 137 149 149 146 144 142 141 145 147 143 144 146 155 157 149 147 151 148 141 148 157 159 150 145 147 142 140 134 135 139 129 120 117 124 139 133 125 131 156 162 144 117 89 62 43 38 34 28 25 24 23 22 21 20 20 20 20 20 20 20 19 18 19 21 21 22 20 21 21 22 23 24 21 23 26 30 30 27 29 33 40 43 43 39 39 44 46 56 81 104 136 171 217 229 215 188 165 142 137 134 141 145 140 128 132 131 139 140 139 147 143 144 145 140 134 142 153 149 150 165 186 185 171 157 163 159 157 149 151 153 149 141 147 144 147 149 148 148 145 146 158 156 151 148 135 144 148 150 153 161 162 156 157 161 157 161 153 151 136 142 146 148 156 171 190 185 146 87 54 57 63 76 75 87 85 78 81 81 66 76 79 82 105 125 112 95 90 48 29 37 58 69 53 58 66 67 47 46 56 61 52 50 66 75 70 57 70 85 75 68 73 66 54 49 49 63 74 58 41 31 28 39 57 62 57 42 22 22 39 57 55 18 
21 31 42 47 37 27 22 27 26 27 27 26 34 37 40 52 56 51 52 50 40 37 39 38 39 30 30 27 30 35 37 41 45 41 33 26 24 34 45 56 92 140 180 168 150 154 151 150 147 148 144 149 147 139 141 143 147 146 142 141 138 140 142 146 142 144 151 154 149 147 150 147 139 139 153 155 146 146 140 145 138 127 132 133 128 116 118 138 156 146 139 157 170 157 126 94 69 47 40 35 30 25 24 24 23 22 21 20 20 20 20 20 21 21 19 19 23 24 21 19 23 22 20 23 22 21 24 23 26 29 27 23 28 31 36 47 46 40 36 35 39 41 59 83 111 145 195 219 218 207 188 160 136 137 140 155 138 130 129 137 141 141 149 142 141 141 135 138 139 145 146 146 143 149 168 178 162 151 146 150 143 143 144 151 149 150 150 153 147 150 151 147 146 152 159 164 169 161 156 146 150 147 157 159 154 157 154 161 165 162 158 139 143 143 152 149 155 178 200 180 121 59 34 60 68 68 75 81 86 81 76 74 66 80 82 71 110 143 123 97 88 57 32 40 67 73 80 67 63 59 59 68 84 67 45 34 53 63 59 66 75 86 71 58 68 68 67 57 49 59 68 74 44 41 50 67 73 69 48 23 23 28 41 56 56 28 
27 27 33 31 26 17 18 23 24 23 25 28 37 45 50 64 55 46 49 51 40 30 24 29 35 32 28 25 28 30 36 38 36 27 22 22 21 27 35 46 68 117 159 174 154 147 152 149 153 153 151 146 146 135 135 139 142 144 142 141 139 139 144 145 144 141 142 143 142 145 143 149 143 137 137 147 144 135 154 164 154 132 131 131 133 126 127 155 156 150 151 170 171 143 111 79 54 41 38 31 27 25 25 24 23 22 21 20 20 20 20 21 23 22 19 20 25 26 23 21 20 27 32 27 24 24 22 25 27 28 24 22 26 28 38 47 48 36 34 33 32 36 38 61 81 122 168 204 212 212 200 167 149 141 149 153 143 127 129 138 147 147 145 146 141 136 145 151 157 151 149 144 143 138 146 151 144 139 139 141 142 139 141 145 151 147 153 148 150 146 152 151 159 163 159 162 164 168 158 162 156 156 154 151 154 153 159 159 163 166 151 139 143 150 152 154 155 179 204 163 98 42 31 46 57 61 68 79 77 69 69 73 72 94 96 86 102 118 96 81 78 64 38 47 76 82 89 98 66 68 75 97 103 73 45 42 54 57 62 81 88 75 58 46 47 56 62 59 46 38 75 82 71 66 64 77 70 46 23 23 31 33 39 50 32 15 
28 27 29 26 22 18 24 26 28 27 31 37 44 49 61 69 61 51 49 47 37 30 24 28 34 29 24 26 25 30 34 33 26 20 22 22 23 26 34 45 63 119 162 176 161 143 143 142 146 152 152 160 158 153 136 134 142 150 149 145 142 141 142 142 140 141 146 149 148 149 151 153 151 140 139 139 135 146 175 202 192 157 140 138 135 129 143 156 149 149 164 177 164 129 103 75 47 40 34 28 26 25 25 24 23 22 21 21 21 21 20 21 23 22 20 20 22 24 24 22 27 39 48 42 30 24 24 26 27 28 26 23 25 29 38 44 43 34 34 36 31 33 37 42 66 104 150 191 211 210 198 175 147 141 142 151 141 134 130 136 146 148 142 142 139 142 145 156 154 146 145 144 147 145 140 139 136 135 143 145 155 144 141 148 155 154 146 144 143 149 147 149 149 160 155 147 153 153 160 157 165 160 157 150 152 155 152 155 155 161 154 146 154 154 156 158 162 189 198 143 75 32 23 48 58 58 65 71 80 62 57 74 83 102 102 87 76 80 73 72 81 62 47 67 84 86 97 100 83 73 73 101 100 74 55 51 47 41 64 86 89 77 73 72 59 76 87 75 54 49 82 111 88 69 71 67 50 33 27 31 38 41 50 42 46 56 
15 29 26 25 21 24 28 36 37 35 39 46 45 43 54 67 64 63 60 47 33 27 25 27 28 21 20 24 23 29 33 24 20 20 25 25 23 25 38 46 78 121 169 190 165 143 145 144 143 144 150 156 167 164 144 138 146 150 147 142 142 143 141 138 141 147 153 154 155 152 150 156 153 151 150 145 137 144 179 220 202 164 141 131 128 134 162 175 154 156 177 179 148 112 89 64 43 36 30 27 26 25 24 23 23 22 22 21 21 21 20 20 22 21 21 23 22 21 23 28 31 42 52 43 32 28 24 27 28 31 33 27 25 28 33 41 35 39 40 38 33 34 37 36 57 91 135 177 206 208 202 185 154 143 149 149 155 148 131 131 139 139 147 141 151 151 145 144 141 141 148 153 149 149 150 145 141 147 140 151 157 153 144 154 164 154 150 147 150 148 152 150 157 158 157 149 151 150 149 161 155 157 158 159 162 154 158 159 156 154 151 147 155 156 159 159 164 187 171 109 52 31 40 58 65 61 62 79 89 87 63 71 90 94 91 70 54 59 68 84 81 70 61 83 99 94 102 103 87 63 69 86 97 80 79 72 67 66 69 84 88 108 115 109 114 116 113 102 83 83 111 115 79 74 60 53 40 31 35 40 48 51 44 55 54 49 
21 28 27 21 24 26 32 35 36 37 44 51 46 41 53 69 69 77 70 51 34 26 26 28 28 20 17 19 25 28 33 23 18 21 25 24 20 21 34 47 50 97 130 173 172 151 147 147 146 148 142 145 155 156 142 139 140 142 141 140 147 148 142 142 147 147 152 147 150 156 150 156 153 151 162 153 140 143 169 189 183 145 132 125 132 142 180 185 160 161 178 171 125 99 77 54 42 33 29 26 26 24 24 23 23 22 21 21 21 21 20 20 20 21 23 25 23 22 24 28 30 32 37 35 30 26 27 23 26 35 38 33 28 28 34 37 42 40 41 43 33 31 38 36 42 73 112 160 194 206 211 195 161 148 147 152 152 151 136 130 136 145 140 152 152 151 147 137 136 142 154 148 146 150 149 152 153 151 150 144 156 152 155 153 154 147 144 146 154 157 156 157 157 164 157 153 147 153 163 154 162 152 155 166 165 163 161 160 158 144 137 139 147 153 158 154 175 185 143 85 51 47 56 64 64 49 50 65 88 89 78 78 88 77 61 48 52 47 62 85 89 86 71 83 89 102 102 112 86 68 65 88 85 88 97 102 89 88 79 85 114 128 141 139 127 119 109 101 101 98 120 115 104 83 69 53 33 37 38 43 60 52 53 61 66 43 
43 33 22 22 27 29 30 31 29 37 46 56 56 50 63 70 68 72 65 51 35 25 28 28 29 26 20 20 22 29 32 21 19 27 26 21 19 20 42 50 40 59 102 162 196 172 152 153 148 148 146 140 140 144 141 136 139 137 142 147 152 152 143 146 150 148 145 143 140 148 153 154 152 153 156 157 144 139 152 160 150 135 131 139 139 156 186 175 157 156 183 158 114 89 65 49 39 31 28 27 24 24 24 24 23 22 22 21 21 21 20 19 20 20 21 23 23 22 23 25 27 25 29 32 30 27 24 28 33 39 43 38 34 35 40 50 48 44 42 49 39 32 38 32 31 51 85 144 185 205 207 200 163 148 152 149 156 166 144 142 144 144 148 140 144 142 137 141 141 141 149 141 143 150 153 147 150 159 154 148 150 148 150 151 143 140 145 147 152 157 152 148 148 148 152 148 150 154 163 165 154 153 151 157 165 164 162 158 142 138 134 137 145 157 162 162 184 180 133 75 52 49 53 55 48 46 40 43 59 75 77 84 91 72 51 56 57 61 75 93 101 104 79 75 75 83 105 93 82 74 83 91 95 95 108 101 97 92 112 126 143 153 141 134 129 121 113 113 102 93 109 128 110 95 65 35 32 33 30 39 58 63 53 58 72 88 
43 29 20 21 25 28 30 29 31 36 47 54 64 57 63 66 48 49 49 45 37 30 24 29 28 27 24 23 25 32 32 23 24 27 26 21 19 27 43 48 37 45 84 171 206 195 166 145 155 152 148 143 142 143 142 144 137 142 143 152 159 146 143 141 145 146 149 146 147 146 147 151 146 140 148 145 142 138 137 142 130 126 130 127 135 160 174 162 142 154 177 153 109 85 58 46 37 31 28 26 24 24 24 24 24 22 21 21 22 21 19 19 19 20 21 21 22 24 25 27 27 26 29 33 32 28 30 37 48 44 43 38 31 36 47 55 56 47 53 63 55 37 37 33 33 39 69 133 186 201 210 199 174 157 152 150 167 175 152 141 144 145 145 146 141 140 141 145 148 145 140 138 141 152 152 155 150 156 160 155 152 148 152 151 151 148 150 145 149 148 143 142 147 155 153 158 153 162 163 159 160 149 148 148 155 164 165 151 145 140 140 138 146 164 166 170 181 164 102 59 43 45 42 47 55 45 49 54 53 68 67 78 87 70 57 66 75 77 86 96 109 98 92 85 71 81 84 80 70 85 104 119 114 121 110 104 90 108 128 148 148 133 114 110 103 100 108 110 97 86 98 104 101 74 41 33 34 33 26 39 62 68 59 60 59 61 
28 23 19 20 23 26 29 31 28 34 35 48 55 58 64 61 43 40 41 39 35 32 31 27 29 28 31 33 35 42 41 27 25 26 25 24 27 32 39 49 35 43 80 154 214 204 166 158 156 153 148 146 146 145 148 147 139 137 145 153 154 148 139 142 139 141 147 147 146 144 141 138 136 135 138 141 139 137 139 133 131 128 132 128 131 160 187 160 150 158 180 148 106 82 56 43 36 30 28 26 24 24 23 24 23 22 21 21 21 21 20 20 20 20 21 22 23 25 28 30 28 27 30 33 33 29 29 42 48 51 44 36 30 31 47 50 49 51 58 81 75 58 45 40 36 37 58 123 184 200 205 202 179 161 153 151 169 181 152 139 143 144 146 149 146 142 141 146 152 152 143 139 146 152 154 152 151 148 154 155 155 159 164 163 161 156 151 149 145 142 141 144 157 158 161 158 155 154 165 158 160 159 148 146 147 161 161 149 147 152 145 144 147 154 168 169 174 126 74 46 43 43 42 43 49 53 67 69 74 61 57 65 75 65 62 74 85 83 98 97 92 105 111 106 76 85 83 64 63 94 119 133 139 142 139 123 117 121 124 127 116 94 81 67 56 61 72 73 77 78 73 84 77 54 42 39 48 39 36 39 60 64 64 63 61 53 
19 20 19 21 22 24 28 27 27 28 32 36 45 44 53 55 51 52 48 36 29 29 30 31 31 31 40 46 46 52 46 33 25 26 26 28 33 34 44 44 48 46 73 146 203 209 175 155 157 152 144 142 146 145 153 159 146 134 135 146 149 140 144 144 142 142 143 141 138 136 133 133 132 133 134 142 140 138 138 140 134 134 138 136 137 169 190 169 163 170 182 142 104 78 51 40 33 28 27 26 24 23 23 23 23 22 21 21 23 22 21 20 19 21 23 25 24 25 27 26 27 27 29 30 34 32 27 34 45 51 47 36 27 40 55 51 46 45 56 76 85 69 56 47 46 38 51 116 175 190 202 201 175 159 152 152 162 179 152 135 141 140 141 142 141 136 134 146 151 153 147 143 152 157 152 150 142 143 143 145 155 155 159 159 153 152 151 152 148 146 143 150 155 162 158 157 157 160 149 158 159 161 154 147 148 152 155 143 145 157 171 155 160 164 169 178 158 103 61 57 55 54 45 45 62 66 72 89 75 53 56 75 76 83 74 88 91 100 109 111 97 106 112 108 86 87 86 68 73 85 104 113 122 137 144 155 155 133 117 99 84 75 53 43 41 41 41 42 64 70 59 64 60 49 45 59 64 64 58 55 55 62 57 63 69 84 
32 28 27 29 31 32 32 32 28 29 33 33 33 33 44 46 47 51 46 30 25 26 27 31 32 31 43 51 48 55 48 36 29 24 27 27 30 35 32 40 40 39 60 122 173 212 194 160 155 150 147 144 146 152 158 167 157 136 134 143 145 142 144 141 141 142 143 139 138 139 137 135 134 130 136 142 143 135 136 136 135 134 135 138 139 168 184 173 158 176 177 136 100 74 47 37 31 28 27 26 24 23 22 23 24 23 22 23 25 24 21 20 20 22 25 26 26 24 23 27 26 26 29 29 34 37 38 38 47 57 50 34 33 53 72 67 56 56 68 75 83 68 52 49 56 47 54 108 169 189 203 205 177 158 152 162 167 171 149 138 137 134 133 136 137 134 138 143 150 152 148 145 154 158 147 144 141 143 144 143 146 145 146 140 144 143 150 151 151 147 146 147 153 156 155 161 159 159 158 138 148 154 156 153 148 152 152 138 144 174 168 165 153 154 170 177 137 84 71 76 87 69 62 73 80 81 88 90 67 57 76 99 110 104 92 93 84 84 99 92 85 74 85 82 72 76 79 69 73 80 85 106 123 135 152 173 169 141 104 95 86 74 63 54 51 44 33 33 60 65 46 58 45 47 70 73 77 78 84 88 76 64 63 64 71 44 
47 41 40 41 42 42 41 38 40 45 38 37 34 47 50 44 38 36 35 29 27 26 27 32 34 31 41 47 47 58 51 38 30 26 26 28 35 38 38 43 42 43 48 72 130 196 212 181 157 155 154 147 149 157 162 166 151 140 136 138 142 139 142 140 136 139 145 144 147 148 144 142 141 136 139 147 144 135 131 133 137 134 135 137 139 164 192 168 156 165 169 130 98 74 48 36 31 29 28 27 26 25 23 23 24 23 22 23 26 24 21 20 21 23 24 25 26 24 24 25 29 30 29 26 31 37 40 42 45 64 53 39 46 59 86 82 72 77 80 76 73 63 46 54 69 66 66 100 158 184 195 202 179 168 176 184 190 183 150 135 138 135 131 133 135 133 136 142 141 147 150 147 148 150 145 139 144 146 149 149 145 146 142 147 152 148 151 153 149 146 144 144 147 148 150 146 157 168 164 154 143 153 155 160 155 159 148 137 147 160 165 150 150 160 180 167 118 75 65 88 90 71 64 62 72 75 83 77 69 65 95 123 123 109 95 80 76 70 79 79 78 68 61 60 60 71 63 69 67 54 63 91 109 130 148 177 191 158 122 101 86 81 65 57 54 41 29 33 55 57 50 53 55 81 90 72 57 65 91 94 93 90 67 68 64 48 
50 45 44 43 41 41 41 45 52 56 56 44 47 57 55 39 32 32 39 39 33 26 24 31 36 34 41 42 46 65 55 39 30 28 28 37 49 46 57 67 72 64 54 63 95 172 220 199 164 159 152 151 158 161 157 150 150 136 131 131 135 142 144 143 141 142 145 143 148 148 142 142 143 139 135 144 140 139 134 133 134 137 137 134 145 175 197 176 156 155 163 127 98 74 49 37 32 30 29 29 29 29 27 26 26 24 22 23 26 25 22 20 22 24 24 23 23 26 27 29 27 27 28 24 22 26 29 34 40 55 50 46 51 59 82 89 84 77 74 55 62 57 47 63 84 81 79 101 143 167 179 182 180 173 175 189 199 187 151 139 140 139 133 134 135 136 135 141 135 141 143 143 149 151 143 147 142 151 149 147 151 150 149 155 160 156 154 157 149 148 148 149 146 150 143 145 150 163 165 155 147 146 149 151 157 146 142 130 138 152 154 159 183 199 188 152 89 53 54 68 81 61 56 55 59 59 70 79 77 90 99 103 96 88 66 68 60 60 67 73 80 76 61 55 59 60 61 59 56 42 44 62 80 94 120 170 196 183 154 116 94 81 65 56 49 32 25 34 51 50 45 61 74 105 103 74 67 62 68 82 92 86 92 70 60 58 
46 42 40 38 37 37 37 41 48 55 50 48 53 51 43 28 25 30 38 38 32 28 30 32 36 36 35 38 47 72 60 38 30 23 33 50 51 52 64 92 91 82 71 58 74 133 198 209 183 156 159 159 161 163 155 153 156 154 148 134 139 146 154 153 150 147 144 140 142 146 140 142 144 135 136 135 143 143 144 136 133 140 138 141 153 179 200 182 150 159 160 130 98 75 49 38 33 32 30 30 32 32 31 29 27 25 24 25 27 26 23 21 23 24 25 23 21 26 33 37 26 22 22 20 19 22 30 36 43 55 50 59 78 63 77 88 79 71 65 51 56 62 61 80 102 103 111 121 148 161 162 170 166 173 166 177 194 188 153 141 148 148 140 137 138 142 142 139 140 140 142 148 156 152 150 148 155 152 155 148 146 152 151 149 154 152 156 155 153 150 151 150 146 148 148 149 154 157 153 144 148 153 151 157 145 141 128 130 139 142 140 159 187 196 170 114 58 49 55 71 83 79 68 67 53 57 93 114 133 142 128 100 86 66 68 61 59 58 62 55 62 60 45 47 50 50 47 53 55 48 47 61 66 74 97 143 164 167 141 115 89 66 53 46 36 25 26 35 44 46 54 79 94 120 102 78 78 64 53 60 69 85 87 86 75 45 
54 42 38 36 33 31 31 31 33 36 42 51 57 53 32 24 25 24 27 26 29 33 35 37 35 29 38 36 57 74 62 45 36 34 39 48 50 44 67 88 92 82 73 71 68 105 179 230 204 174 157 163 167 157 150 151 155 157 153 144 142 145 152 154 153 150 147 142 151 144 138 141 142 137 131 136 136 148 147 144 142 143 144 146 159 183 199 183 158 159 163 136 104 80 53 39 36 34 32 31 31 30 29 27 27 26 26 28 30 27 23 21 20 23 25 24 19 22 36 41 35 21 21 18 20 21 26 32 41 47 50 86 101 78 75 82 73 66 59 50 58 69 68 85 98 100 109 129 154 155 155 157 155 157 155 165 193 183 147 146 148 147 140 135 138 135 139 139 140 147 149 151 157 148 142 152 155 158 155 151 145 153 152 152 151 147 152 157 155 155 152 150 146 152 152 152 158 162 155 148 159 170 174 169 156 141 141 142 143 139 140 156 179 171 134 87 57 55 61 69 93 89 83 59 58 84 119 141 162 168 151 127 95 84 73 81 72 69 75 68 60 53 55 49 42 42 42 47 53 54 60 73 75 92 108 114 111 97 90 68 51 39 37 39 32 23 25 31 34 35 58 82 107 122 102 94 77 61 55 69 54 48 64 75 81 86 
48 39 33 31 31 30 28 27 26 25 31 45 63 55 36 31 28 26 22 23 27 29 30 34 31 37 43 50 56 64 55 49 43 39 36 38 35 41 56 77 70 66 68 68 70 89 149 212 222 183 158 156 154 154 149 148 149 145 149 147 137 134 139 144 143 145 143 145 154 148 138 139 140 136 139 133 136 142 150 144 142 145 143 148 165 187 209 195 167 167 168 137 109 84 54 40 36 35 31 29 29 27 26 25 24 24 26 28 29 26 22 20 18 19 22 23 19 19 27 39 36 36 23 21 22 23 20 25 29 40 51 78 95 68 69 83 75 63 53 46 61 70 72 69 72 71 86 113 149 147 147 147 149 152 153 166 182 176 153 149 149 145 134 139 135 138 135 139 139 147 147 149 151 145 142 145 147 143 142 143 142 148 158 155 150 146 146 149 159 155 155 151 153 150 148 150 153 166 159 155 159 160 162 156 148 146 152 154 149 147 156 183 183 159 116 83 67 56 61 67 80 80 64 52 81 103 115 112 107 129 124 101 95 82 90 97 99 100 91 85 80 74 59 53 43 39 47 47 53 62 64 85 123 131 131 123 94 77 67 52 39 31 40 43 32 23 26 34 33 38 57 74 92 104 103 80 71 59 79 72 53 30 28 43 64 68 
51 40 33 31 30 30 30 30 28 26 25 34 54 55 44 35 34 30 24 22 25 23 26 30 35 38 43 43 43 46 52 52 49 45 36 34 38 45 56 62 61 61 65 67 70 74 109 180 225 207 175 155 163 156 154 156 149 141 135 142 142 123 134 136 136 137 135 141 152 150 144 141 139 138 135 137 135 141 141 139 140 140 138 151 173 192 207 191 161 160 163 137 110 88 57 39 34 33 30 29 28 25 25 25 24 24 25 26 27 25 23 22 21 21 22 21 20 20 20 30 41 45 39 23 24 24 24 23 31 37 43 58 61 47 67 84 82 62 53 54 65 81 76 70 72 76 82 115 153 151 145 145 152 162 172 177 186 165 151 152 146 137 135 135 138 139 144 139 142 143 147 146 147 152 147 149 147 141 141 141 140 147 151 152 146 142 143 151 158 157 154 160 155 149 148 149 147 157 157 153 152 149 138 137 126 144 144 147 149 154 169 188 171 140 98 77 71 69 67 69 68 61 38 55 95 103 86 53 69 75 77 82 81 81 91 102 104 96 94 81 80 78 65 43 35 47 49 43 50 63 85 128 149 161 147 131 107 86 65 52 36 37 42 41 27 25 31 39 57 69 68 69 72 73 70 62 53 60 66 73 39 30 40 50 63 59 
47 44 36 33 32 30 31 31 29 27 24 26 41 47 39 33 30 29 24 21 23 23 24 30 32 29 35 33 40 45 59 66 60 54 49 47 53 60 59 61 58 61 64 65 69 72 91 148 224 232 195 177 167 166 155 155 151 133 135 143 149 146 134 143 137 137 138 136 145 146 141 141 141 135 139 139 147 140 141 136 139 139 137 147 176 198 201 190 160 157 162 144 116 92 61 38 32 30 28 28 27 25 26 25 25 24 24 25 25 24 24 24 26 27 24 21 22 24 24 25 35 46 42 30 21 25 28 34 36 39 40 39 38 45 64 82 68 57 58 64 73 80 78 79 87 98 98 124 156 159 152 150 149 164 175 199 197 170 151 152 142 138 133 135 139 144 142 142 134 143 146 143 148 146 149 148 149 145 143 144 142 149 149 147 144 144 145 154 158 157 154 159 160 154 151 155 149 151 153 147 147 145 135 137 140 141 145 145 146 156 176 170 153 114 76 60 78 89 73 68 58 38 37 56 83 86 58 58 52 55 67 71 78 83 85 107 112 106 91 84 79 71 65 56 51 62 63 52 60 85 111 144 163 139 132 135 113 78 65 50 53 52 55 40 33 29 27 43 71 82 75 61 62 50 56 58 45 48 59 51 40 49 69 77 63 25 
57 49 39 33 31 29 29 28 27 26 25 24 32 35 31 29 25 25 25 25 27 29 30 34 35 37 41 44 43 44 56 58 54 53 54 50 51 55 57 55 56 62 66 65 66 72 79 122 192 241 220 190 174 166 165 160 156 146 132 146 159 149 142 135 141 135 134 138 141 136 140 141 142 142 137 145 147 144 136 137 136 136 135 143 171 196 204 193 169 156 161 149 121 96 67 42 32 29 27 27 26 24 25 25 24 24 24 24 23 23 23 25 27 29 26 23 24 27 28 26 28 38 38 33 27 27 34 40 38 38 39 33 31 44 59 62 52 45 64 64 60 58 58 62 80 95 109 128 157 165 163 154 154 150 174 198 204 170 153 147 146 142 134 138 144 148 152 144 143 142 151 146 143 145 144 150 151 147 141 141 141 149 149 147 147 145 144 146 152 145 152 156 156 158 160 157 155 160 151 151 145 139 147 145 148 151 152 146 146 163 167 157 128 89 51 47 96 91 80 56 44 43 46 55 74 66 70 74 61 61 75 77 74 78 110 128 129 123 116 97 79 72 76 77 79 97 106 100 108 116 128 137 118 104 116 126 100 77 79 80 82 83 79 64 50 40 28 40 55 66 59 48 60 52 52 59 50 44 48 54 46 69 74 67 51 20 
56 48 42 34 30 30 28 30 27 29 29 27 28 29 32 28 28 30 35 40 40 35 34 33 35 42 48 52 49 43 41 45 42 47 52 49 43 45 48 51 51 59 66 69 69 74 75 89 158 219 236 205 178 163 160 166 152 147 140 135 147 143 134 137 140 138 134 138 141 138 134 139 145 142 138 133 138 133 137 139 137 136 139 148 172 197 205 203 176 154 158 152 128 100 71 45 32 29 28 26 26 25 25 25 24 24 24 24 24 24 24 25 26 26 24 22 23 24 24 29 30 32 38 34 34 32 40 39 38 33 34 30 29 39 49 52 42 53 73 71 62 56 56 52 57 77 106 129 159 176 170 157 154 164 181 204 195 167 146 149 147 152 151 137 140 149 154 154 145 146 150 149 152 149 147 148 151 151 147 142 141 144 145 140 144 144 144 146 147 145 150 148 153 157 162 158 153 153 153 145 136 135 131 146 143 144 153 152 155 170 157 145 110 72 40 67 91 93 74 53 53 59 60 74 72 76 80 83 71 78 95 84 79 109 129 144 130 128 126 121 95 76 77 85 92 125 144 144 149 134 123 100 86 83 104 98 73 71 86 87 75 82 90 93 94 71 44 38 42 45 47 47 60 60 55 57 48 44 48 54 65 75 75 55 32 21 
29 38 38 34 36 39 39 40 35 37 39 35 36 39 39 40 37 40 44 48 47 40 34 30 29 35 45 50 55 49 43 42 40 42 47 46 44 46 50 47 45 51 59 70 77 82 73 76 116 196 238 226 195 168 159 150 152 147 145 133 140 139 131 145 138 135 132 138 143 138 135 137 144 148 144 142 134 132 142 146 139 140 146 151 167 192 211 207 189 168 166 160 139 109 81 50 34 30 30 27 28 28 27 26 25 25 25 25 24 24 24 25 26 24 22 22 22 24 28 37 35 33 32 37 33 37 38 44 37 31 34 32 36 46 51 55 49 50 67 67 58 66 59 55 44 72 111 135 159 181 169 158 160 182 204 204 188 155 147 144 153 168 168 159 139 142 155 161 153 147 152 150 155 167 158 147 145 149 148 144 144 144 142 146 144 144 145 150 144 146 146 145 153 162 167 155 146 145 140 135 133 129 132 140 141 145 148 155 176 172 146 115 91 48 44 75 82 78 65 62 54 67 89 77 87 87 81 84 69 82 102 82 98 131 139 126 126 121 143 136 109 87 82 90 105 144 146 145 131 110 87 82 81 92 82 67 43 46 68 52 44 43 67 94 108 100 86 67 49 42 49 43 59 62 57 45 45 41 46 54 60 85 76 49 40 39 
26 27 29 34 39 46 54 52 41 38 41 43 44 44 47 45 42 40 37 37 39 37 34 27 23 25 33 38 42 46 48 51 48 39 40 36 39 47 43 43 40 41 52 70 86 92 81 69 95 156 227 246 224 189 164 158 149 152 144 143 143 147 150 143 146 130 127 136 139 135 135 137 143 148 150 147 144 139 142 147 143 138 146 153 158 186 208 209 202 190 178 175 155 122 91 64 38 32 33 29 29 29 27 26 26 25 25 25 24 22 23 24 26 23 21 24 24 28 46 44 37 32 35 35 37 33 41 46 37 32 36 41 43 46 48 50 47 42 53 50 61 65 71 58 54 88 130 147 165 176 170 156 168 190 208 205 174 155 145 142 149 162 172 169 159 139 149 162 166 172 175 157 159 166 168 153 144 150 147 147 147 146 152 150 151 147 149 148 150 146 152 157 158 166 165 159 150 150 133 131 129 132 131 133 136 142 159 177 186 168 121 83 61 33 50 71 72 60 70 56 58 98 113 100 92 81 73 73 59 81 99 96 121 129 103 93 98 113 139 139 111 94 88 102 126 144 138 113 102 75 80 86 94 79 72 45 32 38 41 41 25 22 29 40 59 81 96 104 91 58 54 50 55 58 42 37 40 52 54 53 77 88 75 59 55 64 
11 17 26 31 35 46 56 61 40 33 42 48 51 50 47 41 37 31 28 28 31 31 24 24 20 23 31 34 34 41 47 58 53 42 32 31 37 34 42 40 38 37 47 63 85 95 84 74 74 121 189 246 241 214 183 168 161 153 148 146 152 147 147 151 142 138 122 133 135 138 137 137 144 142 145 145 137 135 144 143 135 137 139 147 159 181 212 215 205 195 185 175 171 140 110 76 48 33 32 31 29 30 26 26 26 25 25 25 25 25 23 24 25 25 24 25 29 38 43 44 30 29 37 39 30 32 41 42 38 29 34 37 33 32 31 37 47 48 41 46 56 68 74 68 78 114 151 162 176 178 157 162 169 194 209 200 180 154 147 151 150 155 158 166 170 158 135 144 158 169 181 174 160 163 153 147 146 148 150 145 151 151 150 154 156 151 145 150 149 150 155 160 165 159 159 160 162 152 135 119 131 135 127 131 136 152 185 198 180 139 89 66 37 31 47 71 66 64 68 61 74 118 125 93 67 57 47 64 67 82 111 127 123 93 59 62 86 106 131 130 107 103 110 114 122 128 105 95 94 100 105 104 88 73 53 46 42 31 42 30 23 22 28 18 25 52 80 104 95 79 64 65 72 66 50 47 55 64 57 66 92 99 79 72 78 93 
14 17 24 36 43 49 66 64 44 36 42 51 57 59 58 52 45 38 32 28 28 30 28 18 20 24 32 39 45 44 46 52 53 42 35 34 37 38 36 38 35 38 42 58 73 83 79 74 66 84 152 217 253 230 209 184 172 167 157 153 148 143 142 145 152 137 128 130 141 145 142 136 137 139 140 143 136 132 137 139 137 131 136 142 146 170 200 211 210 199 184 185 185 158 125 95 58 38 34 32 32 30 29 27 26 25 25 27 31 31 27 25 27 27 27 31 34 36 39 35 26 32 41 37 30 31 34 37 34 38 35 26 24 23 23 33 53 64 44 38 51 64 68 76 99 140 161 170 188 178 158 156 172 195 207 199 174 155 143 143 160 157 140 158 169 165 157 140 143 153 165 173 168 165 157 143 145 152 150 148 147 147 148 150 155 153 149 148 148 144 150 157 157 154 159 159 157 152 128 117 125 139 137 147 161 194 220 204 154 96 72 53 39 38 57 76 75 77 72 69 85 103 97 55 42 29 31 59 68 91 120 135 104 56 39 55 95 102 114 116 111 134 143 146 123 112 101 110 131 126 115 101 79 54 52 49 40 40 42 35 25 36 35 31 25 37 56 51 70 53 43 71 76 61 62 62 65 63 60 75 97 105 93 96 106 119 
20 19 27 41 48 53 61 63 48 45 47 47 48 51 55 58 57 50 45 35 29 36 36 31 25 22 27 39 52 52 45 51 51 41 38 41 47 47 39 39 36 36 46 54 73 74 74 75 67 67 111 180 235 248 224 204 182 174 168 162 151 145 142 141 148 140 125 132 137 144 143 134 132 134 141 145 137 134 137 137 140 140 140 143 147 161 193 216 220 211 202 203 201 175 140 113 80 48 40 39 34 31 30 29 27 27 28 31 38 39 31 26 27 30 33 36 37 32 33 32 35 34 39 40 34 35 38 35 40 45 49 36 23 33 35 34 56 69 59 36 42 49 59 83 118 147 166 174 189 189 169 159 169 196 199 190 173 148 138 139 144 152 146 142 161 166 160 159 148 143 148 155 166 164 156 151 146 146 150 146 144 144 146 142 153 155 152 155 151 142 147 151 148 160 161 162 147 141 132 129 146 150 148 158 182 211 211 173 101 58 54 44 43 58 80 90 83 81 85 74 76 81 57 36 31 24 29 58 91 107 132 134 82 42 48 72 97 110 104 105 118 147 163 143 127 120 125 143 124 113 102 89 70 62 47 45 44 50 51 38 35 39 39 20 20 42 48 41 38 38 51 73 76 64 60 74 68 64 69 77 90 94 105 115 115 126 
24 25 30 39 43 47 55 61 59 57 55 50 49 49 50 50 56 56 56 47 37 40 40 34 31 24 22 33 50 55 47 55 51 41 39 41 50 51 47 39 40 43 47 57 71 73 73 74 71 69 80 136 197 247 247 222 197 179 177 177 165 161 154 148 144 143 137 145 135 138 139 132 132 132 138 136 134 135 130 136 138 143 145 146 149 159 192 213 224 219 214 211 204 179 155 128 102 66 48 48 41 34 32 32 30 30 30 34 47 49 35 26 28 33 37 37 35 28 27 39 42 39 40 38 34 38 37 34 35 46 51 42 35 41 45 40 47 68 71 54 30 38 67 106 139 165 176 174 188 197 188 177 188 198 196 183 164 147 138 138 143 144 142 147 144 154 160 157 152 148 139 148 147 150 147 141 144 142 152 149 146 148 153 152 151 156 156 153 150 145 148 148 150 157 164 141 126 127 137 147 165 164 158 166 192 206 176 114 63 43 42 38 45 67 92 91 81 102 109 85 72 69 47 45 45 34 36 71 114 136 142 134 73 48 69 80 114 118 106 104 117 148 148 128 124 129 134 112 104 79 74 80 79 60 53 41 57 61 62 45 41 40 25 18 21 44 52 38 37 53 74 89 77 62 64 72 68 62 74 81 82 87 103 107 99 96 
33 30 31 36 43 48 56 62 59 55 52 52 55 53 50 48 43 41 48 49 45 46 43 31 28 27 21 25 40 46 48 51 46 41 41 39 45 50 47 43 38 41 44 47 55 59 56 67 65 67 66 87 154 214 254 242 215 192 183 182 175 170 164 153 144 145 159 155 140 134 135 134 132 131 133 132 135 138 134 124 132 133 138 142 149 161 172 202 222 225 216 211 202 184 172 152 127 95 62 53 49 39 36 34 33 33 32 38 54 57 40 31 34 38 37 35 31 27 33 41 46 42 39 34 31 32 31 28 22 31 43 42 37 39 45 41 39 58 73 67 43 51 91 135 171 185 194 195 198 210 215 211 210 207 188 169 157 142 143 146 147 152 143 143 141 142 146 152 152 146 146 146 152 148 142 145 146 147 153 154 144 147 152 157 160 156 150 148 147 142 145 149 144 157 142 131 122 128 142 155 157 161 166 193 207 188 129 75 44 38 43 36 38 56 71 70 72 102 133 89 60 50 48 55 65 61 42 70 108 138 149 130 83 66 79 94 113 120 96 89 112 133 130 118 106 114 97 93 73 68 63 68 66 79 68 57 52 56 48 36 29 27 23 19 34 43 44 40 52 75 98 105 85 70 70 75 62 63 81 98 93 97 89 91 89 93 
34 34 35 38 42 46 48 49 47 43 42 46 47 43 42 39 35 31 34 41 52 60 50 36 28 28 27 23 31 42 46 50 43 45 50 43 43 51 53 44 37 37 45 40 45 48 50 49 54 60 59 64 105 170 229 252 234 207 184 174 167 165 164 162 159 176 192 168 140 134 126 128 129 132 135 137 140 145 143 132 131 130 136 144 152 157 174 184 226 237 221 212 205 197 189 172 150 120 84 60 50 44 41 40 36 34 35 44 59 58 42 37 40 42 36 32 30 31 37 40 43 39 34 35 40 42 43 34 30 28 35 40 41 44 42 42 42 45 64 67 66 79 110 151 175 185 194 196 198 210 211 213 212 195 176 157 144 145 141 142 152 150 149 139 141 144 143 143 145 147 139 148 152 155 146 149 149 148 157 157 147 146 149 153 157 153 144 139 145 146 148 154 159 141 134 133 137 136 146 146 151 159 188 214 195 141 82 49 38 38 38 28 32 42 50 61 65 115 124 87 44 32 28 52 71 80 57 59 98 124 152 140 99 80 89 98 115 95 76 70 90 107 103 81 76 66 72 66 69 70 50 46 67 75 83 72 55 47 31 22 29 31 35 40 42 50 47 45 51 68 89 92 77 76 78 79 63 77 96 102 102 96 83 84 79 76 
34 39 39 39 41 43 41 40 42 41 42 42 37 32 31 30 28 24 24 29 42 57 59 39 34 30 29 23 25 40 46 54 49 55 59 48 42 47 50 43 35 38 42 43 42 50 46 41 47 54 54 59 70 121 182 240 248 225 197 181 176 173 170 170 175 195 201 186 146 140 134 119 127 135 140 140 139 142 140 138 133 134 134 141 153 157 166 188 215 236 228 216 207 198 196 178 164 139 114 84 59 48 45 45 41 36 37 47 56 54 46 43 41 37 33 28 30 34 35 37 33 37 37 37 52 58 57 55 47 41 32 38 49 51 55 57 50 48 48 67 86 111 128 157 170 175 167 170 177 179 196 200 201 192 178 156 143 142 143 139 144 151 145 141 143 152 148 143 144 141 144 151 157 154 153 146 149 145 158 158 151 150 146 149 150 147 143 144 146 142 148 155 144 129 121 138 148 142 143 148 149 163 199 197 150 93 48 37 33 33 30 27 32 37 55 67 84 111 124 74 41 30 30 37 64 77 73 64 93 114 147 144 118 90 95 117 116 94 68 64 78 70 61 46 38 53 62 67 67 53 39 38 32 47 56 51 48 38 37 30 37 42 39 45 44 44 51 45 52 57 74 78 72 71 90 92 75 84 104 97 95 99 93 81 68 34 
61 47 37 35 38 35 33 35 36 40 42 37 30 27 25 29 25 26 26 23 33 50 59 54 44 38 38 28 24 33 47 57 56 57 60 53 47 41 42 37 37 36 38 40 42 49 46 36 38 47 45 48 58 75 137 193 247 242 220 200 188 179 170 171 164 172 188 172 160 154 142 135 127 131 140 143 135 131 134 131 132 134 138 137 139 147 157 171 199 223 236 230 216 202 206 195 174 166 145 122 87 60 49 47 42 37 38 42 48 50 52 50 37 30 25 26 30 32 33 27 33 42 38 47 51 48 52 51 53 49 37 34 45 56 70 73 62 52 51 79 119 142 167 171 173 162 158 160 170 189 203 204 192 175 164 146 139 141 140 142 146 145 148 142 140 152 147 141 148 143 147 153 154 156 150 155 154 161 170 167 154 150 147 140 142 146 145 145 148 146 143 144 131 117 120 147 160 146 149 144 155 180 174 147 97 50 37 28 28 31 33 29 29 37 49 63 87 105 104 76 46 40 50 37 39 65 72 83 94 104 128 138 120 98 102 123 118 88 70 71 68 53 38 48 57 73 86 80 55 48 39 32 33 33 35 35 28 37 38 37 40 43 39 34 35 37 40 49 54 65 70 70 69 74 95 99 77 97 104 98 95 98 78 63 47 55 
45 51 44 34 35 36 34 29 32 35 38 35 29 26 29 25 31 32 32 29 28 41 54 56 58 49 44 36 24 28 41 59 54 53 59 58 54 47 39 38 39 35 34 33 40 46 44 36 37 38 41 44 51 59 83 150 203 252 241 223 205 183 180 177 160 154 153 160 150 151 153 142 133 127 126 135 137 133 133 131 135 136 138 134 132 131 145 156 175 206 235 239 225 211 207 204 188 176 178 153 124 92 62 49 44 38 35 38 39 45 55 51 34 25 24 23 27 29 27 23 33 43 48 44 51 44 36 38 45 46 39 45 50 58 73 80 65 69 80 109 152 177 180 180 158 150 152 171 195 213 217 203 175 151 142 136 138 144 142 143 142 145 149 147 146 146 145 144 147 147 143 149 142 149 151 149 152 158 165 161 147 146 144 142 142 147 148 150 150 148 142 137 128 128 140 159 172 167 156 163 187 183 148 97 52 37 28 28 30 34 35 29 29 35 42 61 79 88 86 70 50 57 52 56 40 51 72 95 111 98 122 130 118 96 103 115 108 77 66 73 70 57 53 72 91 94 91 77 62 48 52 55 48 42 38 32 26 36 39 29 38 46 41 31 26 23 38 44 63 66 57 58 62 70 91 99 97 106 103 88 79 72 53 31 25 29 
24 53 54 37 37 37 39 35 27 29 34 35 33 33 27 31 32 36 35 29 27 35 45 52 60 52 41 31 25 27 41 60 55 45 49 53 48 41 37 37 38 34 29 32 31 37 37 35 33 33 39 48 51 57 68 94 160 213 252 239 219 205 192 192 176 157 147 152 149 150 152 146 134 128 120 124 131 135 133 133 132 132 134 133 131 128 133 146 157 182 219 242 237 223 215 204 197 194 183 170 155 134 97 64 47 40 38 37 38 42 50 48 32 25 25 25 29 28 24 25 30 44 50 57 59 52 48 40 47 48 51 58 68 63 69 77 81 96 121 145 166 175 183 168 149 149 156 178 206 216 206 181 159 144 136 139 146 144 145 143 137 139 143 143 143 146 142 143 152 149 154 151 149 150 149 145 144 151 151 147 144 145 147 146 144 144 151 153 150 145 135 132 135 140 150 160 167 169 177 192 192 164 104 56 36 29 31 31 31 34 28 31 38 43 48 65 77 69 72 71 51 45 59 54 50 44 66 82 103 84 106 128 120 101 88 104 105 78 63 67 75 63 74 92 91 93 94 91 75 67 72 70 58 45 33 32 33 34 38 28 31 50 46 32 23 24 37 53 67 58 52 56 69 75 93 98 104 108 90 68 70 70 67 51 31 16 
26 57 62 42 39 46 43 43 34 29 32 41 38 32 30 28 35 36 33 30 31 40 48 53 65 52 34 26 25 31 47 62 59 51 52 47 41 35 31 31 31 31 25 26 27 31 34 33 29 28 39 54 58 63 64 70 101 164 221 252 241 223 209 193 176 162 159 147 153 154 153 140 134 135 127 122 126 130 127 129 127 127 132 131 129 132 134 145 152 166 198 226 245 236 223 210 200 192 181 168 174 177 148 108 73 52 42 40 40 40 45 43 33 27 26 27 29 28 26 24 26 37 52 65 71 71 71 70 71 73 64 73 72 68 70 87 110 141 165 170 170 172 180 172 160 166 174 189 211 212 187 161 145 138 141 139 142 148 147 150 148 145 142 145 145 143 143 145 147 148 156 158 154 154 154 154 155 159 154 150 150 148 151 148 141 144 145 151 145 134 129 132 135 140 140 145 154 175 199 190 162 103 56 39 32 31 33 34 34 31 32 33 53 53 60 63 76 60 67 73 56 49 46 52 52 38 49 64 75 64 89 114 126 107 84 89 100 93 60 66 60 60 67 76 62 66 77 81 71 66 70 73 58 41 39 39 42 42 44 35 31 43 43 26 24 34 49 63 65 56 58 65 73 99 89 86 86 93 82 65 61 80 95 84 56 23 
38 57 62 50 45 53 53 44 41 38 41 46 42 33 27 28 34 36 33 34 36 42 48 53 62 53 29 27 32 34 56 71 61 55 57 48 39 34 30 30 33 35 29 26 29 32 38 33 29 28 43 57 62 62 58 56 62 112 177 228 254 241 223 199 175 180 175 158 152 155 154 142 145 143 133 128 124 123 126 127 130 132 141 141 132 130 135 136 143 156 170 203 231 246 237 225 209 200 195 184 195 203 188 159 129 94 66 52 46 42 42 42 37 32 30 30 31 29 27 27 27 34 52 65 70 77 84 85 91 89 76 73 79 87 105 128 153 177 188 175 161 160 174 183 176 186 200 208 217 204 170 148 138 142 139 139 142 140 145 149 149 152 151 148 146 145 141 144 143 148 153 159 156 157 157 162 156 157 155 155 156 154 149 152 145 144 147 148 134 130 129 141 157 145 144 143 170 199 197 167 104 57 37 39 45 36 33 33 39 45 40 44 54 60 58 68 74 67 67 65 55 48 56 53 48 50 46 52 69 65 68 89 115 116 89 89 97 80 66 55 38 34 41 61 42 34 54 55 59 64 74 77 66 54 47 52 50 53 49 39 32 36 32 22 27 45 59 71 66 61 61 62 93 103 105 73 66 74 76 58 52 62 77 80 62 49 
45 50 54 45 50 58 51 43 40 44 50 49 40 31 27 26 31 33 33 39 42 41 43 51 61 48 32 37 42 52 73 79 60 50 55 48 40 38 34 30 34 39 36 33 32 35 44 37 27 31 48 62 65 61 54 49 56 72 130 189 230 254 236 211 187 188 185 168 154 152 154 158 152 148 139 129 128 129 123 129 132 142 149 149 143 135 132 135 140 153 163 179 209 235 247 237 224 213 207 212 212 209 200 190 184 157 122 92 70 55 44 42 37 33 31 31 32 31 27 28 30 38 53 62 66 74 80 82 89 90 85 94 112 133 154 180 180 178 172 162 157 156 173 186 193 206 223 223 207 178 154 135 136 137 147 150 144 144 139 139 139 145 148 151 148 146 144 141 140 143 149 153 157 156 158 168 158 156 154 155 157 153 150 149 149 141 138 133 130 128 136 155 172 186 161 170 197 202 165 106 64 48 50 52 52 46 38 33 41 49 48 52 55 53 53 66 81 73 59 55 51 55 74 74 57 52 47 43 62 59 49 60 87 119 95 85 75 68 52 40 30 18 36 60 45 31 38 43 57 64 72 76 72 65 60 47 48 51 45 33 29 32 28 24 37 51 63 65 64 60 50 57 81 111 96 82 71 69 73 69 61 51 60 64 51 34 
39 42 44 42 52 64 56 47 43 43 46 44 31 24 25 25 28 29 29 37 45 43 41 53 59 41 33 43 51 70 87 79 53 42 49 46 41 38 32 31 29 33 34 35 30 36 49 40 24 30 48 59 57 52 48 52 51 66 92 143 194 227 248 225 204 190 186 172 172 164 169 172 162 147 136 136 137 134 132 128 124 132 143 145 140 136 136 131 137 147 157 162 184 211 239 251 238 227 220 216 219 217 199 200 211 204 182 154 125 106 88 67 54 44 37 33 35 35 32 35 39 47 55 59 64 70 78 84 97 116 125 151 165 177 194 198 195 176 164 162 170 172 177 199 208 226 235 207 176 158 145 137 138 148 154 153 151 143 141 140 135 140 146 147 151 157 154 145 142 144 147 145 148 147 157 161 162 163 157 152 152 150 149 150 140 131 121 127 135 138 146 147 173 179 181 184 194 162 107 68 56 62 65 59 43 42 42 43 37 36 47 54 65 51 56 67 81 66 52 46 50 65 78 82 67 45 42 40 49 52 42 41 81 88 78 63 53 43 40 37 34 29 33 51 45 36 36 48 56 58 58 65 75 83 85 60 54 48 45 35 31 30 27 38 50 57 59 61 62 63 55 60 83 89 85 87 85 79 85 82 68 56 62 62 50 19 
41 37 35 45 52 64 68 64 52 44 48 39 25 22 21 25 27 27 28 33 41 42 38 50 45 35 28 37 53 70 82 61 38 32 40 40 36 34 34 28 29 30 30 30 26 33 44 37 22 29 44 50 48 46 47 52 58 57 75 97 142 181 218 246 228 212 190 186 189 190 200 190 177 160 148 144 144 141 138 130 126 123 130 142 142 139 136 142 139 148 146 155 160 187 215 236 250 241 229 220 220 212 201 201 215 215 212 198 176 167 148 129 112 101 85 71 68 63 57 61 68 74 77 82 98 112 126 145 161 168 185 200 212 207 206 204 197 194 190 187 191 195 199 215 225 228 217 184 153 146 149 150 155 150 149 148 136 131 138 134 137 138 139 144 147 151 152 147 141 147 148 143 140 143 143 148 149 158 155 147 147 149 145 137 128 118 115 132 143 156 161 166 166 181 190 176 156 110 64 54 47 70 68 55 40 40 63 53 36 31 36 57 67 58 57 71 82 69 51 49 55 52 71 72 66 56 43 36 42 49 43 44 51 64 45 45 36 37 36 38 40 35 23 38 39 32 40 48 50 54 50 48 65 89 90 70 62 54 62 63 53 35 36 54 67 63 60 63 66 77 68 64 83 69 69 77 88 88 91 93 73 57 57 57 49 45 
43 36 36 41 50 61 65 70 63 44 46 38 25 19 23 24 26 30 32 33 40 41 37 38 35 24 29 35 40 69 63 43 31 33 43 44 44 46 36 34 32 31 28 27 27 28 39 29 23 32 36 38 40 42 46 46 50 57 64 87 99 126 171 216 249 231 213 200 197 202 196 192 174 167 157 152 144 146 147 153 142 126 128 134 135 133 138 140 146 149 149 143 155 159 182 208 229 245 240 233 224 217 208 209 216 222 225 217 208 199 196 184 179 182 171 152 140 128 111 117 126 132 138 146 167 189 194 203 205 193 197 216 221 222 205 186 178 196 206 210 218 219 224 233 224 210 191 156 137 141 152 152 151 151 141 137 136 137 134 134 137 139 138 142 142 144 151 148 143 140 143 142 139 141 143 138 139 148 149 143 144 150 142 134 126 124 129 136 150 158 173 181 179 177 160 140 107 63 49 44 51 61 67 50 42 57 63 60 46 32 39 53 61 57 64 84 83 82 61 47 50 47 46 69 73 72 53 41 45 55 60 47 40 42 42 45 31 26 31 31 32 27 32 43 47 46 50 57 61 61 49 36 45 64 76 64 66 72 98 121 97 54 45 57 71 66 69 69 83 92 76 67 73 72 62 72 86 98 96 104 93 68 56 42 34 26 
38 33 38 45 48 48 59 70 63 50 47 33 23 21 22 24 25 28 30 32 39 39 39 32 23 23 29 32 43 57 49 29 26 34 47 50 52 44 42 35 36 34 30 31 27 30 32 30 33 43 38 30 35 40 33 35 46 53 68 77 85 79 110 167 216 250 238 223 212 197 194 178 173 174 159 152 158 146 154 162 152 132 133 133 129 128 131 134 140 141 144 157 156 154 160 178 204 226 242 243 241 234 222 219 224 220 228 229 221 227 217 213 207 214 216 205 195 185 177 173 174 174 174 175 190 201 207 213 214 207 206 214 222 216 196 173 176 194 212 223 228 232 236 237 225 206 180 151 139 144 145 145 146 135 133 141 138 140 141 139 142 142 140 146 143 145 149 155 144 139 143 145 143 140 141 139 138 139 144 145 149 148 143 136 139 145 142 144 146 147 173 200 197 164 127 93 64 48 37 40 46 66 55 45 42 57 58 51 46 52 45 53 66 66 87 90 92 86 62 47 48 50 54 66 80 69 54 37 43 66 72 69 60 63 69 72 52 34 43 48 40 46 45 48 50 52 58 64 55 67 49 27 34 48 59 55 71 78 120 149 120 79 52 58 65 77 75 75 98 110 76 64 72 74 81 77 90 95 99 104 106 92 64 36 29 36 
29 31 41 50 52 53 56 68 67 53 44 32 21 21 22 23 25 25 25 30 42 44 37 33 21 22 26 33 42 52 36 21 24 35 50 51 50 51 40 36 39 40 34 32 34 30 31 32 41 50 35 28 30 34 36 40 45 51 54 67 62 58 70 107 167 217 251 243 227 215 196 191 190 183 165 161 158 153 151 150 146 137 139 147 137 128 130 133 129 139 149 159 168 157 150 165 181 199 215 236 245 246 238 233 223 225 221 218 220 217 219 211 205 214 224 223 220 225 223 223 216 212 211 205 209 218 214 226 227 214 212 211 209 206 194 191 203 217 224 232 236 234 226 226 211 196 173 154 148 147 147 138 133 135 143 140 138 141 143 144 148 152 149 146 149 143 147 152 149 144 147 152 147 140 142 139 140 143 157 148 143 145 134 137 147 155 163 147 144 164 188 207 192 142 91 63 52 37 33 35 38 54 46 42 53 59 63 50 65 71 64 76 74 80 86 85 76 76 62 47 52 55 59 73 69 66 50 46 57 65 78 75 71 69 79 81 66 64 67 68 62 58 45 34 35 49 63 54 57 74 51 33 30 38 47 47 63 63 101 116 102 73 63 51 63 75 77 85 112 128 87 61 66 85 92 89 87 90 89 91 101 95 67 37 28 36 
28 33 47 56 56 57 61 66 66 58 42 29 24 23 23 25 30 32 29 34 45 45 36 28 21 22 27 34 42 47 29 17 24 39 49 49 54 54 39 35 35 40 40 32 34 34 29 29 38 43 30 23 27 36 38 47 52 48 48 61 65 63 67 74 107 167 214 248 246 228 217 206 197 194 177 164 165 170 162 158 145 137 150 151 140 138 131 127 128 136 143 155 156 142 154 164 167 168 180 200 219 239 249 242 240 231 224 214 209 214 213 216 212 215 221 223 222 228 235 234 232 230 229 221 219 220 218 218 218 206 204 204 207 210 213 218 225 232 236 234 220 210 203 185 170 164 155 144 145 151 146 137 132 140 144 144 137 139 147 147 147 153 149 148 144 145 145 144 146 142 142 148 145 141 136 138 141 152 161 152 144 138 134 142 160 167 163 161 175 200 201 181 150 92 62 53 51 38 27 33 38 41 47 46 49 68 64 64 81 83 84 76 79 69 75 65 61 74 68 61 55 61 78 88 85 84 83 76 75 79 79 79 74 75 76 82 78 69 69 63 58 56 46 31 35 53 54 54 59 82 56 47 43 38 42 40 60 63 72 82 68 62 57 45 52 71 81 101 140 137 99 88 79 90 103 94 90 96 99 88 90 89 64 38 31 56 
27 37 50 53 54 58 61 64 60 60 45 30 27 24 23 29 37 42 36 36 41 39 32 22 24 30 37 36 36 40 31 19 26 40 44 42 51 47 37 24 32 41 45 37 33 37 27 23 33 31 23 22 23 26 32 39 49 46 48 57 71 79 80 76 74 104 159 204 244 247 234 224 204 198 186 177 182 185 182 170 160 150 149 148 146 136 139 132 129 129 135 137 142 150 149 162 164 154 154 168 183 204 220 236 243 247 242 231 224 222 222 220 218 218 218 221 219 219 219 219 220 219 216 211 212 214 211 214 209 205 209 216 221 224 227 229 229 228 223 204 182 169 160 153 148 150 150 145 142 144 142 140 140 144 152 151 134 147 155 158 153 147 147 143 148 147 142 144 139 139 141 140 142 146 140 139 139 139 152 140 136 146 143 167 192 202 194 193 203 200 168 125 89 66 52 60 53 44 40 45 50 58 59 54 50 54 69 74 77 84 68 72 64 66 69 64 74 89 82 70 66 65 80 92 86 97 89 74 81 76 71 72 81 80 79 86 84 78 70 60 50 52 41 43 54 54 64 53 59 73 51 60 59 43 35 44 56 58 59 55 52 55 45 43 48 62 91 132 147 138 109 99 111 94 97 97 93 106 114 110 99 89 62 40 33 44 
27 38 47 46 48 59 68 57 57 56 50 37 29 25 26 30 37 40 37 36 37 39 36 29 30 36 40 34 27 34 35 30 31 38 40 38 46 44 26 29 29 35 43 39 33 31 26 26 34 26 19 21 20 22 25 32 37 46 42 48 58 69 74 70 65 70 94 148 192 233 252 238 222 205 197 192 194 192 182 170 164 166 162 158 152 148 153 144 136 135 125 123 134 135 144 147 152 157 166 164 155 161 179 193 217 235 242 242 240 237 233 228 227 225 225 225 223 221 217 216 216 214 210 211 217 223 223 226 224 220 225 229 231 234 234 228 219 211 200 176 153 144 143 139 137 148 148 140 139 140 140 139 146 153 166 160 148 153 169 178 158 158 142 151 157 149 148 139 141 138 136 142 148 153 149 140 135 132 136 137 140 144 157 177 218 223 227 209 184 148 98 70 66 53 54 63 54 46 48 62 69 74 85 80 68 66 76 76 86 78 68 63 61 59 54 63 85 99 85 69 64 65 71 71 70 73 71 65 76 75 60 64 79 85 86 83 81 79 74 79 80 63 57 70 74 72 69 60 63 57 37 57 52 37 35 38 59 50 46 45 50 48 45 35 42 65 104 156 169 129 102 106 108 111 90 93 97 88 117 138 125 97 60 42 34 29 
28 36 41 38 38 50 55 47 38 44 46 44 39 30 27 30 31 29 32 36 34 39 41 41 43 42 36 32 23 30 38 30 33 44 46 46 45 40 30 35 38 30 38 39 32 29 31 32 41 31 21 18 19 23 24 26 29 37 40 44 46 46 46 48 60 62 66 84 133 180 222 249 238 226 212 203 199 193 174 173 169 168 170 166 157 159 156 155 145 141 137 130 129 133 128 131 143 154 158 160 147 136 140 157 178 192 206 218 228 239 239 238 238 236 234 233 229 229 228 223 224 224 224 226 230 233 234 233 233 231 229 225 227 225 220 214 191 177 170 160 150 144 138 138 139 142 139 140 142 143 142 142 145 156 163 162 158 158 167 164 160 144 143 147 155 150 140 143 140 145 151 154 151 150 137 129 126 129 149 158 157 170 183 204 225 235 217 186 143 88 59 55 60 52 74 69 50 42 44 54 59 63 68 67 76 75 70 83 80 75 66 59 55 56 55 57 88 107 79 68 67 69 70 73 70 71 58 59 80 77 63 67 84 102 114 109 96 74 74 97 105 100 95 98 92 68 63 57 62 51 30 46 40 29 27 32 37 37 35 42 52 57 42 36 50 66 117 172 178 132 102 98 127 127 110 119 114 87 115 153 142 100 56 39 35 32 
23 29 32 29 28 35 37 37 24 30 36 43 48 35 32 30 30 28 33 38 34 33 36 42 49 45 36 39 30 27 32 38 45 64 65 61 50 38 33 43 50 31 31 38 35 35 33 36 46 35 22 21 20 21 25 23 24 24 35 43 47 44 37 40 55 64 56 58 74 116 166 206 239 246 233 222 207 191 185 177 174 174 166 153 155 157 164 152 144 146 154 157 150 147 144 133 127 134 142 148 147 138 142 150 150 157 159 166 183 196 212 219 235 236 237 240 236 232 230 230 228 229 229 232 231 229 228 227 223 223 218 208 206 199 202 192 173 158 154 150 148 146 145 150 146 140 137 141 145 149 142 145 147 141 142 145 138 147 149 150 141 144 136 141 141 131 132 134 147 152 148 149 142 134 131 129 133 143 154 174 190 203 222 229 231 206 165 125 81 59 48 50 47 51 64 73 53 47 42 47 52 59 64 66 79 77 80 73 74 81 65 53 60 70 66 61 84 103 82 68 71 65 72 70 73 65 57 58 70 74 71 80 91 95 118 125 109 87 82 89 118 117 106 98 79 54 51 53 69 54 29 40 39 35 36 35 35 30 37 44 49 45 38 43 52 60 106 169 164 133 111 108 142 146 133 145 150 114 125 159 144 102 51 29 33 55 
20 25 26 23 26 25 33 30 33 29 37 47 56 50 42 40 34 40 43 50 47 40 37 36 40 33 35 42 43 33 39 46 57 69 73 60 54 50 50 58 63 46 33 40 37 36 41 38 50 44 29 24 23 21 22 21 21 23 26 37 46 52 44 38 51 62 49 46 55 67 100 147 191 227 251 240 226 210 199 195 185 180 174 155 156 159 159 153 145 141 154 160 159 159 154 146 134 130 129 135 138 139 145 150 147 144 144 144 152 164 165 180 197 205 209 220 214 223 227 226 229 226 227 224 221 213 209 207 195 192 187 178 164 161 159 165 160 151 146 143 142 140 149 153 146 138 140 145 144 143 144 146 152 143 130 129 136 134 140 144 137 136 132 132 134 135 146 150 158 150 134 129 126 131 139 152 150 158 162 188 213 229 242 222 192 156 119 90 76 69 72 71 55 48 53 47 48 55 54 45 56 72 85 76 75 73 67 74 81 88 85 69 70 86 80 67 76 110 88 70 72 86 78 82 79 75 71 64 67 61 71 92 92 85 94 110 105 100 90 106 105 109 95 82 68 61 58 58 74 55 39 51 43 42 46 44 39 39 43 43 38 34 37 56 66 51 82 138 152 114 114 114 141 151 132 155 159 138 139 148 128 91 45 22 25 41 
34 31 29 24 22 25 26 31 32 36 39 46 57 53 48 41 37 40 49 52 56 60 49 39 35 31 26 47 48 41 42 48 52 58 55 59 59 67 68 69 70 50 41 38 39 39 38 43 50 51 40 34 28 25 21 21 23 26 26 28 38 48 46 37 47 51 45 41 42 53 61 89 130 175 212 244 243 230 220 208 195 194 191 187 180 181 173 169 156 144 143 150 146 148 154 157 157 156 152 141 135 120 130 136 133 138 149 148 152 159 155 154 172 181 180 179 180 177 188 189 188 188 187 190 179 173 181 175 167 163 163 153 146 136 135 145 144 141 139 137 142 141 143 145 140 141 141 145 143 135 135 149 151 150 142 135 133 131 135 133 130 127 131 143 144 161 161 160 159 145 129 127 132 145 160 159 173 183 189 210 229 225 201 162 114 91 85 89 85 78 76 74 66 62 54 44 44 62 69 64 67 85 86 86 60 53 57 57 59 85 83 78 83 88 75 60 84 113 97 73 82 99 87 69 74 72 65 62 57 48 58 86 99 82 79 104 121 115 113 98 100 92 86 85 88 81 72 59 77 63 60 64 50 46 43 40 37 38 43 38 30 31 42 71 86 49 63 97 119 111 103 115 134 136 121 140 144 133 134 114 98 76 41 24 26 29 
40 36 34 26 22 22 23 26 30 34 36 40 49 46 41 34 33 38 45 47 59 65 58 44 34 28 26 33 38 33 28 31 29 36 37 42 53 59 65 66 63 54 42 40 37 37 41 38 43 50 41 34 30 27 26 25 24 29 33 29 30 37 39 37 39 48 45 42 46 44 52 62 80 109 155 195 230 245 243 230 215 206 205 196 201 202 197 189 173 156 152 156 147 146 147 155 159 169 169 164 165 138 136 130 124 134 136 136 148 152 150 150 160 178 171 170 160 159 159 155 154 153 153 153 153 148 158 162 153 150 149 144 140 139 142 140 138 134 131 138 139 145 140 138 137 135 136 139 137 136 133 129 145 146 143 137 128 126 126 137 141 143 146 154 151 152 145 141 155 152 144 148 146 148 157 173 184 208 221 224 205 165 135 86 59 52 60 60 59 55 59 63 68 70 63 55 61 72 72 72 86 84 87 81 67 61 72 54 50 56 66 72 72 76 70 66 75 108 91 70 88 102 82 64 59 63 73 62 43 41 45 62 78 67 80 121 141 136 111 104 94 82 78 76 86 68 52 58 81 84 80 84 64 50 47 40 37 40 50 50 51 47 54 77 90 60 47 61 89 105 110 130 143 118 115 126 124 121 108 92 84 74 48 40 32 28 
26 30 30 25 24 23 22 24 29 34 34 39 49 51 49 47 48 52 54 48 47 52 48 38 34 31 30 32 31 27 25 28 26 26 27 31 37 42 51 55 58 53 39 36 33 34 39 44 39 50 44 33 31 34 38 41 31 31 40 38 34 35 39 36 35 44 48 51 52 57 53 56 63 70 93 132 172 205 238 250 242 231 219 210 203 203 203 193 183 179 180 174 171 152 149 162 154 145 144 163 166 164 161 166 155 146 146 136 134 144 140 141 152 155 155 149 148 148 141 139 145 141 147 149 146 143 139 142 139 140 140 138 138 140 141 143 135 138 143 138 148 145 144 141 136 135 130 132 137 137 127 126 128 135 134 137 132 134 142 155 165 157 148 148 147 146 149 156 175 182 180 175 170 171 181 196 221 234 221 193 152 106 73 72 59 60 58 52 43 42 50 54 51 60 61 71 79 69 63 69 75 83 74 78 71 81 87 90 68 59 51 62 67 62 71 65 59 67 62 52 71 96 82 68 62 81 80 58 43 38 42 53 64 71 94 122 130 110 105 105 94 86 61 73 65 57 47 74 104 94 88 95 72 58 51 43 44 51 58 69 77 74 71 74 70 56 45 40 63 78 107 148 158 117 110 125 111 94 82 73 77 68 59 51 40 29 
25 23 25 24 25 24 22 22 27 30 32 39 49 58 59 64 70 70 69 70 55 45 42 38 37 38 42 39 29 22 26 27 29 26 26 28 29 33 38 41 47 47 33 27 26 27 36 43 42 58 57 42 37 38 48 50 37 29 34 35 33 33 37 38 31 37 45 46 44 53 50 50 55 63 67 77 103 140 182 218 241 251 243 231 220 216 206 201 204 209 206 199 184 171 180 190 185 167 139 134 149 141 159 171 174 171 173 167 161 153 142 136 131 139 125 129 135 140 138 134 134 137 142 149 150 143 140 137 138 134 131 130 131 135 136 139 146 150 153 154 150 150 145 137 134 131 121 121 127 125 123 125 129 138 155 157 164 155 149 150 148 138 127 138 153 168 172 166 179 180 179 188 194 204 218 231 226 208 173 129 87 60 63 65 59 58 51 50 49 53 46 49 53 53 64 75 71 66 57 57 75 68 65 85 78 81 96 89 83 62 51 67 67 57 58 52 44 47 47 47 66 83 89 87 90 84 74 53 34 45 66 87 110 128 138 140 111 114 116 105 109 79 74 67 75 62 58 97 119 81 81 85 74 60 56 51 49 58 66 78 85 86 84 69 52 44 55 44 50 60 85 160 173 131 110 117 92 67 58 56 63 62 63 65 65 57 
26 22 24 25 27 24 22 21 24 27 28 32 37 43 50 59 68 64 72 75 68 54 43 43 38 39 45 41 28 22 24 28 25 26 23 24 29 31 32 31 38 42 30 24 24 26 33 39 45 63 64 48 36 33 39 44 33 27 28 28 26 28 35 38 33 39 47 39 40 45 50 53 63 68 60 59 62 82 119 158 189 222 247 248 241 231 222 214 216 217 210 201 190 186 196 219 213 194 172 150 140 136 145 148 141 145 157 172 182 182 173 162 155 146 139 127 129 131 130 123 129 135 137 141 144 139 134 140 138 131 126 125 128 134 135 140 137 148 142 134 136 132 127 127 125 125 125 124 130 138 144 148 161 172 171 174 161 155 130 126 134 141 133 149 172 182 181 171 173 185 193 205 221 235 235 208 180 145 108 75 55 43 47 54 49 34 45 46 57 48 56 49 46 50 52 54 52 49 55 66 57 56 62 86 105 90 79 69 59 52 51 64 62 50 46 47 39 48 52 60 75 79 94 95 81 78 60 39 50 65 88 135 164 180 185 152 137 137 131 120 83 83 78 81 80 67 63 101 99 64 52 59 52 48 50 39 40 50 63 74 88 88 83 62 36 38 54 60 66 69 86 140 160 123 97 84 64 47 37 45 57 51 64 77 66 68 
25 24 25 26 29 27 21 23 23 28 29 29 29 30 34 43 49 44 49 61 62 53 53 45 45 43 47 44 32 30 32 28 24 23 21 20 24 26 25 25 31 32 22 22 23 27 31 40 44 58 56 41 30 28 31 34 29 29 29 28 27 29 33 34 33 42 49 41 36 46 54 65 73 74 62 51 49 57 77 96 125 163 200 232 248 248 238 229 223 219 213 202 209 205 218 218 216 217 199 185 159 147 149 143 136 128 136 145 149 158 163 166 170 183 173 165 154 148 140 133 137 134 133 127 124 127 125 130 129 125 125 125 128 132 133 132 133 130 131 126 128 129 136 138 140 151 158 157 162 167 162 157 153 146 147 136 144 151 143 138 162 169 162 163 171 181 184 183 197 215 225 232 231 221 191 154 110 82 66 51 42 38 38 42 29 37 36 44 39 44 41 46 38 32 36 42 43 50 62 68 60 43 50 80 100 99 69 56 43 47 46 45 46 43 57 53 44 44 57 71 76 73 71 64 57 50 44 60 78 87 114 161 188 190 187 177 155 150 134 91 80 70 72 84 71 62 60 81 81 58 49 48 36 39 38 29 27 40 56 69 77 81 75 56 33 31 52 75 89 85 90 107 111 93 73 54 40 29 26 42 53 58 61 67 61 50 
40 30 27 24 27 27 25 23 26 32 34 34 32 27 27 32 33 38 39 43 42 46 47 46 49 49 54 50 39 38 33 27 22 20 22 21 20 22 20 23 31 28 21 23 24 29 35 42 43 46 43 36 31 31 34 30 31 31 29 27 27 31 32 33 32 41 52 47 31 42 53 66 70 70 63 55 50 53 64 73 77 102 138 179 211 237 244 247 241 233 227 223 217 223 226 224 219 223 222 207 181 157 157 149 148 149 145 143 140 137 135 136 142 157 171 172 182 185 177 174 170 172 164 157 159 155 152 155 151 151 152 152 150 151 157 156 150 160 159 166 167 170 178 176 171 172 171 168 160 148 151 144 141 134 134 134 152 174 174 174 183 194 173 172 188 189 206 214 228 233 224 211 187 157 123 88 69 53 44 41 43 41 35 34 33 35 40 41 40 33 38 40 33 21 32 45 42 49 59 76 65 46 52 61 84 83 66 52 46 35 35 32 32 44 57 52 39 41 51 68 69 56 59 47 36 40 48 59 78 83 104 140 153 169 177 165 156 134 91 67 60 57 73 69 61 52 55 71 75 53 56 35 37 37 34 26 26 38 47 58 56 57 59 58 52 33 60 87 89 87 88 87 74 70 58 46 32 24 33 49 72 78 75 66 55 32 
44 40 33 23 21 23 22 21 26 29 35 37 34 27 21 21 27 31 37 33 30 34 39 46 47 49 57 48 36 32 27 21 19 24 26 22 23 23 21 31 37 29 26 24 25 33 43 41 39 34 34 35 35 33 29 32 31 29 29 24 26 32 33 31 30 41 55 55 42 34 43 53 56 53 50 55 57 63 63 60 62 64 88 110 146 176 207 229 243 249 245 235 232 225 222 224 225 226 221 216 193 175 169 170 167 164 158 156 155 152 148 135 128 146 152 162 170 163 163 153 155 161 170 170 172 179 175 178 179 191 197 189 182 191 192 187 176 175 179 180 171 159 159 153 146 147 154 153 157 161 157 177 177 174 175 173 182 192 187 179 186 184 184 194 209 227 234 235 225 204 175 148 119 96 70 61 64 50 40 39 42 39 34 41 45 37 42 53 55 41 43 50 46 39 42 48 49 49 64 90 85 72 67 60 71 76 63 64 54 32 31 36 34 43 45 41 32 43 53 57 56 53 55 50 46 47 54 57 74 68 69 85 97 107 112 112 108 90 55 44 45 52 55 61 51 50 57 69 62 64 41 34 35 39 38 30 31 36 49 55 50 45 51 63 54 47 53 86 80 69 83 77 62 59 56 55 47 32 40 51 84 92 85 74 57 67 
32 46 47 33 27 24 24 25 23 28 28 31 30 22 20 20 21 27 27 25 24 25 31 31 38 41 48 43 31 29 24 23 24 28 32 30 26 27 27 28 33 26 22 23 27 35 41 42 32 33 36 40 38 33 30 29 30 31 27 28 31 34 33 31 32 39 54 57 46 31 33 44 41 40 42 54 64 66 61 53 46 54 57 73 89 109 136 169 197 224 240 248 245 237 231 224 224 221 222 217 198 188 190 183 186 178 165 169 171 177 173 148 136 152 169 171 172 160 151 137 138 154 146 153 148 155 152 154 157 163 170 162 159 175 186 174 157 146 146 150 151 134 139 142 139 145 154 166 184 184 198 204 212 204 212 210 203 198 192 189 191 203 212 224 233 229 216 193 168 134 106 88 77 62 52 61 64 56 38 30 39 39 33 45 53 45 43 59 56 45 44 59 65 58 55 52 54 58 67 87 90 71 67 65 62 73 63 58 49 38 41 40 41 38 37 29 31 37 51 51 45 43 55 56 52 63 54 50 57 50 45 48 53 68 66 59 71 65 49 38 41 51 52 69 78 69 60 54 65 51 48 36 34 43 44 36 32 36 42 49 44 48 44 45 51 37 43 62 66 55 64 74 53 46 48 56 64 44 26 48 66 89 81 72 54 35 
30 43 49 43 35 33 33 31 29 25 24 25 24 20 19 19 21 23 21 19 22 22 20 25 28 33 40 36 28 29 29 26 25 28 34 32 31 30 25 24 24 18 19 25 28 30 36 35 33 33 34 36 34 28 26 28 31 33 30 31 37 34 30 29 35 36 42 48 42 32 32 47 43 33 34 53 63 60 54 44 39 40 50 56 72 88 86 98 124 156 185 210 232 242 242 238 230 231 227 224 211 201 202 205 200 194 186 181 192 192 182 167 149 153 164 172 170 164 163 159 167 172 172 156 146 143 150 154 148 154 146 143 147 164 169 164 160 145 138 148 148 160 160 172 172 170 181 192 209 214 211 209 201 200 210 211 217 214 215 217 222 228 229 220 204 179 146 116 90 75 61 58 59 68 59 51 60 49 31 32 49 50 36 47 59 56 38 50 42 37 37 46 58 59 53 51 58 67 65 66 64 67 72 62 71 79 62 44 49 33 42 37 30 35 35 37 35 44 44 52 45 50 55 59 57 57 56 41 43 40 39 46 63 66 59 47 48 61 51 44 54 61 76 97 107 96 72 63 56 58 50 44 46 46 50 42 30 40 41 40 38 42 51 45 49 49 55 48 51 60 82 62 51 37 24 47 63 56 31 38 79 88 93 89 73 55 
21 36 38 36 32 30 28 30 26 22 20 21 20 18 18 20 21 24 24 20 20 19 21 22 27 28 30 28 27 28 29 28 24 25 30 32 31 30 25 24 22 22 26 30 32 28 26 32 35 31 29 32 30 27 28 28 34 39 31 33 39 32 28 31 32 36 30 36 43 32 39 53 53 36 29 46 54 49 44 38 32 34 44 56 73 86 79 71 76 95 120 141 165 190 215 230 242 244 247 237 226 221 214 212 214 210 199 208 206 197 190 177 169 169 173 172 171 173 182 183 195 204 199 192 167 167 171 181 178 168 172 174 182 180 167 164 166 167 151 157 166 162 184 195 197 196 191 200 202 200 200 203 199 205 219 224 230 229 229 223 212 199 179 152 127 104 82 64 63 57 51 52 67 68 59 48 38 43 42 38 52 53 41 44 72 64 49 42 41 39 37 31 36 44 46 46 57 66 56 48 54 66 72 70 64 80 69 61 50 43 35 26 29 31 32 34 43 33 37 39 55 58 69 59 54 51 47 42 45 48 48 62 69 80 75 52 49 59 64 60 69 81 84 94 115 106 84 71 65 52 48 45 44 54 52 34 38 41 43 38 27 43 54 57 53 58 66 56 45 70 79 65 42 37 22 36 65 61 40 52 78 94 94 99 91 80 
32 32 33 29 26 22 23 20 21 20 19 20 20 20 22 25 23 26 30 25 22 20 23 26 28 25 23 23 25 24 24 25 22 22 26 29 28 26 25 22 25 25 29 35 33 26 27 32 37 29 27 34 33 33 33 31 37 43 33 35 39 30 27 30 31 29 26 32 40 37 33 48 52 36 27 41 45 39 40 35 31 38 46 54 70 82 78 72 74 80 84 86 94 113 140 168 200 223 234 240 242 238 234 228 224 217 216 219 221 210 198 193 189 191 195 197 194 190 198 198 201 207 210 212 196 196 195 193 185 188 185 190 193 182 163 152 171 173 168 163 170 171 175 193 196 186 196 197 198 201 214 220 224 229 233 229 223 209 191 171 148 126 102 79 69 69 60 56 59 61 58 53 53 60 50 35 43 53 55 43 46 44 41 51 68 68 46 42 46 42 39 31 35 46 49 62 65 60 50 35 39 55 60 51 53 63 74 64 58 47 39 34 32 32 26 32 33 34 26 38 52 71 60 59 53 53 45 47 49 52 49 47 56 68 76 61 51 56 65 74 76 94 71 82 99 106 84 68 63 52 45 43 48 54 51 45 43 43 36 37 31 48 72 69 51 55 73 68 59 52 65 48 40 34 32 30 54 59 43 46 69 69 82 108 94 72 
25 29 27 26 28 25 21 21 19 19 20 21 20 21 27 28 20 21 26 24 21 20 22 25 26 22 21 22 22 20 21 20 19 19 24 28 25 23 22 23 20 23 28 29 31 32 31 38 41 31 29 35 35 34 35 32 39 42 32 33 35 26 26 28 28 24 23 25 34 40 38 39 46 36 30 43 43 36 36 38 32 38 50 58 65 74 76 81 82 83 83 77 71 77 87 102 127 150 165 191 207 224 229 237 235 239 236 234 233 224 219 211 207 205 214 220 217 215 214 210 209 208 216 219 214 209 202 192 190 194 192 187 181 179 174 173 182 195 193 193 193 195 200 204 203 212 212 225 227 229 238 238 230 223 211 192 168 140 115 93 78 65 55 51 55 62 62 55 65 73 59 49 48 46 42 44 40 53 56 53 36 39 45 49 56 54 38 38 37 43 46 46 47 49 62 69 72 64 53 45 46 63 68 71 57 68 63 58 55 49 57 49 37 35 41 40 45 36 36 40 55 62 53 40 44 46 41 37 40 39 37 31 31 42 56 48 35 43 56 68 104 102 78 74 101 103 73 57 52 52 45 41 47 48 49 45 40 33 25 36 37 45 63 61 39 28 60 67 58 49 40 34 34 32 34 48 56 65 57 54 50 54 79 117 108 68 
29 27 28 32 32 29 28 25 23 22 22 20 18 22 30 30 27 29 32 30 26 24 23 22 20 18 20 20 21 21 22 20 18 19 24 29 25 22 22 21 24 21 20 25 29 32 35 35 39 31 29 31 31 34 36 33 39 38 29 28 28 22 23 26 24 25 23 23 33 44 47 40 40 34 31 40 37 31 34 30 37 42 49 60 64 61 56 61 71 80 89 87 77 72 73 73 78 91 98 114 128 141 162 180 195 211 217 228 231 234 238 233 228 223 227 229 230 230 226 230 227 225 226 228 225 224 218 219 217 220 217 206 208 207 218 207 208 218 213 220 225 227 226 230 229 225 228 227 221 218 217 201 177 157 136 115 93 76 65 55 48 42 38 41 51 60 61 68 90 78 61 52 51 47 47 47 43 38 62 57 51 37 40 51 54 47 47 37 38 52 68 68 53 63 59 77 76 71 77 67 69 78 91 93 85 69 66 65 53 54 59 48 40 46 64 62 52 48 44 45 58 66 50 33 43 45 38 30 34 37 32 27 25 30 33 37 35 28 38 62 102 115 84 80 97 100 68 52 51 48 43 46 47 49 44 35 36 23 25 32 28 31 40 32 24 24 32 55 53 38 32 26 26 34 40 58 65 65 70 62 51 51 83 122 117 94 
28 32 33 36 34 30 26 27 27 25 23 23 23 26 30 38 48 58 56 53 43 35 30 23 18 16 18 19 20 22 22 21 19 22 27 29 24 22 21 24 25 24 19 18 23 31 27 26 28 29 35 34 33 37 39 38 40 36 29 26 26 23 21 24 29 26 30 32 35 49 53 45 40 34 28 31 29 28 28 34 33 39 42 54 61 52 44 43 53 61 71 78 78 74 71 60 68 68 76 82 74 76 86 99 110 120 134 148 173 188 199 209 217 217 223 231 233 231 235 236 235 232 233 227 232 234 233 231 234 234 229 229 224 232 235 232 221 225 226 224 227 223 219 215 209 201 183 175 157 143 133 117 97 89 78 67 60 58 56 55 48 40 35 41 57 64 65 78 87 80 53 45 50 53 56 54 49 43 54 71 49 35 40 55 51 54 50 45 54 64 80 85 79 67 90 88 94 96 95 97 97 99 102 101 77 63 55 63 56 42 43 50 52 70 77 75 55 54 58 71 78 76 57 55 62 64 54 48 49 52 45 42 34 25 29 38 44 36 31 58 92 117 94 77 87 82 63 49 45 40 35 47 53 49 48 45 43 39 36 30 24 28 39 30 19 21 26 30 38 31 24 26 34 46 56 51 61 64 66 62 56 55 84 116 99 108 
25 28 29 27 28 22 24 23 26 22 21 23 27 31 30 34 50 53 51 46 39 34 31 25 18 16 18 17 17 20 20 19 22 26 29 27 22 22 23 24 25 26 22 18 24 26 27 21 22 30 41 45 38 38 38 39 41 37 31 28 30 27 27 28 30 32 29 35 39 45 55 48 46 39 28 28 26 24 27 31 32 33 36 55 63 57 51 56 60 50 46 55 60 67 70 65 69 72 69 68 56 52 55 60 62 68 66 79 95 106 109 116 123 137 154 171 184 197 202 212 219 222 217 215 221 221 214 213 217 222 218 217 222 214 213 201 191 188 183 176 175 169 154 148 140 127 116 108 95 78 80 73 74 79 72 61 55 53 51 48 45 37 35 51 81 95 82 65 73 65 52 44 47 51 53 57 51 44 55 70 53 44 51 69 74 63 62 58 59 57 71 103 96 103 113 127 117 116 120 120 121 121 106 83 63 42 44 54 47 36 40 56 67 71 75 64 65 65 75 81 81 67 57 64 64 67 55 56 62 62 62 63 54 39 22 37 50 42 37 45 82 114 91 74 73 67 49 48 36 30 44 49 49 44 45 44 49 50 41 33 22 33 42 43 33 22 23 28 27 26 25 26 43 71 72 83 89 87 79 71 58 65 77 88 82 57 
23 24 21 23 22 25 21 25 25 23 19 20 25 27 24 25 31 33 27 33 33 29 31 25 19 17 17 14 17 19 19 23 24 29 30 26 22 24 23 23 23 24 25 23 22 26 24 23 20 26 39 43 41 36 34 36 40 37 32 31 32 33 29 34 32 28 27 31 36 39 48 45 46 48 35 30 29 27 27 29 31 29 39 56 63 57 55 58 60 51 43 42 48 59 64 81 90 83 64 58 44 43 45 46 50 52 52 51 64 67 68 62 63 60 70 86 97 102 110 122 132 137 140 143 144 148 138 143 152 157 156 161 162 160 153 137 126 120 117 114 102 96 88 84 78 73 71 76 73 68 68 75 83 87 74 61 50 47 41 39 36 32 29 47 77 105 101 75 59 67 71 59 50 45 42 40 45 44 54 68 66 60 70 92 103 92 72 69 69 60 79 104 117 124 132 132 125 110 106 113 125 121 104 86 64 47 42 48 38 35 46 55 60 62 59 60 59 71 75 75 63 59 74 72 63 47 46 57 52 40 47 55 51 39 27 34 50 39 31 44 75 96 92 81 80 70 58 47 35 34 49 55 42 34 36 41 39 46 55 52 35 32 44 44 48 43 29 31 32 32 36 31 43 68 87 100 117 108 102 88 75 67 77 95 87 94 
25 23 23 23 26 27 27 24 26 26 24 22 21 22 20 20 25 23 24 29 28 27 26 24 20 19 18 16 16 19 23 26 31 29 28 26 23 21 23 23 21 20 22 23 25 24 26 26 25 28 34 40 42 37 30 30 33 32 34 32 37 36 38 39 34 27 26 31 33 33 35 34 40 48 39 32 30 29 30 33 27 30 41 62 67 62 52 46 46 41 38 39 40 48 63 85 100 77 61 47 41 36 32 36 38 43 44 47 55 57 56 56 50 49 56 66 67 63 59 70 75 69 73 72 79 78 80 86 89 87 88 93 100 105 105 101 94 101 113 106 91 79 69 68 54 52 57 69 77 71 67 71 80 74 65 55 48 40 38 33 34 32 31 28 52 77 95 91 72 74 81 71 66 52 35 35 46 43 47 59 54 55 65 94 119 102 81 73 78 70 74 94 105 106 123 107 92 81 77 88 93 93 85 81 70 65 57 61 56 51 52 56 61 67 62 63 61 65 70 73 72 84 90 80 55 50 51 62 49 29 27 36 39 34 37 54 60 48 38 50 81 97 85 76 81 70 59 59 37 39 58 56 42 31 32 26 29 42 61 62 60 48 46 53 52 58 46 30 33 38 38 35 37 47 61 83 100 103 105 100 79 67 70 87 102 118 
27 26 21 21 26 29 33 27 24 28 30 26 22 19 17 18 21 22 23 25 25 23 23 22 22 22 22 20 21 24 29 37 40 34 25 23 23 22 20 27 23 19 19 21 24 24 25 27 30 35 40 43 45 40 31 27 27 32 40 43 42 39 38 36 36 32 30 33 32 28 28 22 30 39 37 34 32 33 41 39 43 43 54 79 84 72 52 44 42 40 34 27 29 37 48 68 76 60 46 46 43 32 33 35 34 34 47 53 51 52 45 44 45 48 56 66 62 54 55 69 72 66 60 62 59 73 79 79 76 66 65 69 72 77 81 83 83 92 104 102 89 78 74 61 49 45 50 66 74 66 56 68 78 77 67 66 57 47 40 41 35 35 35 35 33 49 82 98 98 97 95 97 91 84 62 66 59 54 46 45 39 42 49 78 105 97 85 81 86 75 70 84 82 93 97 84 77 78 81 89 86 77 70 79 73 59 62 68 69 68 63 64 77 83 81 75 60 46 54 69 76 92 89 63 37 42 52 65 51 32 34 39 31 35 60 78 82 60 46 59 72 95 81 77 73 68 66 58 44 39 57 54 41 35 26 26 29 39 48 55 51 62 60 54 67 61 59 41 33 35 39 39 43 51 60 78 92 99 95 90 71 55 53 65 72 60 
54 32 25 20 21 30 37 35 23 26 29 24 21 18 19 17 19 23 25 26 26 24 23 23 23 24 24 25 26 28 34 43 48 41 30 25 27 27 24 25 25 23 21 21 23 22 21 23 27 37 47 49 47 42 37 36 30 37 48 52 49 41 30 34 40 43 43 41 34 27 26 24 27 33 35 36 33 33 39 50 52 70 78 91 101 75 50 43 51 47 35 28 29 33 34 47 46 39 43 47 45 47 44 50 43 41 42 42 49 44 34 34 36 38 41 47 44 41 51 64 68 60 61 55 63 76 79 82 72 68 68 66 65 65 67 68 69 75 77 69 67 70 62 58 39 37 46 52 58 54 58 78 109 115 101 89 70 58 56 46 38 37 41 48 54 55 65 83 80 76 80 72 89 92 73 73 75 60 49 47 38 47 52 73 86 83 77 75 82 70 68 79 81 92 86 88 92 95 93 94 88 69 73 85 71 62 55 56 63 73 67 70 77 71 65 62 46 37 51 69 84 98 83 56 54 49 47 74 64 42 40 39 31 50 69 98 93 71 62 59 78 95 92 83 83 71 71 67 43 40 54 51 51 48 45 41 39 47 47 54 68 78 80 72 65 84 64 52 51 51 43 41 49 56 63 80 88 83 76 70 67 56 49 58 58 38 
39 34 33 29 22 22 37 44 29 25 26 22 20 19 19 18 20 27 28 26 25 23 24 24 26 27 27 30 30 30 31 36 40 38 32 31 35 35 28 23 25 27 24 24 24 21 21 20 23 33 44 46 42 40 43 40 36 38 49 47 53 43 32 31 40 43 46 48 36 26 25 28 30 34 35 36 37 39 39 39 59 74 94 110 110 87 48 39 45 46 40 34 32 31 30 29 31 34 40 42 46 41 46 43 41 31 33 34 41 50 42 32 38 39 36 37 39 43 52 50 51 44 44 51 67 87 86 76 69 63 61 56 53 54 59 60 65 68 66 62 60 57 54 49 42 38 48 58 58 54 55 73 102 111 99 85 80 73 74 67 53 43 46 48 48 46 43 45 44 46 51 61 65 77 60 55 64 61 55 46 45 51 68 75 77 71 70 67 90 82 75 80 89 80 92 87 81 86 87 87 74 74 69 69 63 64 51 47 51 69 77 71 64 60 59 60 52 55 78 88 80 79 65 66 63 62 67 74 86 66 51 43 52 56 88 90 87 70 54 63 78 101 97 90 79 78 71 64 50 49 58 55 56 64 69 60 54 54 56 61 81 88 86 78 86 93 89 67 69 67 58 53 61 62 62 59 68 62 55 63 62 58 49 56 55 40 
12 28 36 45 39 21 31 43 32 24 25 23 22 22 21 20 26 32 31 27 24 24 23 24 27 27 29 32 32 31 32 32 34 32 31 33 37 36 27 22 23 29 28 26 25 23 25 29 30 35 40 40 39 38 40 39 33 42 44 40 48 47 36 36 38 33 37 43 35 28 30 30 32 36 37 36 40 50 51 41 48 75 93 108 118 98 57 44 46 55 52 43 40 39 30 35 37 37 39 32 29 32 23 25 28 30 27 31 44 50 47 46 40 36 39 44 46 55 58 57 38 37 37 50 88 88 83 72 64 56 52 47 42 51 62 71 71 76 75 74 72 68 62 58 51 49 56 61 60 58 52 57 67 72 68 69 73 73 77 68 52 47 57 56 42 41 38 34 35 37 49 51 62 84 74 61 59 67 57 49 47 52 69 79 73 73 73 71 94 94 79 93 87 101 96 75 81 79 78 80 86 85 92 86 65 66 64 45 49 72 85 73 70 69 63 63 65 93 112 99 80 74 47 55 70 64 54 80 81 88 63 54 51 70 68 81 92 69 52 67 83 91 94 88 90 81 73 61 59 65 72 59 43 53 61 61 55 52 49 50 50 70 83 79 91 112 99 88 93 93 82 94 104 89 70 64 64 57 55 58 60 56 58 60 51 27 
29 21 32 47 54 34 25 34 28 22 23 24 26 28 24 22 27 28 27 26 25 26 24 24 25 24 25 28 31 31 33 37 32 28 29 33 36 35 27 23 23 31 33 28 25 29 36 40 39 45 47 45 43 43 47 39 31 44 38 31 41 53 43 45 40 30 30 33 31 32 34 34 32 35 40 36 39 53 49 45 45 59 73 85 94 84 57 45 52 60 62 55 52 53 56 47 45 40 27 25 26 28 23 22 30 27 27 30 37 46 50 55 47 42 52 59 54 63 73 59 48 42 49 72 84 88 77 70 71 68 63 53 47 58 72 82 97 95 85 87 85 83 76 72 61 54 56 61 56 51 46 46 49 50 48 56 57 59 67 64 49 60 85 76 66 49 47 39 32 38 38 48 53 83 79 61 53 57 56 64 51 54 65 79 72 80 82 79 87 89 89 85 101 104 91 89 84 85 81 68 70 87 110 101 89 77 66 60 55 68 80 79 84 80 72 64 86 119 120 94 73 70 55 52 62 64 54 53 72 75 77 57 55 62 61 72 100 90 64 78 82 82 76 83 106 117 102 87 94 109 104 87 67 62 72 71 56 52 46 38 39 51 76 90 92 122 125 123 138 128 123 130 126 104 81 74 71 69 64 58 59 57 69 69 52 42 
21 20 19 38 47 45 26 30 26 21 22 22 29 34 29 27 27 26 25 25 29 35 32 30 25 24 24 27 32 32 35 35 31 28 29 31 35 31 28 26 24 33 38 28 32 46 46 44 41 47 56 59 55 46 50 42 34 33 31 22 36 45 57 48 43 32 28 27 27 36 39 32 30 32 45 45 41 48 45 42 47 49 60 60 69 71 47 40 41 50 53 56 56 60 62 56 52 41 26 19 24 29 20 24 36 27 22 28 33 33 51 61 52 45 53 50 43 53 73 65 57 53 65 76 80 71 81 86 96 87 80 71 65 66 66 78 97 99 93 88 81 78 68 58 55 49 55 62 65 60 48 44 44 46 49 50 51 51 68 70 56 53 74 71 47 51 42 37 41 39 45 52 55 59 67 52 43 56 70 70 68 61 62 72 74 77 92 91 98 96 80 80 79 84 76 66 80 87 60 54 56 71 90 97 88 92 75 70 64 75 73 76 81 77 61 69 102 127 127 101 95 97 73 57 58 54 51 46 47 68 80 68 55 47 52 61 94 95 68 69 81 63 61 79 106 126 106 90 97 102 95 84 86 82 77 71 59 47 46 45 45 56 74 74 94 124 139 144 154 146 139 131 127 106 97 81 87 83 77 68 51 61 66 62 47 42 
15 20 23 22 41 46 37 26 27 25 24 23 25 31 29 31 30 25 26 25 33 38 40 33 28 24 24 29 33 31 32 31 32 34 36 32 29 33 34 31 30 35 36 32 41 54 56 48 37 42 55 67 58 43 41 39 27 27 24 21 24 46 53 60 46 33 25 24 29 36 40 34 33 39 47 52 54 47 49 53 52 57 56 51 59 56 44 36 32 37 50 55 59 57 55 55 54 44 29 21 27 27 23 30 45 35 27 29 28 33 42 52 53 46 46 35 28 48 58 64 47 49 64 64 59 63 94 116 111 105 95 93 86 87 72 66 75 82 83 83 76 65 61 56 51 46 50 63 72 78 71 61 46 36 39 44 41 48 72 70 56 50 62 57 53 50 42 40 43 46 44 63 63 57 57 52 54 61 60 71 70 61 63 65 68 75 88 94 102 96 85 60 66 65 56 54 71 62 52 41 59 64 72 80 91 96 83 73 88 84 85 75 66 56 54 72 104 136 137 146 139 127 104 68 62 67 48 47 42 66 85 78 47 40 33 40 67 72 59 66 83 88 80 76 96 97 86 76 76 82 64 70 80 78 70 66 57 51 41 46 61 66 65 68 79 117 123 127 135 135 121 122 106 108 102 92 99 107 90 64 52 55 62 44 32 29 
18 21 24 21 30 48 39 30 29 30 34 30 28 33 36 38 33 26 26 27 27 36 32 32 29 26 25 30 33 29 30 33 37 39 39 30 35 34 39 39 33 36 39 27 33 49 51 61 46 34 42 55 51 32 33 32 25 21 18 19 20 28 54 64 53 37 26 22 20 26 24 26 35 36 41 55 64 60 67 69 64 65 71 62 58 54 38 33 34 36 39 50 58 61 70 58 48 39 29 23 29 36 31 35 43 36 29 33 34 31 30 36 37 43 51 47 41 48 59 54 45 45 55 55 39 64 107 107 115 95 94 93 101 101 86 78 88 86 81 87 77 76 76 85 83 73 65 61 68 84 91 85 64 43 34 33 36 49 64 68 55 51 61 60 61 45 41 51 50 53 50 61 61 56 56 65 67 71 73 69 68 67 58 71 77 77 80 91 93 112 95 77 66 67 55 54 60 61 41 39 52 55 62 59 72 80 73 83 99 103 79 72 54 44 54 71 98 122 144 144 146 133 111 79 72 73 69 53 55 69 86 75 43 35 42 46 48 59 57 75 94 102 93 83 76 75 76 85 89 86 77 64 72 78 62 65 70 54 55 63 79 86 77 78 94 103 103 98 106 95 85 68 76 85 88 80 94 100 76 51 39 64 67 35 27 27 
24 24 27 24 26 39 40 33 31 34 39 39 36 42 48 50 40 29 28 28 32 30 28 29 30 31 31 34 33 28 32 38 38 42 33 33 36 39 40 40 39 40 37 31 31 36 51 68 53 33 30 37 35 26 28 26 25 18 16 18 15 28 46 54 49 37 32 27 19 17 18 31 39 39 46 64 81 83 80 80 68 78 87 74 64 55 38 34 42 48 43 43 55 71 76 68 53 40 34 38 37 39 38 29 31 21 22 27 26 31 31 24 27 39 54 59 60 67 79 71 53 48 52 42 42 74 101 100 83 83 78 83 90 95 99 104 106 102 94 86 82 82 89 105 121 117 97 78 77 85 91 89 70 52 39 32 35 45 56 56 45 46 53 57 49 46 52 61 64 52 49 57 67 58 58 57 70 75 72 81 67 61 60 81 86 87 84 85 104 112 116 97 70 72 55 55 61 59 50 44 52 63 55 58 58 67 76 76 91 85 63 54 52 62 71 70 83 100 92 105 101 103 109 75 55 61 69 62 66 66 64 60 42 43 61 70 65 53 62 68 88 93 88 91 94 74 92 116 119 120 94 65 71 60 48 60 56 60 73 96 113 112 112 118 123 116 104 98 94 75 53 42 51 74 71 60 73 74 60 39 39 67 72 43 25 38 
23 24 30 27 23 29 38 32 30 30 35 37 37 45 52 55 46 35 30 32 39 33 30 26 28 32 34 37 34 30 35 40 42 42 39 31 34 31 35 43 38 41 41 36 34 36 45 58 52 35 29 30 27 24 22 24 21 24 20 20 26 36 42 41 38 43 52 47 37 32 40 44 48 52 53 70 92 79 76 65 70 85 84 71 60 47 39 39 45 50 46 37 38 47 54 54 49 43 46 44 45 50 40 28 20 18 19 22 22 24 31 34 28 29 40 46 54 68 85 98 64 49 50 34 44 76 94 71 62 62 64 69 85 93 99 112 120 109 87 81 80 67 70 84 103 109 99 94 99 105 99 90 71 46 39 38 31 38 53 43 40 35 45 50 55 57 60 74 65 57 51 70 72 64 51 52 64 67 84 87 74 64 78 90 100 87 84 85 91 107 110 86 85 73 59 58 57 57 57 44 60 63 61 59 72 75 82 82 58 49 46 51 74 107 107 85 75 65 60 47 52 69 89 72 38 41 55 84 69 55 48 59 52 56 66 72 71 53 45 58 59 69 83 87 102 95 108 145 145 136 101 68 65 54 42 37 45 52 81 112 118 124 130 144 144 132 116 103 82 61 41 45 56 63 56 45 48 58 49 37 40 57 60 35 36 60 
17 21 28 27 22 26 37 33 27 26 28 29 31 38 45 48 44 36 30 35 38 38 31 25 24 27 29 30 29 30 35 36 39 43 42 29 25 21 33 38 43 42 45 42 39 40 34 46 50 42 35 32 27 26 25 21 24 30 32 23 32 40 47 47 58 79 94 86 74 69 62 63 54 45 50 59 72 73 58 56 71 96 87 65 55 46 39 38 47 44 41 39 38 41 41 44 48 40 41 46 50 53 44 24 21 25 26 26 22 19 30 34 32 32 37 37 41 48 76 79 70 54 45 34 37 61 62 45 38 50 56 70 86 77 91 108 125 122 95 78 67 59 45 46 54 62 60 67 75 79 82 76 63 50 49 44 37 40 47 49 38 39 39 58 76 57 67 76 86 82 75 71 74 52 43 57 71 66 81 92 86 82 93 101 90 86 77 80 85 91 80 74 68 70 54 52 57 54 52 60 58 62 58 72 73 83 86 80 48 35 33 48 75 114 118 92 66 54 39 39 33 38 71 73 46 32 70 85 75 48 40 64 64 61 51 56 61 61 44 43 61 68 77 86 90 100 136 159 156 125 98 70 59 53 23 34 44 48 82 102 93 95 102 106 113 110 115 102 76 63 62 56 52 54 39 31 34 34 31 38 45 44 45 37 36 36 
19 20 24 23 20 26 39 34 25 22 21 21 23 30 37 39 36 34 30 30 33 36 34 27 25 25 24 23 23 25 30 30 28 39 33 25 15 19 27 38 41 40 48 54 50 48 44 44 53 51 41 35 29 27 27 23 29 37 41 29 20 33 42 58 81 105 112 101 87 79 74 68 56 51 48 45 58 57 48 45 68 86 73 52 43 33 32 41 43 39 45 48 46 49 50 44 43 40 37 39 45 48 38 34 38 39 37 34 24 21 22 30 35 41 42 39 41 47 52 69 65 58 44 30 29 44 48 39 43 59 69 83 78 69 71 94 127 133 102 74 61 54 46 40 39 44 42 43 45 44 53 74 65 53 49 45 34 26 37 37 34 36 42 60 70 75 70 90 96 89 70 69 57 49 49 68 67 72 95 120 107 108 100 87 69 63 60 65 80 73 60 55 67 58 44 54 49 49 65 67 62 58 66 88 88 55 80 67 54 46 48 53 76 106 112 99 70 37 34 33 28 29 56 72 65 55 72 92 69 45 42 59 67 68 52 48 57 60 45 40 48 79 81 78 96 110 151 173 143 121 88 66 69 41 28 46 52 55 68 78 63 61 77 68 65 81 102 97 92 96 87 82 79 64 44 37 27 22 26 46 42 39 35 42 44 77 
22 21 23 21 20 24 35 31 23 18 17 17 17 25 37 36 29 30 31 27 33 35 36 29 28 27 25 23 22 24 29 30 26 28 29 18 19 21 27 39 39 41 47 56 60 60 54 53 59 59 43 32 28 27 28 30 30 45 49 41 25 27 40 57 82 96 97 92 82 71 69 67 65 54 49 46 48 48 47 40 55 74 69 43 34 29 28 31 33 34 43 45 41 45 43 40 40 45 40 35 36 40 47 51 52 50 39 33 29 21 24 27 35 42 42 36 41 53 53 57 67 64 42 24 29 39 44 39 38 52 64 66 72 70 75 86 102 108 86 63 58 54 52 43 44 56 46 42 43 35 45 61 68 49 49 44 32 34 29 29 33 39 40 47 62 62 84 96 89 65 58 59 64 66 66 68 82 87 110 129 119 97 86 68 55 50 51 66 72 62 57 48 56 50 39 47 45 50 77 75 67 53 88 111 104 73 58 69 67 78 91 81 87 98 92 90 59 31 28 29 33 27 38 66 68 71 74 80 63 51 59 74 78 78 59 41 46 47 41 35 55 59 77 80 95 130 157 175 147 105 82 66 61 46 38 54 59 48 48 60 42 51 71 58 42 57 82 98 89 91 104 105 101 92 59 32 22 22 41 47 43 23 32 32 40 70 
20 24 24 22 18 21 26 25 24 18 19 18 19 27 38 37 26 27 30 33 32 36 31 27 27 27 27 26 25 26 33 38 27 25 27 24 25 33 41 40 48 42 41 53 48 51 49 59 69 64 46 29 25 27 26 27 28 35 55 45 33 27 32 47 63 77 78 76 78 67 66 70 68 54 51 51 46 49 50 46 44 69 76 49 31 29 30 31 32 35 44 48 36 39 42 36 41 52 49 40 35 44 54 56 52 35 30 28 26 21 20 25 31 34 36 32 46 53 52 44 54 50 36 27 26 35 36 35 28 38 42 51 62 74 88 82 79 71 56 48 40 44 40 34 42 60 46 44 48 37 30 49 57 60 60 55 50 37 32 27 30 41 41 43 48 58 82 99 82 63 49 66 77 73 70 69 88 90 115 133 118 98 85 66 55 47 48 74 75 63 61 62 49 45 45 43 38 59 89 88 66 68 98 132 117 90 72 67 80 105 111 99 95 74 55 52 47 22 30 33 37 35 38 58 75 76 78 65 62 77 77 106 111 84 52 40 34 45 44 41 46 55 56 65 92 114 152 157 125 88 56 51 49 45 38 43 43 28 36 49 37 46 62 51 32 39 72 77 57 62 69 83 90 82 57 36 29 29 39 49 26 20 30 31 27 22 
31 31 30 22 21 21 21 22 28 20 17 18 20 24 37 32 24 25 26 29 30 30 31 26 29 27 29 30 26 26 37 40 32 30 29 26 30 42 49 51 48 42 40 39 37 31 42 57 72 78 52 28 26 25 22 22 23 29 45 55 40 27 28 32 47 57 53 53 55 55 58 64 58 51 50 47 45 46 46 46 46 59 77 50 33 29 31 31 31 33 41 40 34 32 37 33 35 49 56 51 45 54 59 57 39 29 24 35 32 25 21 23 30 29 32 41 43 55 48 39 40 35 27 27 29 29 39 34 34 30 33 39 49 68 75 74 65 55 45 43 41 33 34 31 38 53 43 37 48 40 25 34 45 46 51 45 32 29 26 28 32 39 44 41 45 69 77 84 88 69 72 97 100 89 75 80 96 109 115 123 115 87 69 61 55 51 65 80 71 53 65 61 51 46 59 50 40 70 102 93 91 90 122 133 135 100 88 77 87 104 111 107 94 66 36 48 47 33 36 36 42 41 43 59 80 86 68 59 59 70 100 121 121 82 50 38 42 51 65 52 46 46 52 53 71 91 123 136 102 65 46 37 45 53 44 35 24 35 27 40 42 40 58 47 38 45 70 67 47 33 40 49 52 62 60 60 49 40 40 33 20 22 30 30 27 23 
33 36 32 25 22 22 18 23 28 28 21 17 21 23 29 30 21 21 22 22 26 30 30 33 30 29 31 30 26 21 27 32 28 32 31 28 28 41 53 55 53 46 37 35 30 28 33 51 65 73 63 35 23 22 21 19 19 23 39 56 52 33 23 25 33 47 40 29 31 37 42 39 43 37 42 46 35 30 39 42 39 45 61 48 30 32 31 30 31 33 39 40 33 31 37 40 31 40 49 49 49 61 71 55 41 24 30 43 44 38 26 27 28 34 43 49 53 54 56 48 38 30 27 30 32 36 36 34 22 24 26 36 44 54 70 70 56 53 50 48 45 43 35 33 31 42 34 31 38 48 29 23 33 36 37 34 29 28 27 36 44 48 46 37 52 73 66 72 71 79 95 126 125 98 86 89 106 102 97 105 85 66 64 58 57 67 70 80 62 37 54 58 48 58 68 66 57 89 109 110 106 109 133 146 130 117 105 102 96 87 94 86 75 48 27 44 48 40 49 49 58 52 44 55 70 72 64 52 49 64 75 113 94 62 39 34 45 58 62 51 41 50 61 71 78 86 108 119 96 64 46 42 65 70 52 35 41 39 38 47 51 63 63 54 54 67 73 66 46 48 39 39 34 41 51 44 47 47 43 38 31 26 29 30 25 14 
44 41 35 28 23 20 19 19 38 33 30 29 25 26 33 36 25 21 20 21 24 27 29 27 29 30 31 30 27 24 22 22 27 31 24 23 26 34 43 51 55 54 47 38 30 30 33 38 46 59 67 46 27 22 19 19 17 18 27 47 54 39 27 25 26 37 37 25 22 25 26 24 24 28 38 40 35 35 37 38 34 31 45 48 36 29 33 32 32 34 35 36 33 33 37 43 40 35 40 47 48 69 66 61 45 25 33 44 56 51 39 28 35 48 59 58 58 63 60 52 42 32 27 32 36 44 45 30 24 29 35 41 38 47 61 63 61 52 49 47 45 41 44 29 29 31 30 25 40 56 46 27 35 44 44 46 44 40 40 45 54 63 55 52 66 72 63 59 83 88 99 122 116 96 95 93 101 101 95 90 78 68 64 65 52 60 74 70 61 49 47 54 45 51 65 63 68 88 109 96 91 87 122 123 120 123 137 136 114 100 90 82 68 44 36 38 42 33 64 59 62 67 61 51 60 59 66 64 56 52 73 89 73 42 37 42 52 75 68 43 32 36 59 62 76 88 103 113 103 73 49 54 82 86 47 40 43 51 52 57 71 68 69 67 73 88 96 68 58 60 56 44 44 39 35 35 35 39 50 57 52 37 32 33 35 28 
54 48 43 35 27 21 18 27 34 38 34 36 37 29 37 41 33 27 23 23 23 23 25 27 34 39 43 38 33 29 22 19 32 35 22 20 27 34 40 41 52 66 68 51 39 35 34 35 38 48 68 55 32 22 20 19 19 18 20 34 48 40 31 28 22 28 36 30 24 23 23 22 20 23 29 35 33 31 31 32 23 25 41 49 47 37 38 31 31 32 31 31 31 31 32 43 44 39 43 42 57 65 62 53 48 38 34 47 52 59 49 36 50 61 60 55 52 59 57 46 42 32 27 29 36 48 49 39 34 38 44 42 33 31 41 50 49 56 54 53 47 50 40 35 25 27 32 34 31 60 43 35 43 48 41 45 48 49 46 46 45 51 52 51 61 72 55 68 111 108 91 91 93 95 92 85 89 90 87 77 73 63 75 75 53 59 64 64 62 58 48 45 49 50 59 66 63 86 84 76 73 80 107 104 107 127 148 139 123 116 107 96 75 60 51 40 32 40 55 48 43 56 54 52 52 47 52 78 57 47 70 73 51 36 31 36 63 89 85 60 38 40 48 59 70 75 95 101 101 72 47 53 95 76 44 40 52 57 59 74 56 58 58 49 66 89 98 84 80 83 73 69 57 51 40 32 28 29 40 56 66 51 39 42 53 33 
56 50 45 38 30 24 25 29 34 31 34 36 38 36 27 38 30 29 28 28 27 25 21 29 34 41 45 42 38 32 23 24 38 39 25 23 32 46 52 46 50 68 76 60 47 38 30 31 30 36 61 58 38 24 21 19 20 20 19 27 40 34 26 23 20 22 31 30 24 22 23 23 23 22 24 32 31 25 26 22 23 23 33 50 53 58 40 33 24 27 31 33 33 31 28 49 63 47 44 56 62 66 53 47 49 42 39 35 38 51 47 50 51 60 50 40 48 58 48 43 40 34 31 30 32 39 40 31 31 34 30 36 34 25 29 33 37 42 51 54 51 44 41 28 26 28 50 52 46 47 45 35 46 47 37 39 43 47 49 42 42 46 41 39 58 59 54 85 128 120 81 72 86 90 81 72 76 84 81 78 71 65 81 81 68 61 58 52 54 53 45 48 47 51 57 54 65 69 76 80 88 107 111 100 109 136 137 119 111 109 102 83 68 63 55 50 35 37 49 46 33 35 47 52 62 40 55 80 79 55 59 63 35 28 37 43 75 80 85 70 51 42 45 50 58 73 83 88 99 86 59 72 90 66 39 44 46 49 62 58 57 47 39 46 50 69 90 99 90 93 81 64 53 40 38 40 38 22 23 43 59 58 52 60 74 74 
47 56 49 41 34 31 33 36 33 33 27 29 37 32 31 27 25 26 30 37 38 30 26 24 27 27 31 37 45 39 28 29 35 31 22 25 33 51 60 57 51 63 75 72 63 51 38 28 25 29 52 55 40 28 20 19 19 20 19 24 36 29 19 18 21 24 29 28 24 24 24 23 21 22 25 31 33 29 22 21 20 35 29 38 53 49 46 21 20 21 29 31 28 24 27 59 71 62 55 65 68 67 56 41 44 42 43 34 38 48 61 50 53 52 49 54 62 63 56 44 45 40 34 32 28 28 24 27 27 27 25 43 46 31 28 28 30 34 46 39 38 33 31 32 24 42 59 67 59 58 45 43 44 44 36 35 37 38 36 35 34 41 44 43 57 65 56 85 121 100 66 67 78 78 73 63 61 64 61 60 58 58 62 80 74 57 52 46 53 57 53 46 57 63 55 55 51 62 69 83 106 102 96 90 106 116 108 92 89 93 82 75 75 74 76 65 50 37 47 53 53 34 48 74 77 54 52 89 90 62 52 47 32 31 36 68 66 68 71 77 75 57 47 52 72 86 101 105 96 74 67 67 74 48 31 41 36 36 35 44 38 35 41 48 57 71 80 78 81 71 73 58 38 30 36 48 48 26 17 28 47 62 70 73 87 129 
79 73 63 53 44 35 37 44 37 31 28 22 27 34 31 33 29 25 24 32 34 26 23 25 23 20 22 32 46 43 35 29 26 21 19 23 28 42 54 51 49 52 62 72 71 64 54 43 37 35 45 45 35 26 19 17 18 19 18 24 36 28 18 20 23 25 26 26 26 28 29 21 24 23 23 26 29 29 28 26 35 44 41 30 33 39 27 28 26 23 28 26 21 21 27 51 67 48 61 65 69 68 60 41 35 40 31 39 40 50 55 48 45 47 53 60 64 70 64 52 51 48 40 32 26 24 26 26 28 26 35 58 53 32 26 28 29 43 45 39 28 36 37 33 41 41 53 58 63 66 54 41 45 47 36 32 42 46 36 33 29 44 54 65 74 69 70 79 99 71 55 61 64 67 61 65 58 51 51 53 54 51 61 80 69 52 34 46 54 62 56 55 76 88 78 60 58 61 80 103 105 91 89 87 89 91 64 53 53 53 54 64 60 61 59 55 46 36 47 61 58 54 55 81 89 63 52 78 86 53 47 45 42 34 44 62 76 64 68 81 95 81 56 67 82 106 125 121 99 68 48 55 49 29 32 38 42 43 41 39 38 37 45 62 75 74 75 59 44 50 56 52 33 22 24 36 34 23 17 23 40 62 82 77 83 106 
96 80 70 61 56 44 44 56 42 36 31 23 27 32 37 43 39 36 28 25 25 22 20 21 22 19 18 24 38 39 35 34 24 17 20 18 23 31 38 44 44 43 50 56 63 67 58 52 44 43 37 32 29 23 21 17 17 17 17 20 37 30 18 21 26 22 21 21 27 28 32 29 24 27 26 27 29 32 40 39 42 51 38 27 26 30 30 34 47 46 34 26 21 23 27 45 48 45 51 66 64 68 65 41 39 33 37 41 37 36 35 32 32 38 37 45 45 58 64 58 53 50 42 29 24 24 21 24 24 27 42 57 49 28 27 32 36 40 44 32 37 44 42 40 41 49 41 51 70 65 56 47 49 48 39 38 54 60 48 44 48 52 68 64 74 82 78 90 79 58 57 67 55 51 58 59 52 51 49 47 48 44 52 58 57 29 23 33 39 44 48 61 112 114 97 75 72 83 105 124 119 106 112 98 99 73 56 41 36 34 44 48 49 44 52 48 44 44 42 62 58 60 72 78 85 71 61 64 71 57 52 56 56 47 46 66 82 58 61 68 81 89 79 90 108 105 123 130 102 63 50 46 45 32 33 45 57 61 63 63 59 61 71 87 85 85 67 46 32 31 42 42 30 17 17 17 23 18 18 23 37 50 71 76 66 77 
73 71 67 63 52 48 49 62 52 41 34 33 30 33 38 42 42 38 34 31 27 24 25 23 20 21 20 23 28 35 39 36 25 20 19 19 20 28 28 31 38 40 38 46 57 63 65 50 46 53 38 28 23 25 21 19 15 18 14 22 37 29 19 26 27 21 17 25 28 31 38 36 32 29 34 37 35 38 40 40 40 40 32 25 33 34 28 37 49 48 40 28 26 29 34 43 40 41 55 61 74 84 74 48 39 35 37 44 40 30 31 32 30 29 33 37 39 44 58 56 50 47 37 26 25 21 21 19 20 27 37 44 34 24 33 37 41 37 35 34 42 47 41 43 46 54 53 58 68 66 57 53 55 54 39 43 52 52 52 57 72 80 79 59 64 76 82 82 67 50 53 57 47 42 53 61 60 48 43 38 43 40 39 41 33 22 28 28 31 33 40 90 120 112 79 67 75 90 96 106 104 103 113 102 79 69 43 31 30 30 41 46 38 52 70 63 48 49 67 53 67 69 72 76 79 69 61 56 56 57 56 64 56 50 51 66 82 81 63 69 102 99 96 111 132 127 126 127 113 78 54 52 44 48 31 42 46 50 56 63 61 66 86 91 82 66 51 30 26 26 31 31 21 15 16 17 17 22 20 24 30 37 45 54 47 51 
43 56 57 56 50 40 53 67 50 42 42 36 36 33 32 40 34 35 39 42 40 36 34 30 28 26 26 22 27 29 37 37 26 19 19 19 22 24 20 20 27 29 29 35 50 69 74 65 68 62 52 30 27 21 22 20 16 15 15 20 32 23 19 26 27 17 17 27 34 32 41 42 36 31 36 43 41 37 36 40 39 41 39 34 40 35 25 19 29 32 26 27 33 34 36 37 35 35 48 59 79 87 70 49 36 36 39 42 39 33 35 41 40 34 32 43 46 57 63 61 55 46 41 37 35 34 23 23 20 23 28 25 22 25 26 32 33 33 32 38 44 55 44 43 56 57 56 63 66 55 59 62 61 46 42 38 39 39 37 56 71 93 83 55 47 56 77 68 61 42 44 47 42 39 52 75 81 62 41 42 40 40 43 45 30 31 27 32 31 30 59 110 129 98 63 66 71 70 67 63 65 89 104 80 73 54 30 30 26 31 52 52 39 59 77 67 46 54 75 74 75 89 75 81 84 77 63 61 57 59 63 55 58 58 53 64 91 97 76 92 107 105 85 100 124 127 118 126 123 101 67 57 67 57 47 39 48 56 71 77 60 61 74 68 55 42 35 25 23 25 27 34 29 20 16 17 19 22 20 18 27 25 43 37 28 25 
34 36 48 55 53 46 54 72 57 38 41 41 48 45 37 51 42 33 40 51 53 49 43 38 37 40 31 33 30 33 34 37 27 21 19 18 20 20 19 18 20 22 23 29 43 64 81 83 80 74 51 37 29 30 26 24 19 17 16 21 27 20 18 23 22 16 16 22 27 27 33 35 32 28 33 40 41 38 37 39 44 46 50 50 48 34 20 20 20 24 26 28 35 39 40 42 32 40 44 60 77 86 63 38 42 43 44 38 37 38 41 47 51 43 43 49 72 82 82 66 54 46 43 47 50 48 38 25 25 24 19 17 19 22 28 19 22 20 27 36 49 45 42 40 44 54 63 61 59 57 72 72 54 43 33 42 37 34 40 43 55 67 72 47 44 70 80 85 65 50 37 46 61 40 39 76 76 68 60 51 44 40 54 53 50 51 43 38 38 39 77 113 129 87 76 68 60 58 52 55 69 88 97 82 64 41 33 29 28 39 69 64 52 58 76 66 43 58 77 70 76 92 86 95 101 103 94 67 64 64 55 54 51 49 54 47 96 107 103 91 101 90 70 76 101 109 95 97 117 94 72 67 73 70 49 44 63 82 91 89 71 67 74 60 44 48 32 25 20 21 31 44 47 36 26 20 17 18 17 17 18 39 53 42 30 29 
23 30 46 61 57 46 51 67 60 37 36 45 58 60 55 67 57 35 37 50 57 56 47 44 52 55 50 45 46 40 39 34 32 29 25 19 18 18 18 18 15 17 17 21 29 40 57 73 75 67 45 35 38 39 31 28 24 23 21 21 21 18 16 18 17 19 17 18 22 24 27 28 29 30 36 41 45 45 41 41 41 42 52 57 52 33 17 19 19 26 28 27 32 36 37 43 36 35 42 54 78 84 67 46 43 49 49 41 40 45 42 51 56 62 59 72 91 95 75 54 44 41 42 48 49 46 41 32 27 26 21 18 20 25 30 26 14 23 27 30 34 32 28 34 43 57 70 71 66 68 84 80 55 35 41 48 46 43 51 42 43 51 60 49 55 66 85 73 66 52 42 53 72 57 49 54 60 59 65 60 47 32 42 50 51 62 53 52 51 59 67 104 86 85 78 64 56 66 76 80 77 90 91 72 55 42 36 37 36 49 75 68 60 52 71 74 64 63 67 56 80 101 109 116 126 121 117 76 51 58 61 53 51 55 45 45 86 135 117 108 85 89 78 80 105 114 90 91 99 83 74 80 79 72 52 52 67 79 80 76 68 72 81 60 63 56 40 26 18 16 22 33 34 30 25 22 22 21 19 22 28 42 50 47 31 39 
15 29 41 60 64 51 46 65 60 44 37 41 55 58 53 66 55 31 29 38 49 54 47 46 55 62 60 54 53 50 40 39 33 33 27 19 17 16 17 16 16 18 18 20 22 23 37 61 70 53 42 37 46 50 38 30 24 24 23 21 19 21 18 16 16 19 17 19 25 29 26 27 29 35 43 48 51 50 44 43 38 39 50 60 59 41 31 17 19 28 29 28 32 38 44 40 37 35 38 38 55 74 82 63 45 48 47 43 46 41 39 42 56 63 71 89 101 103 82 61 49 54 55 62 63 50 45 37 28 24 19 19 20 25 33 27 26 32 34 33 27 27 36 36 41 50 70 86 87 86 91 76 52 43 45 50 48 56 59 52 43 49 50 54 59 62 81 72 60 66 62 62 76 68 69 56 46 46 55 58 46 44 47 50 53 64 56 65 80 66 64 66 70 76 86 81 69 79 78 74 67 80 78 58 45 46 44 36 36 48 63 60 62 58 64 101 84 74 70 63 86 104 124 128 99 113 109 92 52 64 68 75 74 70 56 52 91 118 129 107 82 90 102 98 106 107 92 87 89 76 67 71 79 77 61 52 59 61 60 63 66 67 60 58 59 52 37 20 19 24 24 21 18 17 19 24 30 31 33 34 38 44 55 39 31 22 
30 25 34 49 64 60 48 51 57 46 40 40 46 47 42 54 50 32 24 24 36 42 38 35 43 59 58 59 44 41 34 31 32 31 27 20 16 15 15 17 20 21 21 22 19 19 38 61 62 45 36 39 46 56 41 30 21 22 21 19 21 26 24 21 19 20 19 21 26 29 24 24 31 38 42 44 43 40 41 38 37 34 42 53 57 53 39 27 23 33 37 35 40 43 42 43 30 38 36 32 32 57 76 68 45 36 37 42 56 57 52 48 56 52 58 65 83 89 87 70 70 67 71 77 67 60 46 36 30 24 20 23 23 21 28 26 29 37 46 38 36 40 51 58 41 40 68 100 116 113 98 74 58 58 56 50 53 49 54 45 49 51 57 61 64 82 96 85 81 90 96 81 74 74 70 66 39 46 60 64 68 77 66 69 69 63 71 91 104 84 53 63 72 92 119 103 83 70 62 45 58 77 71 51 41 56 63 51 43 50 65 62 71 57 62 87 105 90 84 90 88 100 118 123 88 80 107 107 92 66 80 84 91 85 62 45 84 120 123 108 99 105 116 107 89 80 75 80 87 62 57 66 79 83 72 57 51 49 52 59 57 48 42 45 47 38 18 23 24 25 25 20 13 14 17 22 30 32 29 32 30 41 44 38 30 14 
23 20 23 36 50 54 46 40 48 40 39 44 45 43 41 46 50 39 30 24 33 33 26 28 43 51 57 56 50 41 37 32 32 31 31 26 19 15 14 17 23 21 19 18 18 26 40 53 44 33 32 30 40 48 35 26 23 26 23 19 23 28 26 28 27 27 25 25 26 28 22 26 32 37 36 36 35 34 36 38 43 40 42 48 53 55 37 21 20 33 39 41 47 43 39 36 33 32 35 30 32 38 62 60 50 44 45 49 61 71 72 66 60 56 49 49 50 60 68 66 63 79 67 62 57 42 48 42 31 33 38 35 28 22 23 28 25 39 44 44 37 43 62 58 51 40 57 90 113 113 92 64 60 71 71 72 51 48 49 61 81 82 84 84 81 89 104 97 91 111 116 99 77 70 81 59 50 54 69 76 86 93 88 79 67 73 67 93 108 91 68 78 90 105 111 92 59 49 46 55 56 71 58 30 31 58 62 51 46 51 64 58 72 52 40 67 81 100 87 83 87 91 118 125 97 80 97 113 101 82 66 84 96 83 52 44 79 105 106 99 89 118 110 100 72 59 58 78 74 66 68 75 91 89 72 60 49 44 45 44 42 32 30 36 39 22 23 23 25 22 20 12 13 17 17 17 22 23 22 20 19 27 31 36 26 24 
26 24 18 23 33 39 37 38 42 41 37 41 43 47 44 47 54 40 37 32 33 27 25 39 46 44 42 50 56 55 48 39 34 32 29 27 19 14 14 15 20 19 14 14 24 37 41 39 28 25 26 27 36 42 32 24 26 35 35 24 27 32 26 30 27 32 29 33 36 41 36 35 40 41 38 35 34 31 38 47 58 65 47 47 52 53 33 16 19 27 36 48 48 43 45 42 35 35 27 32 31 32 48 58 59 57 45 41 45 48 55 56 50 51 57 44 41 50 56 56 62 70 65 51 49 62 62 51 54 50 50 52 35 21 30 31 28 29 39 41 35 42 51 56 46 40 41 60 81 90 77 57 63 88 112 91 81 67 71 102 111 107 93 85 82 84 91 85 89 102 106 105 88 80 70 54 43 47 62 65 79 100 90 64 69 58 68 78 95 102 91 91 91 84 75 62 45 49 66 64 62 65 44 25 46 54 53 41 35 45 51 52 53 47 39 53 81 83 88 70 83 96 114 130 113 109 89 90 99 96 83 90 89 73 45 38 64 87 75 68 86 97 103 74 62 49 58 65 71 62 73 89 87 87 80 62 52 36 35 26 26 24 21 29 27 23 27 25 20 19 15 18 14 28 21 17 18 19 21 21 27 27 31 35 37 47 
22 22 22 18 19 23 26 32 36 39 31 30 36 42 49 60 62 43 38 34 35 36 42 44 42 32 25 43 55 57 51 39 36 30 27 22 18 20 18 17 19 16 13 15 22 36 35 27 25 26 25 25 31 39 28 26 30 41 35 28 31 32 29 25 31 28 37 43 51 59 55 46 41 39 34 35 31 39 41 58 70 75 61 45 52 51 29 18 23 35 39 46 54 43 44 43 38 31 34 32 35 30 38 57 55 52 42 35 35 40 51 46 47 55 58 47 35 43 43 44 51 57 55 56 66 76 79 80 82 63 58 48 36 29 35 36 24 22 30 35 39 42 41 41 44 40 38 44 69 76 65 52 68 109 122 127 109 94 93 105 107 82 71 60 56 63 65 65 72 65 74 86 82 82 71 51 39 38 43 52 62 78 67 58 58 71 72 69 75 84 87 88 86 71 69 62 64 75 82 75 65 61 43 46 69 65 45 34 36 38 44 38 51 57 65 70 77 94 90 94 84 91 106 110 108 111 85 67 82 95 87 87 66 39 42 59 77 89 88 74 80 88 77 76 60 49 55 71 71 69 80 96 88 90 90 84 59 54 47 30 23 22 22 20 20 21 21 20 18 16 24 21 36 36 29 19 18 21 21 30 27 32 34 36 28 12 
15 23 22 18 18 20 23 26 37 33 28 25 26 39 43 71 71 46 39 37 41 44 50 42 28 22 25 35 45 53 45 37 37 30 23 24 22 24 26 26 22 17 14 16 21 27 29 27 33 32 30 27 31 31 31 28 31 36 36 29 36 38 27 29 22 26 22 37 47 55 57 54 43 35 32 29 39 51 64 61 71 74 61 50 49 46 25 23 33 43 45 49 52 49 42 43 38 37 35 42 37 34 35 38 45 38 33 34 35 37 40 46 45 45 51 33 32 36 42 40 42 51 52 53 56 68 71 74 84 67 46 42 37 38 35 30 20 19 24 33 39 39 34 32 41 43 41 49 63 74 60 57 84 103 127 108 102 109 92 94 87 62 53 46 47 49 54 68 56 52 49 60 62 69 62 40 33 31 37 46 50 41 36 43 55 70 73 64 52 60 63 72 79 84 76 80 67 59 62 49 38 36 32 56 84 69 44 39 43 39 39 40 58 76 72 76 72 86 127 124 99 78 82 91 85 89 81 66 73 81 75 74 74 52 50 73 84 79 77 73 61 58 71 76 69 51 60 90 89 71 83 90 67 61 72 59 60 62 64 55 30 24 20 20 21 22 20 18 17 20 23 35 42 53 27 16 21 18 31 32 34 37 47 34 25 20 
21 22 19 18 22 25 26 31 36 35 30 27 29 36 44 63 67 43 44 39 38 41 38 27 22 24 26 28 39 49 45 38 37 28 22 22 21 24 31 30 30 22 17 16 19 23 25 28 31 32 29 23 26 26 25 27 28 36 38 38 42 36 27 21 24 20 29 39 45 45 45 46 39 32 30 32 42 60 64 73 72 76 64 60 47 40 30 27 42 47 39 45 53 46 45 44 47 45 48 48 46 45 42 37 32 31 33 36 38 37 36 40 49 48 37 29 27 41 50 47 46 48 54 55 51 51 48 49 54 42 34 36 36 37 36 24 22 22 23 30 40 43 38 46 45 47 49 54 64 61 57 66 77 108 98 89 94 106 102 97 83 70 47 49 54 65 77 77 70 58 57 61 58 68 59 31 31 34 38 65 54 33 41 39 54 57 60 62 48 39 48 50 52 56 71 69 47 39 36 33 30 32 44 80 104 81 61 62 53 45 37 39 54 59 58 53 63 82 119 136 94 82 90 86 72 71 76 74 76 80 67 82 82 78 53 45 45 39 37 43 38 38 61 72 59 53 65 100 100 69 77 77 54 40 44 37 29 41 58 58 43 29 23 27 35 30 27 22 21 17 21 29 43 51 35 21 20 30 31 39 41 51 60 41 28 20 
29 23 19 22 27 28 27 28 31 33 30 30 36 42 42 62 50 40 44 37 36 32 27 24 22 24 22 23 34 44 43 40 32 24 22 22 22 24 26 30 32 30 23 19 18 21 23 26 41 23 20 22 19 23 23 24 25 29 31 32 35 31 24 23 21 24 29 51 44 29 32 37 28 25 29 40 46 53 50 64 72 75 77 69 60 38 31 34 41 48 45 45 53 45 36 41 43 41 48 45 41 42 46 53 39 32 35 39 44 45 38 44 57 56 44 32 32 48 62 53 48 50 59 59 55 52 46 34 35 32 37 26 27 36 32 25 24 25 27 31 39 45 49 49 51 48 60 62 56 51 56 59 80 99 110 92 83 108 101 86 86 68 54 42 50 61 69 67 51 53 57 53 53 68 69 44 35 37 55 72 79 60 61 72 56 57 60 51 45 42 43 57 41 47 65 55 37 28 27 33 39 41 66 93 100 84 74 56 53 44 36 31 36 44 47 67 71 72 94 108 95 95 113 101 67 52 46 57 66 85 85 77 91 83 63 31 30 29 27 29 35 49 60 63 47 41 67 93 90 71 68 73 55 55 50 38 20 24 40 48 41 30 38 42 38 36 26 23 20 23 21 20 36 50 47 37 32 33 33 31 32 51 67 54 41 41 
37 28 21 21 24 26 26 26 24 25 30 35 41 48 50 52 42 40 46 34 32 30 27 23 24 20 20 21 28 36 36 41 32 25 26 27 25 23 23 25 30 35 33 24 18 18 23 41 46 32 20 20 26 22 26 25 25 25 26 26 27 26 25 22 21 23 37 48 53 29 23 47 29 20 29 43 57 47 45 52 58 61 69 74 65 47 31 35 42 51 63 63 62 59 53 51 50 53 55 46 36 39 52 72 68 44 43 46 51 60 53 52 64 64 55 45 41 48 57 45 38 43 45 49 46 49 46 39 37 36 29 24 23 32 31 25 21 25 29 30 35 40 42 52 48 52 61 61 43 37 43 57 79 103 104 86 81 80 83 77 66 76 53 45 45 45 43 33 32 47 53 54 51 76 74 57 42 37 41 65 61 54 66 67 60 54 63 54 52 43 55 71 51 60 63 45 23 20 30 37 39 55 80 99 89 77 81 55 46 42 38 38 42 51 63 64 73 60 75 103 96 111 116 94 66 46 39 48 57 79 85 76 71 81 75 64 43 48 39 29 33 42 59 47 34 40 57 81 76 68 63 59 76 83 60 51 31 25 30 36 28 38 50 43 36 28 26 29 31 24 24 25 28 49 51 37 35 35 29 23 29 48 58 49 47 38 
54 35 26 22 20 24 29 30 22 19 24 31 41 51 51 48 39 40 50 35 27 27 23 24 23 20 20 22 25 25 32 38 36 32 31 29 27 23 20 20 26 36 39 32 23 21 28 42 49 25 20 27 26 26 27 30 26 25 26 28 28 27 21 21 21 22 28 53 52 39 41 58 41 21 25 39 53 48 45 45 39 45 50 63 66 61 47 39 45 55 72 78 78 79 75 71 69 68 71 67 59 52 63 90 86 53 41 35 36 42 40 38 47 53 52 52 41 41 46 36 38 46 51 55 51 50 51 46 39 36 27 22 21 27 27 22 24 25 25 25 32 37 40 48 48 53 53 54 46 35 42 48 58 68 62 55 45 57 63 61 61 63 56 43 44 39 33 32 40 59 66 69 64 67 72 53 46 39 44 47 47 41 52 59 44 51 57 66 53 50 67 91 73 61 59 44 29 36 43 47 52 58 80 88 73 83 88 63 46 43 31 35 49 47 56 78 73 77 98 107 101 93 91 71 60 55 61 62 61 71 77 69 59 72 86 77 71 58 56 45 38 39 45 50 48 44 68 86 90 75 67 65 100 94 71 53 40 34 33 32 38 57 54 44 27 26 39 45 52 35 25 30 44 50 49 37 26 28 26 27 44 40 48 42 28 19 
36 29 26 24 19 21 30 29 27 23 20 23 31 37 36 36 30 39 44 33 31 23 23 25 22 21 21 22 25 23 31 32 33 34 28 26 30 30 25 19 21 29 34 34 32 30 35 44 38 24 24 26 26 24 27 31 30 28 25 26 29 31 23 19 23 28 25 30 44 33 39 53 37 20 19 29 40 45 38 34 31 38 48 47 65 62 52 50 44 51 61 62 74 84 79 67 63 66 70 48 47 46 42 65 73 54 39 23 22 22 24 31 35 34 49 45 36 32 47 39 40 49 66 73 69 56 51 54 46 35 32 28 24 24 25 24 26 26 25 25 32 36 38 43 51 51 54 61 62 48 43 43 45 46 40 43 45 42 50 53 45 54 43 47 48 41 39 51 58 57 68 63 52 52 49 51 48 55 56 58 51 48 47 52 47 44 62 56 61 50 75 106 86 65 72 81 80 69 58 61 53 57 73 72 69 80 100 59 40 36 31 34 48 53 67 77 93 86 76 91 84 85 78 63 67 66 65 57 46 47 59 69 73 74 73 77 69 60 64 66 61 53 54 63 60 64 89 113 119 117 98 96 117 106 57 52 46 51 50 44 57 64 58 31 28 33 36 58 62 47 28 33 39 45 41 31 25 24 27 40 49 50 38 37 36 27 
20 23 24 25 27 28 22 29 25 27 24 22 25 25 27 23 25 28 34 30 32 31 22 21 26 25 23 27 25 35 29 28 27 29 23 25 32 33 31 25 25 27 30 33 35 31 32 32 28 21 23 23 22 19 22 27 30 28 25 29 40 45 30 23 26 27 26 23 27 31 26 41 20 16 21 20 37 42 40 30 30 42 46 47 49 51 45 45 52 54 48 45 69 82 71 69 75 83 80 68 48 46 34 49 67 72 56 32 23 23 25 32 31 28 41 39 28 40 43 40 39 51 68 82 79 61 51 54 48 36 32 31 30 27 26 25 29 34 29 25 30 36 37 50 57 51 49 58 58 47 39 42 44 48 51 53 50 51 50 44 37 41 58 63 59 45 45 60 65 69 69 63 53 46 58 59 50 55 65 55 54 46 43 46 51 51 50 60 59 60 75 98 85 71 79 104 101 88 70 53 54 54 54 54 51 69 91 52 36 35 37 53 61 69 69 84 80 62 65 76 87 114 97 81 68 66 56 50 35 34 57 82 103 96 78 76 67 49 46 55 59 61 73 79 68 70 92 107 122 135 126 122 127 92 52 43 58 78 67 56 67 73 50 32 34 32 36 49 73 50 37 31 34 35 38 33 28 23 26 36 53 43 37 39 44 79 
18 20 24 28 40 37 28 23 27 28 27 25 29 29 24 22 23 24 25 28 38 31 25 22 28 36 35 33 35 28 31 18 24 31 27 27 34 35 29 26 30 32 24 26 31 25 20 25 20 20 19 20 20 18 20 24 29 31 30 40 48 51 37 23 22 23 22 24 27 31 38 39 33 29 21 26 35 43 42 31 32 44 49 49 51 43 37 40 47 56 48 46 67 84 84 78 80 81 84 71 66 52 42 43 70 73 74 44 33 30 25 32 30 34 39 36 32 41 45 28 36 49 58 71 66 51 41 49 43 43 32 35 31 34 33 37 41 51 42 27 29 29 38 58 54 51 37 45 47 35 42 45 48 52 55 51 54 63 68 46 32 48 60 69 62 40 46 61 65 68 69 62 48 56 70 73 63 60 69 55 45 45 37 42 57 59 52 57 59 56 64 74 66 58 56 64 67 73 77 55 53 47 50 47 42 51 72 51 33 35 47 64 71 67 68 65 59 53 53 67 104 122 112 81 66 56 52 44 40 43 62 86 106 104 77 77 75 53 44 44 48 66 87 84 72 71 83 81 107 131 132 144 132 105 70 67 81 87 75 64 69 73 64 39 35 34 39 57 78 63 53 44 37 37 37 32 24 21 25 32 48 46 36 32 28 29 
17 21 22 30 45 44 30 23 24 26 24 26 31 28 26 22 19 21 23 27 34 30 23 25 31 54 50 43 38 29 21 23 28 34 37 40 47 47 42 33 32 32 28 26 28 24 22 23 23 19 18 18 19 19 19 24 34 37 44 43 43 41 30 26 23 25 29 29 31 33 40 49 47 39 34 30 35 45 40 38 35 42 44 52 52 46 45 44 47 58 48 45 64 84 95 98 87 73 68 68 62 53 47 50 52 67 65 54 49 40 26 25 29 34 38 29 37 45 38 29 33 49 62 61 67 51 40 45 51 63 56 33 36 34 39 39 48 58 45 29 27 29 43 45 53 39 38 35 35 35 38 43 47 56 48 42 38 54 56 43 36 49 57 56 41 40 46 56 60 57 55 44 38 43 60 66 55 66 63 53 48 48 43 40 53 63 60 57 63 61 61 54 57 50 46 37 38 70 64 60 46 55 54 49 46 37 48 38 28 32 57 63 62 62 58 51 49 43 51 73 102 127 104 77 66 73 65 57 62 73 87 100 102 89 78 79 89 86 86 86 87 94 102 102 86 94 86 86 99 121 137 142 143 125 104 91 84 81 70 60 65 75 81 54 36 38 39 64 82 75 73 73 52 40 32 24 17 16 26 31 42 49 42 38 34 57 
20 19 21 17 51 33 26 22 19 22 29 30 37 27 22 23 19 24 22 31 42 22 31 36 19 89 66 32 47 22 25 30 17 21 25 25 44 48 57 42 31 28 31 24 26 21 21 27 24 20 19 19 19 18 19 23 47 53 65 54 27 29 31 22 31 31 43 36 38 47 46 43 37 35 18 20 18 34 30 52 41 45 38 51 50 37 38 53 50 54 40 52 54 90 117 88 75 73 61 47 64 43 55 46 37 33 60 57 72 81 39 45 28 50 23 32 48 33 33 41 37 51 61 59 73 58 42 40 33 121 90 42 56 43 47 34 29 52 29 20 31 32 66 32 39 57 47 23 33 33 34 31 46 71 36 29 21 18 34 17 39 85 58 43 36 39 55 58 61 47 39 44 36 47 57 75 77 57 48 42 61 86 76 38 42 66 67 60 76 82 66 57 59 73 69 58 52 65 68 51 48 66 54 27 57 21 38 38 5 36 87 70 56 60 63 48 34 44 64 73 122 138 95 100 77 160 125 79 92 108 107 104 108 92 102 93 92 96 94 97 109 118 94 116 126 140 80 88 90 104 140 142 99 130 97 101 70 64 93 59 46 60 137 61 38 40 38 63 88 57 91 99 51 28 22 24 15 11 43 15 26 49 45 70 33 64 
