P2
#Algum comentário aqui!
286 422
255
94 87 73 94 88 77 81 62 44 114 112 78 60 22 29 33 42 38 32 58 55 32 26 28 21 11 39 63 32 56 54 49 39 52 83 85 86 68 67 85 75 68 59 74 60 35 33 47 36 23 34 67 22 23 31 64 38 32 16 20 40 30 25 24 17 20 20 17 37 51 31 24 20 24 26 35 24 29 36 31 21 19 30 28 20 35 19 41 59 19 46 40 40 64 40 77 129 75 49 39 45 33 39 64 67 41 39 53 41 37 45 36 20 29 21 33 36 13 38 39 33 30 35 33 26 24 24 25 22 24 21 18 20 23 25 24 33 27 22 21 28 40 36 29 30 31 26 25 27 23 24 27 21 25 23 19 20 21 22 30 29 33 37 32 24 30 44 36 30 23 21 22 22 21 19 20 21 22 20 19 23 24 19 17 16 21 21 20 22 20 17 20 26 33 33 32 52 40 29 25 26 40 43 37 52 63 48 32 31 28 45 77 70 40 41 40 44 59 70 71 74 82 73 88 85 63 78 54 31 36 36 31 29 31 29 25 27 26 16 33 56 27 35 45 31 25 31 16 35 34 61 70 60 47 48 79 90 71 52 46 62 71 42 55 60 13 21 22 35 69 31 30 41 45 41 52 71 65 48 64 102 139 52 100 99 65 
85 95 90 90 85 78 74 66 64 82 82 68 53 37 34 34 36 36 35 41 40 32 27 25 23 22 32 41 37 43 44 43 43 50 62 66 67 62 62 66 63 59 55 55 47 37 34 35 31 27 31 38 27 25 29 37 31 26 21 22 27 25 22 20 18 18 19 20 27 32 27 23 21 22 23 25 23 25 27 25 21 21 24 24 22 26 25 32 37 30 36 37 40 48 48 63 77 62 48 40 38 35 38 45 45 37 35 38 35 33 33 29 23 23 22 25 25 21 27 28 27 26 27 26 23 21 21 21 20 20 19 18 18 19 20 21 23 22 20 20 24 28 27 25 25 25 23 22 22 21 21 21 20 20 20 19 19 19 21 24 25 27 28 26 24 26 30 28 25 21 19 18 18 18 17 17 18 18 18 18 19 19 17 16 15 17 18 18 18 18 18 20 23 27 29 31 36 33 29 27 28 34 37 38 43 46 42 35 33 35 43 54 53 44 41 41 45 52 58 62 65 68 67 70 67 60 58 47 37 34 32 29 28 27 26 25 25 25 24 30 36 31 32 34 30 27 28 26 33 38 48 54 52 49 52 62 66 60 52 49 52 52 44 44 41 27 25 27 34 43 35 33 37 40 42 48 56 57 56 65 82 92 73 80 77 59 
163 121 102 92 84 77 71 66 65 68 66 59 49 40 36 34 34 33 33 34 33 29 26 24 23 24 28 32 33 36 37 38 40 44 50 53 54 53 53 54 52 50 47 44 39 34 31 29 27 26 27 28 25 24 25 27 25 23 21 21 22 21 19 18 17 17 18 19 22 24 23 21 20 20 20 21 21 21 22 21 20 20 21 21 21 22 23 26 29 29 31 33 36 40 43 50 54 49 42 37 34 32 33 35 34 31 30 30 29 27 26 24 21 20 20 21 21 20 21 22 22 22 22 21 19 18 18 18 17 17 17 17 17 17 17 18 18 18 18 18 20 22 22 21 21 21 20 19 19 18 18 18 18 18 18 18 18 18 19 20 21 22 22 21 21 22 23 22 21 19 17 16 16 16 16 16 16 16 16 16 16 16 15 15 15 15 16 16 16 17 18 19 21 24 26 27 29 28 27 27 28 31 33 35 37 39 37 35 34 36 40 44 44 41 40 40 43 47 51 54 56 57 57 58 56 52 48 42 36 32 30 28 27 26 25 25 25 25 25 27 29 29 29 30 29 28 28 29 33 37 42 46 47 47 49 53 54 52 48 46 45 43 40 38 35 29 27 28 31 34 33 33 35 37 40 44 49 52 55 61 69 74 71 73 72 66 
149 124 105 92 82 75 69 64 62 61 58 52 46 40 36 34 32 31 30 30 29 27 25 23 23 23 25 27 29 31 32 33 35 38 41 44 45 45 45 45 44 42 39 36 33 30 27 25 24 23 23 23 22 21 21 22 21 20 19 19 19 18 17 17 17 17 17 18 19 20 20 19 19 19 19 19 19 19 19 19 19 19 19 19 19 20 21 23 25 26 27 29 31 34 37 40 41 39 35 32 30 28 28 28 27 26 25 25 24 22 21 20 18 18 18 18 18 18 18 18 18 18 18 18 17 16 16 16 16 16 16 16 16 16 16 16 16 16 16 16 17 18 18 18 18 18 17 17 17 17 17 17 17 17 17 17 17 17 17 17 18 18 18 18 18 18 18 18 18 17 16 15 15 15 15 15 15 15 15 15 15 15 15 15 15 15 15 15 16 17 18 19 20 22 23 24 25 26 26 27 28 29 31 32 34 35 34 33 33 34 36 38 39 38 38 38 40 42 45 47 48 49 49 48 47 44 41 37 33 30 28 26 25 25 25 25 25 25 25 25 26 27 27 28 28 28 29 30 33 36 39 41 43 44 45 47 47 46 44 42 40 38 36 34 32 29 27 27 29 30 31 32 33 35 37 40 44 47 51 56 61 65 67 70 76 89 
153 121 103 90 80 72 66 62 59 56 52 48 43 38 35 33 31 30 29 28 26 25 23 22 22 22 23 24 25 27 28 29 30 32 34 36 37 38 38 38 37 35 32 30 28 26 24 22 21 20 20 20 19 19 19 19 18 18 17 17 17 17 17 17 17 17 17 17 17 18 18 18 18 18 18 18 18 18 18 18 18 18 18 18 18 18 19 20 21 22 23 25 27 29 30 32 32 31 29 27 25 24 23 23 22 21 21 21 20 19 18 17 16 16 16 16 16 16 16 16 16 16 16 16 15 15 15 15 15 15 15 15 15 15 15 15 15 15 15 15 15 16 16 16 16 16 16 16 16 16 16 16 16 16 16 16 16 16 16 16 16 16 16 16 16 16 16 16 16 15 15 15 15 15 15 15 15 15 15 15 15 15 15 15 15 15 15 15 16 17 18 19 20 21 22 23 24 25 26 27 28 29 30 31 31 32 32 32 32 33 34 35 36 36 36 36 37 38 40 41 42 42 42 41 40 38 36 33 30 28 26 25 25 25 25 25 25 25 25 25 25 26 26 27 28 29 30 31 33 35 36 38 39 40 41 42 42 41 40 38 36 35 33 31 30 28 27 27 28 29 30 31 32 33 35 37 40 43 47 51 55 58 62 67 77 94 
102 106 96 85 76 69 63 59 55 52 48 44 40 36 34 32 30 29 28 26 25 24 22 21 21 21 21 22 22 23 24 25 26 27 29 30 31 32 32 32 31 29 27 25 24 22 21 20 19 18 18 18 17 17 17 17 17 17 17 17 17 17 17 17 17 17 17 17 17 17 17 17 17 17 17 17 17 17 17 17 17 17 17 17 17 17 17 18 19 20 21 22 23 24 25 26 26 25 24 23 21 20 19 19 18 18 18 18 17 16 16 15 15 15 15 15 15 15 15 15 15 15 15 15 15 15 15 15 15 15 15 15 15 15 15 15 15 15 15 15 15 15 15 15 15 15 15 15 15 15 15 15 15 15 15 15 15 15 15 15 15 15 15 15 15 15 15 15 15 15 15 15 15 15 15 15 15 15 15 15 15 15 15 15 15 15 15 15 16 17 18 19 20 21 22 23 24 25 26 27 27 28 29 29 29 30 30 30 31 32 32 33 34 34 34 34 34 35 36 36 37 37 36 36 35 33 31 29 27 26 25 25 25 25 25 25 25 25 25 25 25 26 27 28 29 30 31 32 33 34 35 36 37 38 39 39 39 38 37 35 34 33 31 30 29 28 27 26 27 28 29 30 31 32 33 35 37 40 43 46 50 53 57 63 75 103 
133 107 91 80 71 65 60 56 52 49 45 41 38 35 32 30 29 28 27 25 24 23 21 20 20 20 20 20 20 21 21 22 23 24 25 26 26 27 27 27 26 24 23 22 21 20 19 18 17 17 17 17 17 17 17 17 17 17 17 17 17 17 17 17 17 17 17 17 17 17 17 17 17 17 17 17 17 17 17 17 17 17 17 17 17 17 17 17 17 18 18 19 19 20 21 21 21 21 20 19 18 17 16 16 16 16 16 16 15 15 15 15 15 15 15 15 15 15 15 15 15 15 15 15 15 15 15 15 15 15 15 15 15 15 15 15 15 15 15 15 15 15 15 15 15 15 15 15 15 15 15 15 15 15 15 15 15 15 15 15 15 15 15 15 15 15 15 15 15 15 15 15 15 15 15 15 15 15 15 15 15 15 15 15 15 15 15 15 16 17 18 19 20 21 22 23 24 25 26 26 26 27 28 28 28 29 29 29 30 31 31 32 32 32 32 32 32 32 32 32 33 32 32 32 31 29 28 27 26 25 25 25 25 25 25 25 25 25 25 25 26 27 28 29 30 31 32 32 33 34 34 34 35 36 37 37 37 36 35 34 33 32 30 29 28 27 26 26 26 27 28 29 30 31 32 33 35 37 40 43 46 49 52 56 61 62 
131 99 83 73 66 60 55 52 48 45 42 39 36 33 31 29 28 27 26 24 23 22 20 19 19 19 19 19 19 19 19 19 20 20 21 22 22 23 23 23 22 21 20 19 18 18 17 17 17 17 17 17 17 17 17 17 17 17 17 17 17 17 17 17 17 17 17 17 17 17 17 17 17 17 17 17 17 17 17 17 17 17 17 17 17 17 17 16 16 16 16 16 16 17 18 18 18 18 17 16 16 15 15 15 15 15 15 15 15 15 15 15 15 15 15 15 15 15 15 15 15 15 15 15 15 15 15 15 15 15 15 15 15 15 15 15 15 15 15 15 15 15 15 15 15 15 15 15 15 15 15 15 15 15 15 15 15 15 15 15 15 15 15 15 15 15 15 15 15 15 15 15 15 15 15 15 15 15 15 15 15 15 15 15 15 15 15 15 16 17 18 19 20 20 21 22 23 24 25 25 25 26 27 28 28 29 29 29 30 31 31 31 31 31 31 31 30 30 30 30 29 29 29 28 28 27 26 25 25 24 24 24 24 24 24 24 24 24 25 26 27 28 29 30 31 32 32 33 33 33 33 33 34 35 36 36 35 34 33 32 31 30 29 28 27 26 26 26 26 26 27 28 29 30 31 32 33 35 37 40 42 45 48 51 53 52 
91 78 70 64 59 54 51 48 45 42 39 36 34 31 29 28 27 26 25 23 22 21 19 18 18 18 18 18 18 18 18 18 18 18 18 19 19 20 20 20 19 18 18 17 17 17 17 17 17 17 17 17 17 17 17 17 17 17 17 17 17 17 17 17 17 17 17 17 17 17 17 17 17 17 17 17 17 17 17 17 17 17 17 17 17 17 16 16 15 15 15 15 15 15 16 16 16 16 15 15 15 15 15 15 15 15 15 15 15 15 15 15 15 15 15 15 15 15 15 15 15 15 15 15 15 15 15 15 15 15 15 15 15 15 15 15 15 15 15 15 15 15 15 15 15 15 15 15 15 15 15 15 15 15 15 15 15 15 15 15 15 15 15 15 15 15 15 15 15 15 15 15 15 15 15 15 15 15 15 15 15 15 15 15 15 15 15 15 16 17 18 19 19 20 20 21 22 23 24 24 24 25 26 27 28 29 30 30 31 31 31 31 31 31 30 29 29 28 28 27 27 27 26 26 25 25 24 24 24 24 24 24 24 24 24 24 24 25 26 27 28 29 30 31 32 33 33 33 33 33 33 33 34 35 36 35 34 33 32 31 30 29 28 27 26 26 26 26 26 26 27 28 29 30 31 32 33 34 36 38 40 42 45 47 49 56 
43 54 56 54 52 49 46 44 41 39 36 34 32 30 28 27 26 25 24 22 21 20 18 17 17 17 17 17 17 17 17 17 17 17 17 17 17 18 18 18 17 17 17 17 17 17 17 17 17 17 17 17 17 17 17 17 17 17 17 17 17 17 17 17 17 17 17 17 17 17 17 17 17 17 17 17 17 17 17 17 17 17 17 17 17 16 16 15 15 15 15 15 15 15 15 15 15 15 15 15 15 15 15 15 15 15 15 15 15 15 15 15 15 15 15 15 15 15 15 15 15 15 15 15 15 15 15 15 15 15 15 15 15 15 15 15 15 15 15 15 15 15 15 15 15 15 15 15 15 15 15 15 15 15 15 15 15 15 15 15 15 15 15 15 15 15 15 15 15 15 15 15 15 15 15 15 15 15 15 15 15 15 15 15 15 15 15 15 16 17 18 18 19 19 19 20 21 22 23 23 23 24 26 27 28 29 30 31 32 32 32 32 32 31 30 28 27 27 26 26 26 25 25 24 24 24 23 23 23 23 23 23 23 23 24 24 25 26 27 28 29 30 31 32 33 34 34 34 34 34 34 34 35 36 36 35 34 33 32 31 30 29 28 27 26 26 26 26 26 26 27 28 29 30 31 32 33 34 35 37 39 41 43 44 40 17 
31 42 46 47 46 44 42 40 38 36 34 32 30 29 27 26 25 24 23 21 20 19 17 17 17 17 17 17 17 17 17 17 17 17 17 17 17 17 17 17 17 17 17 17 17 17 17 17 17 17 17 17 17 17 17 17 17 17 17 17 17 17 17 17 17 17 17 17 17 17 17 17 17 17 17 17 17 17 17 17 17 17 17 17 16 16 15 15 15 15 15 15 15 15 15 15 15 15 15 15 15 15 15 15 15 15 15 15 15 15 15 15 15 15 15 15 15 15 15 15 15 15 15 15 15 15 15 15 15 15 15 15 15 15 15 15 15 15 15 15 15 15 15 15 15 15 15 15 15 15 15 15 15 15 15 15 15 15 15 15 15 15 15 15 15 15 15 15 15 15 15 15 15 15 15 15 15 15 15 15 15 15 15 15 15 15 15 15 16 17 17 18 18 18 18 19 21 22 23 22 22 23 25 27 28 30 31 33 34 34 34 34 33 31 29 28 26 26 25 25 25 24 24 23 23 23 22 22 22 22 22 23 23 24 24 25 26 27 28 29 30 31 32 33 34 35 35 35 35 36 36 36 37 37 37 36 35 34 33 31 30 29 28 27 26 26 26 26 26 26 27 28 29 30 31 32 33 34 35 37 39 41 43 46 50 59 
33 41 42 42 41 40 38 36 35 33 31 30 29 28 26 25 24 23 22 20 19 18 17 17 17 17 17 17 17 17 17 17 17 17 17 17 17 17 17 17 17 17 17 17 17 17 17 17 17 17 17 17 17 17 17 17 17 17 17 17 17 17 17 17 17 17 17 17 17 17 17 17 17 17 17 17 17 17 17 17 17 17 17 16 16 15 15 15 15 15 15 15 15 15 15 15 15 15 15 15 15 15 15 15 15 15 15 15 15 15 15 15 15 15 15 15 15 15 15 15 15 15 15 15 15 15 15 15 15 15 15 15 15 15 15 15 15 15 15 15 15 15 15 15 15 15 15 15 15 15 15 15 15 15 15 15 15 15 15 15 15 15 15 15 15 15 15 15 15 15 15 15 15 15 15 15 15 15 15 15 15 15 15 15 15 15 15 15 16 16 17 17 17 17 18 19 20 21 22 21 21 22 24 26 28 30 32 34 36 37 37 36 34 32 29 27 25 25 24 24 24 23 23 22 22 22 22 22 22 22 23 24 24 25 25 26 27 28 29 30 31 32 33 34 35 36 36 36 36 37 38 38 39 39 39 38 37 35 33 32 30 29 28 27 26 26 26 26 26 26 27 28 29 30 31 32 33 34 35 37 39 41 44 48 56 77 
75 49 41 39 38 37 35 34 33 31 30 29 28 27 25 24 23 22 21 19 18 17 17 17 17 17 17 17 17 17 17 17 17 17 17 17 17 17 17 17 17 17 17 17 17 17 17 17 17 17 17 17 17 17 17 17 17 17 17 17 17 17 17 17 17 17 17 17 17 17 17 17 17 17 17 17 17 17 17 17 17 17 17 16 16 15 15 15 15 15 15 15 15 15 15 15 15 15 15 15 15 15 15 15 15 15 15 15 15 15 15 15 15 15 15 15 15 15 15 15 15 15 15 15 15 15 15 15 15 15 15 15 15 15 15 15 15 15 15 15 15 15 15 15 15 15 15 15 15 15 15 15 15 15 15 15 15 15 15 15 15 15 15 15 15 15 15 15 15 15 15 15 15 15 15 15 15 15 15 15 15 15 15 15 15 15 15 15 15 16 16 16 16 17 17 18 19 20 20 20 20 21 23 25 28 31 33 35 37 38 38 37 35 32 29 26 24 24 23 23 23 22 22 21 21 21 21 21 22 22 23 24 25 26 26 27 28 29 30 31 32 33 34 35 36 36 36 37 37 38 39 40 41 42 42 41 39 36 34 32 30 29 28 27 26 26 26 26 26 26 27 28 29 30 31 32 33 34 35 37 39 41 44 47 50 48 
45 40 37 36 35 34 33 32 31 30 29 28 27 26 24 23 22 21 20 19 18 17 17 17 17 17 17 17 17 17 17 17 17 17 17 17 17 17 17 17 17 17 17 17 17 17 17 17 17 17 17 17 17 17 17 17 17 17 17 17 17 17 17 17 17 17 17 17 17 18 18 18 18 18 18 18 17 17 17 17 17 17 16 16 16 15 15 15 15 15 15 15 15 15 15 15 15 15 14 14 14 14 14 14 14 14 14 14 14 14 14 14 14 14 14 14 14 14 14 14 14 14 14 14 14 14 14 14 14 14 14 14 14 14 14 14 14 14 14 14 14 14 14 14 14 14 14 14 14 14 14 14 14 14 14 14 14 14 14 14 14 14 14 14 14 14 14 14 14 14 14 14 14 14 14 14 14 14 14 14 14 14 14 14 14 14 14 14 15 15 15 15 16 16 17 17 18 19 19 19 19 20 22 24 27 31 34 36 37 38 38 36 34 31 28 25 23 23 22 22 22 21 21 21 21 21 21 21 22 23 24 25 26 27 27 28 29 30 31 32 33 34 35 36 36 36 36 37 38 39 41 42 43 44 43 42 40 37 34 32 30 29 28 27 26 26 26 26 26 26 27 28 29 30 31 32 33 34 35 37 39 41 44 47 50 50 
16 32 34 34 34 33 32 31 30 29 28 27 26 25 24 23 22 21 20 19 18 17 17 17 17 17 17 17 17 17 17 17 17 17 17 17 17 17 17 17 17 17 17 17 17 17 17 17 17 17 17 17 17 17 17 17 17 17 17 17 17 17 17 17 17 17 17 17 17 18 19 20 20 20 20 20 19 18 17 17 17 16 16 16 15 15 15 15 15 15 15 15 15 15 15 15 15 14 14 14 14 14 14 14 14 14 14 14 14 14 14 14 14 14 14 14 14 14 14 14 14 14 14 14 14 14 14 14 14 14 14 14 14 14 14 14 14 14 14 14 14 14 14 14 14 14 14 14 14 14 14 14 14 14 14 14 14 14 14 14 14 14 14 14 14 14 14 14 14 14 14 14 14 14 14 14 14 14 14 14 14 14 14 14 14 14 14 14 14 14 14 15 15 16 16 16 17 18 18 18 18 19 21 23 26 30 33 35 36 37 37 35 32 29 27 24 22 22 21 21 21 20 20 20 20 20 21 21 22 23 24 25 26 27 28 29 30 31 32 33 34 35 36 36 36 36 36 37 39 40 42 44 45 45 44 42 40 37 34 32 30 29 28 27 26 26 26 26 26 26 27 28 29 30 31 32 33 34 35 37 39 41 44 48 55 75 
54 40 36 35 34 33 32 31 30 29 28 27 26 25 24 23 22 21 20 19 18 17 17 17 17 17 17 17 17 17 17 17 17 17 17 17 17 17 17 17 17 17 17 17 17 17 17 17 17 17 17 17 17 17 17 17 17 17 17 17 17 17 17 17 17 17 17 17 18 19 21 22 22 22 22 22 21 19 18 17 16 16 16 15 15 15 15 15 15 15 15 15 15 15 15 15 14 14 14 14 14 14 14 14 14 14 14 14 14 14 14 14 14 14 14 14 14 14 14 14 14 14 14 14 14 14 14 14 14 14 14 14 14 14 14 14 14 14 14 14 14 14 14 14 14 14 14 14 14 14 14 14 14 14 14 14 14 14 14 14 14 14 14 14 14 14 14 14 14 14 14 14 14 14 14 14 14 14 14 14 14 14 14 14 14 14 14 14 14 14 14 14 15 15 15 16 16 17 17 17 17 18 20 22 25 29 32 34 35 35 35 33 30 27 25 23 21 21 20 20 20 20 20 20 20 20 21 22 23 24 25 26 27 28 29 30 31 32 33 34 35 36 36 36 36 36 36 37 39 41 43 44 45 45 44 42 39 36 33 31 29 28 27 26 26 26 26 26 26 26 27 28 29 30 31 32 33 34 35 37 39 41 43 45 47 41 
46 41 38 36 35 34 33 32 31 29 28 27 26 25 24 23 22 21 20 19 18 17 17 17 17 17 17 17 17 17 17 17 17 17 17 17 17 17 17 17 17 17 17 17 17 17 17 17 17 17 17 17 17 17 17 17 17 17 17 17 17 17 17 17 17 17 17 17 18 20 22 24 24 24 24 24 23 21 19 17 16 16 15 15 15 15 15 15 15 15 15 15 15 15 15 14 14 14 14 14 14 14 14 14 14 14 14 14 14 14 14 14 14 14 14 14 14 14 14 14 14 14 14 14 14 14 14 14 14 14 14 14 14 14 14 14 14 14 14 14 14 14 14 14 14 14 14 14 14 14 14 14 14 14 14 14 14 14 14 14 14 14 14 14 14 14 14 14 14 14 14 14 14 14 14 14 14 14 14 14 14 14 14 14 14 14 14 14 14 14 14 14 14 14 15 15 15 16 16 16 16 17 19 21 23 26 29 31 32 32 32 30 27 25 23 22 20 20 19 19 19 19 19 20 20 20 21 22 23 24 25 26 27 28 29 30 31 32 33 34 35 36 36 36 36 36 36 37 39 41 43 44 44 43 42 40 37 35 32 30 28 27 26 26 26 26 26 26 26 26 27 28 29 30 31 32 33 34 35 37 39 41 43 45 48 54 
43 42 40 38 36 35 34 33 31 29 28 27 26 25 24 23 22 21 20 19 17 17 17 17 17 17 17 17 17 17 17 17 17 17 17 17 17 17 17 17 17 17 17 17 17 17 17 17 17 17 17 17 17 17 17 17 17 17 17 17 17 17 17 17 17 17 17 17 18 20 22 25 26 26 26 26 25 22 19 17 16 15 15 15 15 15 15 15 15 15 15 15 15 15 14 14 14 14 14 14 14 14 14 14 14 14 14 14 14 14 14 14 14 14 14 14 14 14 14 14 14 14 14 14 14 14 14 14 14 14 14 14 14 14 14 14 14 14 14 14 14 14 14 14 14 14 14 14 14 14 14 14 14 14 14 14 14 14 14 14 14 14 14 14 14 14 14 14 14 14 14 14 14 14 14 14 14 14 14 14 14 14 14 14 14 14 14 14 14 14 14 14 14 14 14 14 15 15 15 15 15 16 18 20 21 23 25 27 28 28 28 26 25 23 22 21 19 19 18 18 18 19 19 20 20 21 22 23 24 25 26 27 28 29 30 31 32 33 34 35 36 36 36 36 36 36 36 37 39 41 42 42 42 41 39 37 35 33 31 29 28 27 26 26 26 26 26 26 26 26 27 28 29 30 31 32 33 34 35 37 39 41 43 46 48 44 
61 46 42 39 37 36 35 33 31 30 28 27 26 25 24 23 22 21 20 18 17 17 17 17 17 17 17 17 17 17 17 17 17 17 17 17 17 17 17 17 17 17 17 17 17 17 17 17 17 17 17 17 17 17 17 17 17 17 17 17 17 17 17 17 17 17 17 17 18 20 22 25 27 27 27 27 26 23 20 17 16 15 15 15 15 15 15 15 15 15 15 15 15 14 14 14 14 14 14 14 14 14 14 14 14 14 14 14 14 14 14 14 14 14 14 14 14 14 14 14 14 14 14 14 14 14 14 14 14 14 14 14 14 14 14 14 14 14 14 14 14 14 14 14 14 14 14 14 14 14 14 14 14 14 14 14 14 14 14 14 14 14 14 14 14 14 14 14 14 14 14 14 14 14 14 14 14 14 14 14 14 14 14 14 14 14 14 14 14 14 14 14 14 14 14 14 14 14 14 14 14 15 17 18 19 21 22 23 24 24 24 23 22 21 20 19 18 18 18 18 18 19 19 20 20 21 22 23 24 25 26 27 28 29 30 31 32 33 34 35 36 36 36 36 36 36 36 37 38 40 40 40 39 38 37 35 33 32 30 28 27 26 26 26 26 26 26 26 26 27 28 29 30 31 32 33 34 35 36 37 39 41 44 49 54 55 
29 41 42 41 39 37 35 33 32 30 28 27 26 25 24 23 22 21 19 18 17 17 17 17 17 17 17 17 17 17 17 17 17 17 17 17 17 17 17 17 17 17 17 17 17 17 17 17 17 17 17 17 17 17 17 17 17 17 17 17 17 17 17 17 17 17 17 17 18 20 22 24 27 28 28 27 26 23 20 17 16 15 15 15 15 15 15 15 15 15 15 15 14 14 14 14 14 14 14 14 14 14 14 14 14 14 14 14 14 14 14 14 14 14 14 14 14 14 14 14 14 14 14 14 14 14 14 14 14 14 14 14 14 14 14 14 14 14 14 14 14 14 14 14 14 14 14 14 14 14 14 14 14 14 14 14 14 14 14 14 14 14 14 14 14 14 14 14 14 14 14 14 14 14 14 14 14 14 14 14 14 14 14 14 14 14 14 14 14 14 14 14 14 14 14 14 14 14 14 14 14 14 15 16 17 18 19 20 20 20 20 20 20 19 19 18 17 17 17 18 18 19 19 20 21 22 23 24 25 26 27 28 29 30 31 32 33 34 35 36 36 36 36 36 36 36 36 37 37 38 38 37 36 35 34 33 31 30 29 28 27 26 26 26 26 26 26 26 27 28 29 30 31 32 33 34 35 36 37 38 39 42 46 53 66 99 
49 47 46 44 41 39 37 35 33 31 29 27 26 25 24 23 22 20 19 18 17 17 17 17 17 17 17 17 17 17 17 17 17 17 17 17 17 17 17 17 17 17 17 17 17 17 17 17 17 17 17 17 17 17 17 17 17 17 17 17 17 17 17 17 17 17 17 17 18 19 21 23 26 28 28 27 26 23 20 17 15 15 15 14 14 14 14 14 14 14 14 14 14 14 14 14 14 14 14 14 14 14 14 14 14 14 14 14 14 14 14 14 14 14 14 14 14 14 14 14 14 14 14 14 14 14 14 14 14 14 14 14 14 14 14 14 14 14 14 14 14 14 14 14 14 14 14 14 14 14 14 14 14 14 14 14 14 14 14 14 14 14 14 14 14 14 14 14 14 14 14 14 14 14 14 14 14 14 14 14 14 14 14 14 14 14 14 14 14 14 14 14 14 14 14 14 14 14 14 14 14 14 14 15 15 16 16 17 17 17 17 17 17 17 17 17 17 17 17 18 18 19 19 20 21 22 23 24 25 26 27 28 29 30 31 32 34 35 36 37 37 37 37 37 37 37 37 37 36 36 36 35 34 33 32 31 30 29 28 27 27 26 26 26 26 26 26 27 28 29 30 31 32 33 34 35 36 37 38 39 40 42 45 51 60 75 
59 54 51 48 45 42 39 37 35 32 30 28 26 25 24 23 21 20 19 18 17 17 17 17 17 17 17 17 17 17 17 17 17 17 17 17 17 17 17 17 17 17 17 17 17 17 17 17 17 17 17 17 17 17 17 17 17 17 17 17 17 17 17 17 17 17 17 17 18 19 20 22 25 27 27 27 26 23 19 16 15 15 14 14 14 14 14 14 14 14 14 14 14 14 14 14 14 14 14 14 14 14 14 14 14 14 14 14 14 14 14 14 14 14 14 14 14 14 14 14 14 14 14 14 14 14 14 14 14 14 14 14 14 14 14 14 14 14 14 14 14 14 14 14 14 14 14 14 14 14 14 14 14 14 14 14 14 14 14 14 14 14 14 14 14 14 14 14 14 14 14 14 14 14 14 14 14 14 14 14 14 14 14 14 14 14 14 14 14 14 14 14 14 14 14 14 14 14 14 14 14 14 14 14 14 14 14 15 15 15 15 15 15 15 16 16 16 17 17 18 18 19 19 20 21 23 24 25 26 27 28 29 30 31 32 34 35 36 37 38 39 39 39 39 38 38 37 36 36 35 34 33 32 31 30 30 29 28 28 27 27 26 26 26 26 26 27 28 29 30 31 32 33 34 35 36 37 38 39 40 41 42 44 47 49 48 
59 60 57 53 49 46 42 39 36 33 31 29 27 25 24 22 21 20 19 17 17 17 17 17 17 17 17 17 17 17 17 17 17 17 17 17 17 17 17 17 17 17 17 17 17 17 17 17 17 17 17 17 17 17 17 17 17 17 17 17 17 17 17 17 17 17 17 17 17 18 19 21 23 25 26 26 25 22 18 16 15 14 14 14 14 14 14 14 14 14 14 14 14 14 14 14 14 14 14 14 14 14 14 14 14 14 14 14 14 14 14 14 14 14 14 14 14 14 14 14 14 14 14 14 14 14 14 14 14 14 14 14 14 14 14 14 14 14 14 14 14 14 14 14 14 14 14 14 14 14 14 14 14 14 14 14 14 14 14 14 14 14 14 14 14 14 14 14 14 14 14 14 14 14 14 14 14 14 14 14 14 14 14 14 14 14 14 14 14 14 14 14 14 14 14 14 14 14 14 14 14 14 14 14 14 14 14 14 14 14 14 14 14 15 15 16 16 17 17 18 18 19 20 21 22 24 26 27 28 29 30 31 32 33 35 36 37 38 39 40 41 42 42 41 40 39 37 36 35 34 33 32 31 30 30 29 29 28 28 27 27 26 26 26 26 27 28 29 30 31 32 33 34 35 35 36 37 38 39 40 41 42 43 44 42 32 
81 71 65 59 54 49 45 41 38 35 32 30 28 26 24 22 21 20 18 17 17 17 17 17 17 17 17 17 17 17 17 17 17 17 17 17 17 17 17 17 17 17 17 17 17 17 17 17 17 17 17 17 17 17 17 17 17 17 17 17 17 17 17 17 17 17 17 17 17 17 18 20 21 23 24 24 23 21 18 16 14 14 14 14 14 14 14 14 14 14 14 14 14 14 14 14 14 14 14 14 14 14 14 14 14 14 14 14 14 14 14 14 14 14 14 14 14 14 14 14 14 14 14 14 14 14 14 14 14 14 14 14 14 14 14 14 14 14 14 14 14 14 14 14 14 14 14 14 14 14 14 14 14 14 14 14 14 14 14 14 14 14 14 14 14 14 14 14 14 14 14 14 14 14 14 14 14 14 14 14 14 14 14 14 14 14 14 14 14 14 14 14 14 14 14 14 14 14 14 14 14 14 14 14 14 14 14 14 14 14 14 14 14 15 15 16 16 17 17 18 18 19 21 22 23 25 27 29 30 31 33 34 35 36 38 39 40 41 42 43 44 45 45 44 42 39 37 36 35 34 33 32 31 30 30 29 29 28 28 27 27 26 26 26 27 28 29 30 31 32 33 34 35 35 36 36 37 38 39 40 41 42 44 45 43 33 
78 79 73 66 59 53 48 43 39 36 33 31 29 27 25 22 21 19 18 17 17 17 17 17 17 17 17 17 17 17 17 17 17 17 17 17 17 17 17 17 17 17 17 17 17 17 17 17 17 17 17 17 17 17 17 17 17 17 17 17 17 17 17 17 17 17 17 17 17 17 17 18 19 20 21 21 21 19 17 15 14 14 14 14 14 14 14 14 14 14 14 14 14 14 14 14 14 14 14 14 14 14 14 14 14 14 14 14 14 14 14 14 14 14 14 14 14 14 14 14 14 14 14 14 14 14 14 14 14 14 14 14 14 14 14 14 14 14 14 14 14 14 14 14 14 14 14 14 14 14 14 14 14 14 14 14 14 14 14 14 14 14 14 14 14 14 14 14 14 14 14 14 14 14 14 14 14 14 14 14 14 14 14 14 14 14 14 14 14 14 14 14 14 14 14 14 14 14 14 14 14 14 14 14 14 14 14 14 14 14 14 14 14 15 15 16 16 17 17 18 18 19 21 23 24 26 28 30 32 33 35 37 38 39 41 42 43 44 45 47 48 48 47 45 42 39 37 36 35 34 33 32 31 30 30 29 29 28 28 27 27 26 26 27 28 29 30 31 32 33 34 35 35 36 36 36 37 38 39 41 42 44 47 50 52 48 
107 95 83 73 64 57 51 45 41 37 34 32 30 28 25 22 20 19 18 17 17 17 17 17 17 17 17 17 17 17 17 17 17 17 17 17 17 17 17 17 17 17 17 17 17 17 17 17 17 17 17 17 17 17 17 17 17 17 17 17 17 17 17 17 17 17 17 17 17 17 17 17 18 18 18 18 18 17 15 14 14 14 14 14 14 14 14 14 14 14 14 14 14 14 14 14 14 14 14 14 14 14 14 14 14 14 14 14 14 14 14 14 14 14 14 14 14 14 14 14 14 14 14 14 14 14 14 14 14 14 14 14 14 14 14 14 14 14 14 14 14 14 14 14 14 14 14 14 14 14 14 14 14 14 14 14 14 14 14 14 14 14 14 14 14 14 14 14 14 14 14 14 14 14 14 14 14 14 14 14 14 14 14 14 14 14 14 14 14 14 14 14 14 14 14 14 14 14 14 14 14 14 14 14 14 14 14 14 14 14 14 14 14 15 15 16 16 17 17 18 18 20 22 24 26 28 30 32 34 35 37 39 41 42 44 45 46 47 48 50 50 49 47 44 41 39 37 36 35 34 33 32 31 30 30 29 29 28 28 27 27 27 27 28 29 30 31 32 33 34 35 35 36 36 36 36 37 39 40 42 43 46 50 56 67 94 
150 112 92 78 68 60 53 47 42 38 35 33 31 28 25 22 20 19 17 17 17 17 17 17 17 17 17 17 17 17 17 17 17 17 17 17 17 17 17 17 17 17 17 17 17 17 17 17 17 17 17 17 17 17 17 17 17 17 17 17 17 17 17 17 17 17 17 17 17 17 17 17 17 17 17 17 16 15 14 14 14 14 14 14 14 14 14 14 14 14 14 14 14 14 14 14 14 14 14 14 14 14 14 14 14 14 14 14 14 14 14 14 14 14 14 14 14 14 14 14 14 14 14 14 14 14 14 14 14 14 14 14 14 14 14 14 14 14 14 14 14 14 14 14 14 14 14 14 14 14 14 14 14 14 14 14 14 14 14 14 14 14 14 14 14 14 14 14 14 14 14 14 14 14 14 14 14 14 14 14 14 14 14 14 14 14 14 14 14 14 14 14 14 14 14 14 14 14 14 14 14 14 14 14 14 14 14 14 14 14 14 14 14 15 15 16 16 17 17 18 19 21 23 25 27 29 31 33 35 37 39 41 43 44 46 48 49 50 51 52 51 49 47 43 40 39 37 36 35 34 33 32 31 30 30 29 29 28 28 27 27 27 28 29 30 31 32 33 34 35 35 36 36 36 36 36 37 39 41 43 44 47 51 57 68 97 
129 111 95 81 70 62 55 49 44 40 36 34 31 28 25 22 20 18 17 17 17 17 17 17 17 17 17 17 17 17 17 17 17 17 17 17 17 17 17 17 17 17 17 17 17 17 17 17 17 17 17 17 17 17 17 17 17 17 17 17 17 17 17 17 17 17 17 17 17 17 17 16 16 16 16 15 14 14 14 14 14 14 14 14 14 14 14 14 14 14 14 14 14 14 14 14 14 14 14 14 14 14 14 14 14 14 14 14 14 14 14 14 14 14 14 14 14 14 14 14 14 14 14 14 14 14 14 14 14 14 14 14 14 14 14 14 14 14 14 14 14 14 14 14 14 14 14 14 14 14 14 14 14 14 14 14 14 14 14 14 14 14 14 14 14 14 14 14 14 14 14 14 14 14 14 14 14 14 14 14 14 14 14 14 14 14 14 14 14 14 14 14 14 15 15 15 15 15 15 15 15 15 15 15 15 15 15 15 15 15 15 15 15 15 15 16 16 17 18 19 20 21 23 26 28 31 33 35 37 39 41 43 45 46 48 50 51 52 53 53 51 49 46 42 40 38 37 36 35 34 33 32 31 30 30 29 29 28 28 28 28 28 29 30 31 32 33 34 35 35 36 36 36 36 36 37 38 40 42 43 44 47 50 53 53 38 
120 109 95 82 71 63 56 50 45 41 37 34 31 28 25 23 20 18 17 17 17 17 17 17 17 17 17 17 17 17 17 17 17 17 17 17 17 17 17 17 17 17 17 17 17 17 17 17 17 17 17 17 17 17 17 17 17 17 17 17 17 17 17 17 17 17 17 17 17 17 16 15 15 15 15 14 14 14 14 14 14 14 14 14 14 14 14 14 14 14 14 14 14 14 14 14 14 14 14 14 14 14 14 14 14 14 14 14 14 14 14 14 14 14 14 14 14 14 14 14 14 14 14 14 14 14 14 14 14 14 14 14 14 14 14 14 14 14 14 14 14 14 14 14 14 14 14 14 14 14 14 14 14 14 14 14 14 14 14 14 14 14 14 14 14 14 14 14 14 14 14 14 14 14 14 14 14 14 14 14 14 14 14 14 14 14 14 14 14 14 15 15 16 16 16 17 17 17 16 16 16 16 16 16 16 16 16 16 16 16 16 16 16 16 16 16 17 18 19 20 21 22 24 27 30 33 36 38 40 42 44 46 47 48 50 52 53 54 54 53 51 48 45 42 39 38 37 36 35 34 33 32 31 30 30 29 29 28 28 28 28 29 30 31 32 33 34 35 35 36 36 36 36 36 37 37 38 40 42 44 45 47 49 52 54 59 
145 112 94 81 71 62 55 49 44 40 37 34 32 29 26 23 20 18 17 17 17 17 17 17 17 17 17 17 17 17 17 17 17 17 17 17 17 17 17 17 17 17 17 17 17 17 17 17 17 17 17 17 17 17 17 17 17 18 18 18 18 18 17 17 17 17 17 17 17 16 15 15 15 15 14 14 14 14 14 14 14 14 14 14 14 14 14 14 14 14 14 14 14 14 14 14 14 14 14 14 14 14 14 14 14 14 14 14 14 14 14 14 14 14 14 14 14 14 14 14 14 14 14 14 14 14 14 14 14 14 14 14 14 14 14 14 14 14 14 14 14 14 14 14 14 14 14 14 14 14 14 14 14 14 14 14 14 14 14 14 14 14 14 14 14 14 14 14 14 14 14 14 14 14 14 14 14 14 14 14 14 14 14 14 14 14 14 14 14 15 16 17 18 18 19 19 19 18 18 17 17 17 17 17 17 17 17 17 17 17 17 17 17 17 17 17 18 19 20 21 22 23 25 28 31 34 38 41 43 45 47 48 49 50 52 54 55 55 54 52 49 46 43 41 39 37 36 35 34 33 32 31 30 30 30 29 29 29 29 29 29 30 31 32 33 34 35 35 36 36 36 36 36 37 37 37 38 40 42 44 45 46 49 52 55 55 
117 102 89 78 69 61 54 48 43 39 36 33 31 28 25 22 19 17 17 17 17 17 17 17 17 17 17 17 17 17 17 17 17 17 17 17 17 17 17 17 17 17 17 17 17 17 17 17 17 17 17 17 17 17 17 18 19 19 19 20 19 19 18 17 17 17 17 17 16 15 15 15 15 14 14 14 14 14 14 14 14 14 14 14 14 14 14 14 14 14 14 14 14 14 14 14 14 14 14 14 14 14 14 14 14 14 14 14 14 14 14 14 14 14 14 14 14 14 14 14 14 14 14 14 14 14 14 14 14 14 14 14 14 14 14 14 14 14 14 14 14 14 14 14 14 14 14 14 14 14 14 14 14 14 14 14 14 14 14 14 14 14 14 14 14 14 14 14 14 14 14 14 14 14 14 14 14 14 14 14 14 14 14 14 14 14 14 15 15 16 17 18 20 21 22 22 21 20 20 19 18 18 18 18 18 18 18 18 18 18 18 18 18 18 18 18 19 20 21 22 23 24 26 28 31 35 39 43 46 48 49 50 51 52 54 55 55 54 52 50 47 44 42 40 38 37 36 35 34 33 32 31 30 30 30 29 29 29 29 30 30 31 32 33 34 35 35 36 36 36 36 36 37 37 37 37 38 40 42 43 44 46 49 53 61 81 
95 91 83 74 66 58 52 46 42 38 35 32 29 26 23 21 18 17 17 17 17 17 17 17 17 17 17 17 17 17 17 17 17 17 17 17 17 17 17 17 17 17 17 17 17 17 17 17 17 17 17 17 17 18 18 19 20 21 22 22 21 21 20 19 18 17 17 16 15 15 15 15 14 14 14 14 14 14 14 14 14 14 14 14 14 14 14 14 14 14 14 14 14 14 14 14 14 14 14 14 14 14 14 14 14 14 14 14 14 14 14 14 14 14 14 14 14 14 14 14 14 14 14 14 14 14 14 14 14 14 14 14 14 14 14 14 14 14 14 14 14 14 14 14 14 14 14 14 14 14 14 14 14 14 14 14 14 14 14 14 14 14 14 14 14 14 14 14 14 14 14 14 14 14 14 14 14 14 14 14 14 14 14 14 14 14 15 16 16 17 18 20 22 23 24 25 24 23 22 21 20 19 19 19 19 19 19 19 19 19 19 19 19 19 19 19 20 21 22 23 24 25 26 28 31 35 40 44 47 49 50 51 52 53 54 54 53 52 50 47 45 43 41 39 37 36 35 34 33 32 31 31 30 30 30 30 30 30 30 31 31 32 33 34 35 35 36 36 36 36 36 37 37 37 37 38 39 40 41 42 44 45 48 51 55 65 
87 84 77 70 63 56 50 45 40 37 34 31 28 25 22 20 18 17 17 17 17 17 17 17 17 17 17 17 17 17 17 17 17 17 17 17 17 17 17 17 17 17 17 17 17 17 17 17 17 17 17 17 18 19 20 21 22 23 25 25 24 23 22 20 19 18 17 16 15 15 15 14 14 14 14 14 14 14 14 14 14 14 14 14 14 14 14 14 14 14 14 14 14 14 14 14 14 14 14 14 14 14 14 14 14 14 14 14 14 14 14 14 14 14 14 14 14 14 14 14 14 14 14 14 14 14 14 14 14 14 14 14 14 14 14 14 14 14 14 14 14 14 14 14 14 14 14 14 14 14 14 14 14 14 14 14 14 14 14 14 14 14 14 14 14 14 14 14 14 14 14 14 14 14 14 14 14 14 14 14 14 14 14 14 14 15 16 17 17 18 19 21 24 26 27 27 27 26 25 23 21 20 20 20 20 20 20 20 20 20 20 20 20 20 20 20 21 22 23 24 25 26 27 29 32 36 40 44 47 49 50 51 51 52 52 51 50 48 46 44 43 41 39 38 37 36 35 34 33 32 31 31 30 30 30 31 31 31 31 32 32 33 34 35 35 36 36 36 36 36 37 37 37 37 38 38 39 40 41 42 43 45 47 48 46 32 
98 82 73 66 59 53 48 43 39 35 32 29 27 24 21 19 17 17 17 17 17 17 17 17 17 17 17 17 17 17 17 17 17 17 17 17 17 17 17 17 17 17 17 17 17 17 17 17 17 17 17 17 18 20 21 23 24 26 28 29 28 26 24 22 20 19 17 16 15 15 14 14 14 14 14 14 14 14 14 14 14 14 14 14 14 14 14 14 14 14 14 14 14 14 14 14 14 14 14 14 14 14 14 14 14 14 14 14 14 14 14 14 14 14 14 14 14 14 14 14 14 14 14 14 14 14 14 14 14 14 14 14 14 14 14 14 14 14 14 14 14 14 14 14 14 14 14 14 14 14 14 14 14 14 14 14 14 14 14 14 14 14 14 14 14 14 14 14 14 14 14 14 14 14 14 14 14 14 14 14 14 14 14 14 15 16 17 18 18 19 20 22 25 27 28 29 29 28 27 25 22 21 21 21 21 21 21 21 21 21 21 21 21 21 21 21 22 23 24 25 26 27 28 30 32 35 39 43 46 48 49 49 49 49 48 47 46 45 43 42 41 39 38 37 36 35 35 34 33 32 31 31 30 31 31 32 32 32 32 33 33 34 35 35 36 36 36 36 36 37 37 37 37 38 38 38 39 40 41 42 43 45 47 49 49 44 
76 74 68 62 56 50 45 41 37 34 31 28 26 23 20 18 17 17 17 17 17 17 17 17 17 17 17 17 17 17 17 17 17 17 17 17 17 17 17 17 17 17 17 17 17 17 17 17 17 17 17 18 19 21 22 24 26 29 31 32 31 29 26 23 21 19 17 16 15 14 14 14 14 14 14 14 14 14 14 14 14 14 14 14 14 14 14 14 14 14 14 14 14 14 14 14 14 14 14 14 14 14 14 14 14 14 14 14 14 14 14 14 14 14 14 14 14 14 14 14 14 14 14 14 14 14 14 14 14 14 14 14 14 14 14 14 14 14 14 14 14 14 14 14 14 14 14 14 14 14 14 14 14 14 14 14 14 14 14 14 14 14 14 14 14 14 14 14 14 14 14 14 14 14 14 14 14 14 14 14 14 14 14 14 15 16 17 18 19 20 21 23 25 28 30 31 31 30 28 26 23 22 22 22 22 22 22 22 22 22 22 22 22 22 22 22 23 24 25 26 27 28 29 30 32 35 38 41 43 45 46 46 45 45 44 43 42 42 41 40 39 38 37 36 36 35 35 34 33 32 31 31 31 32 32 33 33 33 33 34 34 35 35 36 36 36 36 36 37 37 37 37 38 38 38 39 39 40 41 42 43 45 48 52 58 75 
70 70 64 58 53 48 43 39 35 33 30 27 25 22 19 17 17 17 17 17 17 17 17 17 17 17 17 17 17 17 17 17 17 17 17 18 18 18 18 18 18 18 18 18 18 18 18 18 18 17 17 18 20 22 23 25 28 31 33 34 33 31 27 24 22 20 18 16 15 14 14 14 14 14 14 14 14 14 14 14 14 14 14 14 14 14 14 14 14 14 14 14 14 14 14 14 14 14 14 14 14 14 14 14 14 14 14 14 14 14 14 14 14 14 14 14 14 14 14 14 14 14 14 14 14 14 14 14 14 14 14 14 14 14 14 14 14 14 14 14 14 14 14 14 14 14 14 14 14 14 14 14 14 14 14 14 14 14 14 14 14 14 14 14 14 14 14 14 14 14 14 14 14 14 14 14 14 14 14 14 14 14 14 15 16 17 18 19 20 21 22 23 25 28 30 31 31 30 28 26 24 23 23 23 23 23 23 23 23 23 23 23 23 23 23 23 24 25 26 27 28 29 30 31 32 34 36 38 40 41 41 41 41 41 41 40 40 39 39 38 37 37 36 35 35 35 35 34 33 32 31 31 32 33 33 34 34 34 34 35 35 35 36 36 36 36 36 37 37 37 37 38 38 38 39 39 39 40 41 42 43 45 48 52 58 63 
90 71 62 55 50 46 41 37 34 31 29 26 24 21 18 17 17 17 17 17 17 17 17 17 17 17 17 17 17 17 17 17 17 18 19 20 20 20 20 20 20 20 19 19 19 19 19 19 18 17 17 18 20 22 24 26 29 32 34 35 34 32 28 25 23 21 18 16 15 14 14 14 14 14 14 14 14 14 14 14 14 14 14 14 14 14 14 14 14 14 14 14 14 14 14 14 14 14 14 14 14 14 14 14 14 14 14 14 14 14 14 14 14 14 14 14 14 14 14 14 14 14 14 14 14 14 14 14 14 14 14 14 14 14 14 14 14 14 14 14 14 14 14 14 14 14 14 14 14 14 14 14 14 14 14 14 14 14 14 14 14 14 14 14 14 14 14 14 14 14 14 14 14 14 14 14 14 14 14 14 14 14 15 16 17 18 19 20 21 22 23 24 26 28 30 31 30 29 28 26 25 24 24 24 24 24 24 24 24 24 24 24 24 24 24 24 25 26 27 28 29 30 31 31 32 33 35 36 37 37 37 37 37 37 37 37 37 37 37 36 36 36 35 34 34 34 34 34 33 32 31 32 33 34 34 35 35 35 35 36 36 36 36 36 36 36 37 37 37 37 38 38 38 39 39 39 39 40 41 42 43 45 48 52 59 70 
73 64 58 52 48 44 39 36 32 30 28 25 23 20 18 17 17 17 17 17 17 17 17 17 17 17 17 17 17 17 17 17 18 19 21 22 23 23 23 23 22 22 21 20 20 20 20 19 18 18 18 19 20 22 25 27 30 32 34 35 34 32 29 26 24 21 18 16 15 14 14 14 14 14 14 14 14 14 14 14 14 14 14 14 14 14 14 14 14 14 14 14 14 14 14 14 14 14 14 14 14 14 14 14 14 14 14 14 14 14 14 14 14 14 14 14 14 14 14 14 14 14 14 14 14 14 14 14 14 14 14 14 14 14 14 14 14 14 14 14 14 14 14 14 14 14 14 14 14 14 14 14 14 14 14 14 14 14 14 14 14 14 14 14 14 14 14 14 14 14 14 14 14 14 14 14 14 14 14 14 14 15 16 17 18 19 20 21 22 23 24 25 26 28 29 30 29 28 27 26 25 25 25 25 25 25 25 25 25 25 25 25 25 25 25 25 26 27 28 29 30 31 31 31 32 33 34 34 34 34 34 34 34 34 34 34 34 34 34 34 34 34 34 33 33 33 33 33 33 32 32 33 34 35 35 36 36 36 36 37 37 37 37 37 37 37 38 38 38 38 39 39 39 39 39 39 40 40 41 41 42 44 47 51 58 75 
51 54 53 49 46 42 38 34 31 28 26 24 22 19 17 17 17 17 17 17 17 17 17 17 17 17 17 17 17 17 17 18 19 20 22 24 26 27 27 26 25 24 23 22 21 21 20 19 19 18 18 19 20 22 25 27 30 32 33 34 34 32 30 27 24 21 19 16 15 14 14 14 14 14 14 14 14 14 14 14 14 14 14 14 14 14 14 14 14 14 14 14 14 14 14 14 14 14 14 14 14 14 14 14 14 14 14 14 14 14 14 14 14 14 14 14 14 14 14 14 14 14 14 14 14 14 14 14 14 14 14 14 14 14 14 14 14 14 14 14 14 14 14 14 14 14 14 14 14 14 14 14 14 14 14 14 14 14 14 14 14 14 14 14 14 14 14 14 14 14 14 14 14 14 14 14 14 14 14 14 15 16 17 18 19 20 21 22 23 24 25 26 27 28 29 29 28 28 27 27 26 26 26 26 26 26 26 26 26 26 26 26 26 26 26 26 27 28 29 30 31 31 31 31 32 32 32 32 32 32 32 32 32 32 32 32 32 32 32 32 32 32 32 32 32 32 32 32 32 32 33 34 35 36 36 37 37 37 37 38 38 38 38 39 39 39 40 40 40 40 40 40 40 40 40 40 40 40 40 41 42 43 45 47 50 57 
43 48 50 48 45 41 37 33 29 27 25 23 21 18 17 17 17 17 17 17 17 17 17 17 17 17 17 17 17 17 17 18 20 21 23 26 28 29 30 29 28 26 24 23 22 21 20 20 19 18 18 19 20 22 25 27 29 31 32 33 33 32 30 27 24 22 19 16 15 14 14 14 14 14 14 14 14 14 14 14 14 14 14 14 14 14 14 14 14 14 14 14 14 14 14 14 14 14 14 14 14 14 14 14 14 14 14 14 14 14 14 14 14 14 14 14 14 14 14 14 14 14 14 14 14 14 14 14 14 14 14 14 14 14 14 14 14 14 14 14 14 14 14 14 14 14 14 14 14 14 14 14 14 14 14 14 14 14 14 14 14 14 14 14 14 14 14 14 14 14 14 14 14 14 14 14 14 14 14 15 16 17 18 19 20 21 22 23 24 25 26 27 28 28 29 29 29 28 28 28 27 27 27 27 27 27 27 27 27 27 27 27 27 27 27 27 28 29 30 31 31 31 31 31 31 31 31 31 31 31 31 31 31 31 31 31 31 31 31 31 31 31 31 31 31 31 31 31 32 33 34 35 36 37 37 38 38 38 38 39 39 39 39 40 41 41 42 42 42 42 42 42 42 42 42 41 41 41 40 41 41 42 42 42 39 28 
18 46 51 49 45 40 36 31 28 26 24 22 20 18 17 17 17 17 17 17 17 17 17 17 17 17 17 17 17 17 18 19 21 22 24 27 29 31 32 32 31 29 26 24 23 22 21 20 19 18 18 19 20 22 24 26 28 29 30 31 32 32 31 28 25 22 19 16 15 14 14 14 14 14 14 14 14 14 14 14 14 14 14 14 14 14 14 14 14 14 14 14 14 14 14 14 14 14 14 14 14 14 14 14 14 14 14 14 14 14 14 14 14 14 14 14 14 14 14 14 14 14 14 14 14 14 14 14 14 14 14 14 14 14 14 14 14 14 14 14 14 14 14 14 14 14 14 14 14 14 14 14 14 14 14 14 14 14 14 14 14 14 14 14 14 14 14 14 14 14 14 14 14 14 14 14 14 14 15 16 17 18 19 20 21 22 23 24 25 26 27 28 28 29 29 29 29 29 29 29 29 28 28 28 28 28 28 28 28 28 28 28 28 28 28 28 29 30 31 31 31 31 31 31 31 31 31 31 31 31 31 31 31 31 31 31 31 31 31 31 31 31 31 31 31 31 31 32 33 34 35 36 37 38 38 39 39 39 39 40 40 40 41 42 43 43 44 45 45 45 45 45 45 44 43 42 42 41 41 41 41 42 42 42 38 22 
94 70 59 52 45 39 34 30 27 25 23 21 19 17 17 17 17 17 17 17 17 17 17 17 17 17 17 17 17 17 19 20 22 23 25 28 30 32 33 33 32 30 27 25 23 22 21 20 19 18 18 19 20 22 23 25 26 27 28 29 30 31 31 29 26 23 19 16 15 14 14 14 14 14 14 14 14 14 14 14 14 14 14 14 14 14 14 14 14 14 14 14 14 14 14 14 14 14 14 14 14 14 14 14 14 14 14 14 14 14 14 14 14 14 14 14 14 14 14 14 14 14 14 14 14 14 14 14 14 14 14 14 14 14 14 14 14 14 14 14 14 14 14 14 14 14 14 14 14 14 14 14 14 14 14 14 14 14 14 14 14 14 14 14 14 14 14 14 14 14 14 14 14 14 14 14 14 15 16 17 18 19 20 21 22 23 24 25 26 27 28 29 29 30 30 30 30 30 30 30 30 30 30 29 29 29 29 29 29 29 29 29 29 29 29 29 30 31 32 32 32 32 32 32 32 32 32 32 32 32 32 32 32 32 32 32 32 32 32 31 31 31 31 31 31 31 31 32 33 34 35 36 37 38 39 40 40 40 40 41 41 41 42 43 44 45 46 47 48 49 49 49 48 46 45 43 42 42 42 41 41 42 43 45 50 66 
103 81 66 55 46 39 33 29 26 24 22 20 18 17 17 17 17 17 17 17 17 17 17 17 17 17 17 17 17 18 20 21 23 24 26 28 30 32 32 32 31 30 28 25 23 22 21 20 19 18 18 19 20 21 22 23 24 25 26 27 28 30 30 28 26 23 19 16 14 14 14 14 14 14 14 14 14 14 14 14 14 14 14 14 14 14 14 14 14 14 14 14 14 14 14 14 14 14 14 14 14 14 14 14 14 14 14 14 14 14 14 14 14 14 14 14 14 14 14 14 14 14 14 14 14 14 14 14 14 14 14 14 14 14 14 14 14 14 14 14 14 14 14 14 14 14 14 14 14 14 14 14 14 14 14 14 14 14 14 14 14 14 14 14 14 14 14 14 14 14 14 14 14 14 14 14 15 16 17 18 19 20 21 22 23 24 25 26 27 28 29 30 31 32 32 32 32 32 32 32 32 32 32 31 31 31 30 30 30 30 30 30 30 30 30 30 31 32 32 33 33 33 33 34 34 34 34 34 34 34 34 34 34 34 34 34 33 33 32 31 31 31 31 31 31 31 31 32 33 34 35 36 37 38 39 40 41 41 41 42 42 42 43 44 46 47 48 50 51 52 52 52 50 48 46 44 43 43 42 42 42 43 45 47 52 59 
95 86 69 56 46 38 32 28 25 23 21 19 17 17 17 17 17 17 17 17 17 17 17 17 17 17 17 17 17 18 20 22 24 25 27 29 30 31 31 31 31 30 28 25 23 22 21 20 19 18 18 19 20 21 21 22 23 24 24 25 26 28 28 27 25 22 18 15 14 14 14 14 14 14 14 14 14 14 14 14 14 14 14 14 14 14 14 14 14 14 14 14 14 14 14 14 14 14 14 14 14 14 14 14 14 14 14 14 14 14 14 14 14 14 14 14 14 14 14 14 14 14 14 14 14 14 14 14 14 14 14 14 14 14 14 14 14 14 14 14 14 14 14 14 14 14 14 14 14 14 14 14 14 14 14 14 14 14 14 14 14 14 14 14 14 14 14 14 14 14 14 14 14 14 14 15 16 17 18 19 20 21 22 23 24 25 26 27 28 30 31 32 33 35 35 35 35 35 35 35 35 35 35 34 33 33 32 32 31 31 31 31 31 31 31 31 32 32 33 33 34 34 34 35 36 36 36 37 37 37 37 37 37 37 36 35 34 33 32 31 31 31 31 31 31 31 31 32 33 34 35 36 37 38 39 40 41 42 42 43 43 43 44 46 48 49 50 52 54 55 55 54 52 49 46 44 44 43 43 43 43 44 46 49 52 50 
169 99 70 54 44 37 31 27 24 21 19 18 17 17 17 17 17 17 17 17 17 17 17 17 17 17 17 17 17 19 21 23 25 26 28 29 30 31 31 31 31 30 28 25 23 22 21 20 19 18 18 19 20 20 20 21 22 22 22 23 24 25 25 24 22 20 17 15 14 14 14 14 14 14 14 14 14 14 14 14 14 14 14 14 14 14 14 14 14 14 14 14 14 14 14 14 14 14 14 14 14 14 14 14 14 14 14 14 14 14 14 14 14 14 14 14 14 14 14 14 14 14 14 14 14 14 14 14 14 14 14 14 14 14 14 14 14 14 14 14 14 14 14 14 14 14 14 14 14 14 14 14 14 14 14 14 14 14 14 14 14 14 14 14 14 14 14 14 14 14 14 14 14 14 15 16 17 18 19 20 21 22 23 24 25 27 28 29 31 33 34 35 37 38 39 39 39 39 39 39 39 39 39 38 37 36 35 34 33 33 32 32 32 32 32 32 32 33 33 34 34 35 35 36 37 38 38 39 40 41 41 41 41 40 39 37 35 34 32 31 31 31 31 31 31 31 31 32 33 34 35 36 37 38 39 40 41 42 43 44 44 44 45 47 49 51 52 54 56 57 56 55 52 49 46 45 44 44 44 43 43 44 47 51 57 68 
84 72 59 49 41 35 29 25 22 20 18 17 17 17 17 17 17 17 17 17 17 17 17 17 17 17 17 17 18 19 21 23 25 27 29 30 31 32 32 32 31 29 27 25 23 22 21 20 19 18 18 19 19 19 19 20 20 20 20 21 21 21 21 20 19 17 15 14 14 14 14 14 14 14 14 14 14 14 14 14 14 14 14 14 14 14 14 14 14 14 14 14 14 14 14 14 14 14 14 14 14 14 14 14 14 14 14 14 14 14 14 14 14 14 14 14 14 14 14 14 14 14 14 14 14 14 14 14 14 14 14 14 14 14 14 14 14 14 14 14 14 14 14 14 14 14 14 14 14 14 14 14 14 14 14 14 14 14 14 14 14 14 14 14 14 14 14 14 14 14 14 14 14 15 16 17 18 19 20 21 22 23 24 26 28 29 31 32 34 36 38 40 41 43 44 44 44 44 44 44 44 44 43 42 41 40 39 38 36 35 34 33 33 33 33 33 33 33 34 34 34 35 36 37 38 39 40 42 43 45 46 46 45 43 41 39 36 34 32 31 31 31 31 31 31 31 32 33 34 35 36 37 38 39 40 41 42 43 44 44 45 45 46 48 50 52 54 56 58 58 57 55 52 49 47 45 45 45 44 44 44 45 47 52 60 77 
27 48 47 42 37 32 27 23 21 19 17 17 17 17 17 17 17 17 17 17 17 17 17 17 17 17 17 17 18 20 22 24 26 28 30 31 32 33 33 32 31 29 27 25 23 22 21 20 19 18 18 18 18 18 18 18 18 18 18 18 18 18 17 17 16 15 14 14 14 14 14 14 14 14 14 14 14 14 14 14 14 14 14 14 14 14 14 14 14 14 14 14 14 14 14 14 14 14 14 14 14 14 14 14 14 14 14 14 14 14 14 14 14 14 14 14 14 14 14 14 14 14 14 14 14 14 14 14 14 14 14 14 14 14 14 14 14 14 14 14 14 14 14 14 14 14 14 14 14 14 14 14 14 14 14 14 14 14 14 14 14 14 14 14 14 14 14 14 14 14 14 14 14 15 16 17 18 19 21 22 23 25 27 29 31 32 34 36 38 40 42 44 46 48 49 50 50 50 50 50 50 50 49 48 46 44 43 41 39 38 36 35 34 34 34 34 34 34 34 34 34 35 37 38 39 41 42 44 46 48 49 49 48 46 43 40 37 34 32 31 31 31 31 31 31 31 32 33 34 35 36 37 38 39 40 41 42 43 44 44 45 46 47 49 51 54 56 58 59 59 57 55 52 49 47 46 45 45 45 45 45 45 47 50 55 61 
57 47 42 37 33 29 25 22 20 18 17 17 17 17 17 17 17 17 17 17 17 17 17 17 17 17 17 17 18 20 22 25 27 29 31 33 34 34 33 32 31 29 27 25 23 22 21 20 19 18 18 18 18 18 17 17 17 17 16 16 16 15 15 15 14 14 14 14 14 14 14 14 14 14 14 14 14 14 14 14 14 14 14 14 14 14 14 14 14 14 14 14 14 14 14 14 14 14 14 14 14 14 14 14 14 14 14 14 14 14 14 14 14 14 14 14 14 14 14 14 14 14 14 14 14 14 14 14 14 14 14 14 14 14 14 14 14 14 14 14 14 14 14 14 14 14 14 14 14 14 14 14 14 14 14 14 14 14 14 14 14 14 14 14 14 14 14 14 14 14 14 14 15 16 17 18 19 21 23 24 26 28 30 32 34 36 38 40 42 45 47 49 51 53 55 56 57 57 57 57 57 56 55 54 52 50 48 46 43 41 39 37 36 35 35 35 35 35 35 34 34 35 37 39 40 42 44 47 49 50 51 51 50 48 45 41 37 34 32 31 31 31 31 31 31 31 32 33 34 35 37 38 39 40 41 42 43 44 44 44 45 47 48 50 52 55 57 59 59 59 57 54 52 49 47 46 46 46 46 46 46 46 47 48 49 51 
51 42 37 33 29 26 23 20 18 17 17 17 17 17 17 17 17 17 17 17 17 17 17 17 17 17 17 17 19 21 23 26 28 31 33 35 36 35 33 32 31 29 27 25 23 22 21 20 19 18 18 18 18 17 16 16 16 15 15 15 14 14 14 14 14 14 14 14 14 14 14 14 14 14 14 14 14 14 14 14 14 14 14 14 14 14 14 14 14 14 14 14 14 14 14 14 14 14 14 14 14 14 14 14 14 14 14 14 14 14 14 14 14 14 14 14 14 14 14 14 14 14 14 14 14 14 14 14 14 14 14 14 14 14 14 14 14 14 14 14 14 14 14 14 14 14 14 14 14 14 14 14 14 14 14 14 14 14 14 14 14 14 14 14 14 14 14 14 14 14 14 15 16 17 18 20 21 23 25 27 29 31 33 35 37 40 42 45 47 50 53 55 57 59 61 63 64 65 65 65 65 64 62 60 58 55 53 50 48 45 43 40 38 37 36 36 36 36 35 34 34 35 37 39 41 44 46 49 51 52 52 51 50 48 45 41 37 34 32 31 31 31 31 31 31 31 32 33 34 35 37 39 41 42 43 43 44 44 44 44 45 47 49 51 53 56 58 59 59 58 56 53 51 49 47 46 46 46 46 46 46 46 46 46 43 33 
39 35 32 29 26 23 21 19 18 17 17 17 17 17 17 17 17 17 17 17 17 17 17 17 17 17 17 18 19 21 24 27 30 33 35 37 37 35 33 32 31 29 27 25 23 22 21 20 19 18 18 18 17 16 15 15 14 14 14 14 14 14 14 14 14 14 14 14 14 14 14 14 14 14 14 14 14 14 14 14 14 14 14 14 14 14 14 14 14 14 14 14 14 14 14 14 14 14 14 14 14 14 14 14 14 14 14 14 14 14 14 14 14 14 14 14 14 14 14 14 14 14 14 14 14 14 14 14 14 14 14 14 14 14 14 14 14 14 14 14 14 14 14 14 14 14 14 14 14 14 14 14 14 14 14 14 14 14 14 14 14 14 14 14 14 14 14 14 14 14 15 16 17 18 20 22 24 26 28 30 32 35 37 39 42 45 47 50 52 55 58 61 63 66 68 70 72 73 74 74 73 72 70 67 64 61 58 55 52 49 46 44 41 39 38 37 37 36 35 34 34 35 37 40 42 45 48 50 52 52 52 51 49 46 43 40 37 34 32 31 31 31 31 31 31 31 32 33 34 35 37 40 42 44 44 44 44 44 44 44 45 47 49 52 54 57 58 59 58 57 55 53 51 49 47 47 47 47 47 47 47 47 48 48 44 27 
22 27 27 26 24 22 20 19 18 17 17 17 17 17 17 17 17 17 17 17 17 17 17 17 17 17 17 18 19 22 25 28 31 34 37 38 37 35 33 32 31 29 27 25 23 22 21 20 19 18 18 17 16 15 14 14 14 14 14 14 14 14 14 14 14 14 14 14 14 14 14 14 14 14 14 14 14 14 14 14 14 14 14 14 14 14 14 14 14 14 14 14 14 14 14 14 14 14 14 14 14 14 14 14 14 14 14 14 14 14 14 14 14 14 14 14 14 14 14 14 14 14 14 14 14 14 14 14 14 14 14 14 14 14 14 14 14 14 14 14 14 14 14 14 14 14 14 14 14 14 14 14 14 14 14 14 14 14 14 14 14 14 14 14 14 14 14 14 14 15 16 17 19 21 23 25 27 29 32 34 37 39 42 44 47 50 52 55 57 60 63 66 69 72 75 78 80 82 83 83 82 80 77 74 71 68 64 61 57 54 50 47 44 42 40 38 37 36 35 35 35 36 38 41 43 46 49 51 52 52 51 49 47 44 41 39 36 34 32 31 31 31 31 31 31 31 32 33 34 35 37 40 43 45 45 45 44 44 44 44 45 47 49 52 55 57 58 58 57 55 53 52 50 49 48 47 47 47 47 47 48 49 51 55 61 74 
18 24 25 24 22 21 20 19 18 17 17 17 17 17 17 17 17 17 17 17 17 17 17 17 17 17 17 18 20 22 25 29 32 36 38 39 38 35 33 32 31 29 27 25 23 22 21 20 19 18 17 16 15 14 14 14 14 14 14 14 14 14 14 14 14 14 14 14 14 14 14 14 14 14 14 14 14 14 14 14 14 14 14 14 14 14 14 14 14 14 14 14 14 14 14 14 14 14 14 14 14 14 14 14 14 14 14 14 14 14 14 14 14 14 14 14 14 14 14 14 14 14 14 14 14 14 14 14 14 14 14 14 14 14 14 14 14 14 14 14 14 14 14 14 14 14 14 14 14 14 14 14 14 14 14 14 14 14 14 14 14 14 14 14 14 14 14 14 15 16 17 19 21 23 26 28 31 33 36 39 42 44 47 49 52 54 57 60 62 66 69 72 76 79 83 86 88 89 90 90 89 87 84 81 78 74 70 66 62 58 54 51 47 44 42 40 38 37 36 36 36 37 39 41 44 47 49 50 51 50 49 46 44 42 39 37 35 33 32 31 31 31 31 31 31 32 33 34 35 36 38 40 43 45 46 45 44 44 44 44 45 47 49 52 54 56 56 56 55 53 52 51 50 49 48 47 47 47 48 48 49 51 54 60 71 98 
34 28 25 23 22 21 20 19 18 17 17 17 17 17 17 17 17 17 17 17 17 17 17 17 17 17 17 18 20 22 26 30 33 37 39 39 38 35 33 32 31 29 27 25 23 22 21 20 19 18 17 16 15 14 14 14 14 14 14 14 14 14 14 14 14 14 14 14 14 14 14 14 14 14 14 14 14 14 14 14 14 14 14 14 14 14 14 14 14 14 14 14 14 14 14 14 14 14 14 14 14 14 14 14 14 14 14 14 14 14 14 14 14 14 14 14 14 14 14 14 14 14 14 14 14 14 14 14 14 14 14 14 14 14 14 14 14 14 14 14 14 14 14 14 14 14 14 14 14 14 14 14 14 14 14 14 14 14 14 14 14 14 14 14 14 14 14 15 16 18 19 21 24 27 30 32 35 38 41 44 47 49 52 54 56 58 61 64 67 71 75 78 82 86 90 92 94 95 95 95 94 92 90 87 84 80 76 72 67 63 58 54 50 47 44 42 40 38 37 36 36 37 39 41 44 46 48 49 49 48 46 44 42 40 38 36 34 33 32 31 31 31 31 31 31 32 33 34 35 36 38 40 43 45 46 45 44 44 44 44 45 47 49 51 53 54 54 53 53 52 51 50 49 48 48 48 48 48 49 49 50 52 55 60 67 81 
35 29 26 24 22 21 20 19 18 17 17 17 17 17 17 17 17 17 17 17 17 17 17 17 17 17 17 18 20 23 26 30 34 37 39 39 37 34 32 31 30 29 27 25 23 22 21 20 19 18 17 16 15 14 14 14 14 14 14 14 14 14 14 14 14 14 14 14 14 14 14 14 14 14 14 14 14 14 14 14 14 14 14 14 14 14 14 14 14 14 14 14 14 14 14 14 14 14 14 14 14 14 14 14 14 14 14 14 14 14 14 14 14 14 14 14 14 14 14 14 14 14 14 14 14 14 14 14 14 14 14 14 14 14 14 14 14 14 14 14 14 14 14 14 14 14 14 14 14 14 14 14 14 14 14 14 14 14 14 14 14 14 14 14 14 14 15 16 18 20 22 24 27 30 33 36 39 42 45 48 51 54 56 58 60 62 65 68 72 76 80 84 89 93 96 98 99 99 99 99 98 97 95 93 90 86 82 77 72 67 62 58 53 50 46 43 41 39 38 37 37 37 39 41 43 45 46 47 46 45 43 41 39 37 36 35 33 32 32 31 31 31 31 31 32 33 34 35 36 37 38 40 42 44 45 45 44 44 44 44 45 47 48 49 50 51 51 51 51 50 50 50 49 48 48 48 49 49 50 50 51 53 55 58 58 49 
24 27 27 25 23 21 20 19 18 17 17 17 17 17 17 17 17 17 17 17 17 17 17 17 17 17 17 18 20 22 25 29 33 36 38 38 36 33 31 30 29 28 27 25 23 22 21 20 19 18 17 16 15 14 14 14 14 14 14 14 14 14 14 14 14 14 14 14 14 14 14 14 14 14 14 14 14 14 14 14 14 14 14 14 14 14 14 14 14 14 14 14 14 14 14 14 14 14 14 14 14 14 14 14 14 14 14 14 14 14 14 14 14 14 14 14 14 14 14 14 14 14 14 14 14 14 14 14 14 14 14 14 14 14 14 14 14 14 14 14 14 14 14 14 14 14 14 14 14 14 14 14 14 14 14 14 14 14 14 14 14 14 14 14 14 14 16 17 19 22 25 28 31 34 37 41 44 47 50 53 56 59 61 63 64 66 69 72 76 81 86 90 95 98 101 102 103 103 102 101 100 100 99 97 95 92 88 83 77 72 66 61 56 52 48 45 42 40 38 37 37 37 38 39 41 43 44 44 43 41 40 38 37 35 34 33 32 31 31 31 31 31 31 32 33 34 35 36 37 38 39 40 42 43 44 44 44 44 44 44 45 46 47 48 48 49 49 49 49 49 49 49 49 48 48 49 50 50 51 51 52 54 56 59 61 60 
21 30 30 27 24 22 20 19 18 17 17 17 17 17 17 17 17 17 17 17 17 17 17 17 17 17 17 18 20 22 24 27 31 34 36 36 34 32 30 29 28 27 26 25 23 22 21 20 19 18 17 16 15 15 14 14 14 14 14 14 14 14 14 14 14 14 14 14 14 14 14 14 14 14 14 14 14 14 14 14 14 14 14 14 14 14 14 14 14 14 14 14 14 14 14 14 14 14 14 14 14 14 14 14 14 14 14 14 14 14 14 14 14 14 14 14 14 14 14 14 14 14 14 14 14 14 14 14 14 14 14 14 14 14 14 14 14 14 14 14 14 14 14 14 14 14 14 14 14 14 14 14 14 14 14 14 14 14 14 14 14 14 14 14 14 15 17 19 21 24 28 31 35 39 42 46 49 52 55 58 61 64 66 67 68 70 73 76 80 85 91 96 100 103 105 106 106 105 104 102 101 101 101 100 99 96 93 88 82 76 70 64 59 54 50 46 43 41 39 37 37 37 37 38 39 40 40 40 39 38 37 36 35 33 32 31 31 31 31 31 31 31 31 32 33 34 35 36 37 38 39 40 41 42 43 44 44 44 44 44 45 46 46 46 47 47 48 48 48 48 48 48 49 49 49 50 51 51 52 53 54 55 57 60 68 93 
45 42 36 31 26 23 20 19 18 17 17 17 17 17 17 17 17 17 17 17 17 17 17 17 17 17 17 18 19 21 23 26 29 31 33 33 32 31 29 28 27 26 25 24 23 22 21 20 19 18 18 17 16 16 15 15 15 14 14 14 14 14 14 14 14 14 14 14 14 14 14 14 14 14 14 14 14 14 14 14 14 14 14 14 14 14 14 14 14 14 14 14 14 14 14 14 14 14 14 14 14 14 14 14 14 14 14 14 14 14 14 14 14 14 14 14 14 14 14 14 14 14 14 14 14 14 14 14 14 14 14 14 14 14 14 14 14 14 14 14 14 14 14 14 14 14 14 14 14 14 14 14 14 14 14 14 14 14 14 14 14 14 14 14 15 16 18 21 24 27 31 35 39 43 47 51 55 58 61 64 67 70 71 71 72 74 77 80 84 89 95 100 104 107 108 109 108 107 105 103 102 102 103 103 102 100 97 92 87 80 74 67 62 57 52 48 44 41 39 37 36 36 36 36 36 37 37 36 35 35 34 33 33 32 31 30 30 30 31 31 31 31 32 33 34 35 36 37 38 39 40 41 42 42 43 44 44 44 44 44 45 45 45 46 46 47 47 48 48 48 48 49 49 50 50 51 52 52 53 54 55 56 58 59 59 59 
94 57 43 35 29 24 21 19 18 17 17 17 17 17 17 17 17 17 17 17 17 17 17 17 17 17 17 18 19 20 22 24 26 28 29 30 30 29 28 28 27 26 25 24 23 22 22 21 20 19 19 18 17 17 16 16 16 15 15 14 14 14 14 14 14 14 14 14 14 14 14 14 14 14 14 14 14 14 14 14 14 14 14 14 14 14 14 14 14 14 14 14 14 14 14 14 14 14 14 14 14 14 14 14 14 14 14 14 14 14 14 14 14 14 14 14 14 14 14 14 14 14 14 14 14 14 14 14 14 14 14 14 14 14 14 14 14 14 14 14 14 14 14 14 14 14 14 14 14 14 14 14 14 14 14 14 14 14 14 14 14 14 14 14 16 18 20 23 27 31 35 40 44 48 52 56 60 64 67 70 73 75 75 75 76 78 81 84 88 93 99 104 107 110 111 111 109 107 105 104 103 103 104 104 104 102 100 96 91 84 77 70 64 59 54 50 46 42 40 38 36 35 35 34 34 34 34 33 33 33 32 32 31 31 30 29 30 30 31 31 31 31 32 33 34 35 36 37 38 39 40 41 42 42 43 44 44 44 44 44 45 45 46 46 47 47 48 48 49 49 49 50 50 51 51 52 53 54 55 56 57 58 59 58 52 33 
48 50 44 37 31 26 22 19 18 17 17 17 17 17 17 17 17 17 17 17 17 17 17 17 17 17 17 18 19 20 21 23 24 25 26 27 28 28 27 27 27 26 26 25 24 23 23 22 21 20 20 19 18 18 17 17 17 16 16 15 15 14 14 14 14 14 14 14 14 14 14 14 14 14 14 14 14 14 14 14 14 14 14 14 14 14 14 14 14 14 14 14 14 14 14 14 14 14 14 14 14 14 14 14 14 14 14 14 14 14 14 14 14 14 14 14 14 14 14 14 14 14 14 14 14 14 14 14 14 14 14 14 14 14 14 14 14 14 14 14 14 14 14 14 14 14 14 14 14 14 14 14 14 14 14 14 14 14 14 14 14 14 14 15 17 19 22 26 30 34 39 44 49 53 58 62 66 70 73 76 78 79 78 78 79 81 84 87 91 96 102 107 110 112 113 112 109 107 105 104 103 103 104 105 105 104 102 99 94 87 80 73 66 61 56 51 47 43 40 38 36 35 34 33 32 32 32 32 32 32 31 31 30 30 29 29 30 30 31 31 31 32 33 34 35 36 37 38 39 40 41 42 42 42 43 44 44 44 44 44 45 46 47 47 48 48 49 49 50 50 50 51 51 52 52 53 54 55 57 58 60 62 63 63 60 50 
55 54 47 39 32 27 23 20 18 17 17 17 17 17 17 17 17 17 17 17 17 17 17 17 17 17 17 18 19 20 20 21 22 23 24 25 26 26 26 26 26 26 26 26 26 25 25 24 23 22 21 20 19 19 18 18 18 17 17 16 15 14 14 14 14 14 14 14 14 14 14 14 14 14 14 14 14 14 14 14 14 14 14 14 14 14 14 14 14 14 14 14 14 14 14 14 14 14 14 14 14 14 14 14 14 14 14 14 14 14 14 14 14 14 14 14 14 14 14 14 14 14 14 14 14 14 14 14 14 14 14 14 14 14 14 14 14 14 14 14 14 14 14 14 14 14 14 14 14 14 14 14 14 14 14 14 14 14 14 14 14 14 14 16 18 21 24 28 33 38 43 48 53 58 63 68 72 76 79 81 82 82 81 81 82 84 87 90 94 99 105 109 112 114 114 112 109 107 105 104 103 103 104 105 106 105 104 101 96 90 82 75 68 63 58 53 48 44 41 38 36 34 33 32 31 31 31 31 31 31 30 30 29 29 28 29 30 30 31 31 31 32 33 34 35 36 37 38 39 40 41 42 42 42 43 44 44 44 44 44 45 46 47 48 49 49 50 50 51 51 51 52 52 53 53 54 55 57 59 61 63 66 70 73 75 71 
93 66 51 40 32 27 23 20 18 17 17 17 17 17 17 17 17 17 17 17 17 17 17 17 17 17 17 18 19 19 20 20 21 22 23 24 25 25 25 25 26 26 27 27 27 27 27 26 25 24 23 21 20 20 19 19 18 18 17 16 15 14 14 14 14 14 14 14 14 14 14 14 14 14 14 14 14 14 14 14 14 14 14 14 14 14 14 14 14 14 14 14 14 14 14 14 14 14 14 14 14 14 14 14 14 14 14 14 14 14 14 14 14 14 14 14 14 14 14 14 14 14 14 14 14 14 14 14 14 14 14 14 14 14 14 14 14 14 14 14 14 14 14 14 14 14 14 14 14 14 14 14 14 14 14 14 14 14 14 14 14 14 15 17 19 23 27 31 36 41 47 53 58 64 69 74 78 81 83 84 85 84 83 83 84 86 89 93 97 102 107 111 114 115 114 112 109 107 105 104 103 103 104 105 106 106 105 102 98 92 84 77 70 65 60 55 50 46 42 39 36 34 33 32 31 30 30 30 30 30 29 29 28 28 28 29 30 30 31 31 32 33 34 35 36 37 38 39 40 41 42 42 42 42 43 44 44 44 44 44 45 46 47 48 49 50 51 51 52 52 52 53 53 54 54 55 56 58 61 63 67 72 78 86 98 119 
91 68 52 40 31 26 22 19 17 17 17 17 17 17 17 17 17 17 17 17 17 17 17 17 17 17 17 18 18 19 19 20 20 21 22 23 24 24 24 24 25 26 27 28 29 30 30 29 28 26 24 23 21 21 20 19 19 18 17 16 15 14 14 14 14 14 14 14 14 14 14 14 14 14 14 14 14 14 14 14 14 14 14 14 14 14 14 14 14 14 14 14 14 14 14 14 14 14 14 14 14 14 14 14 14 14 14 14 14 14 14 14 14 14 14 14 14 14 14 14 14 14 14 14 14 14 14 14 14 14 14 14 14 14 14 14 14 14 14 14 14 14 14 14 14 14 14 14 14 14 14 14 14 14 14 14 14 14 14 14 14 14 16 18 21 25 29 34 39 45 51 57 63 69 74 79 82 85 86 87 87 86 85 85 86 88 91 95 99 104 109 113 115 115 113 111 109 107 105 104 103 103 104 105 105 105 105 103 99 93 86 79 72 67 62 57 52 47 43 40 37 34 33 32 31 30 29 29 29 29 28 28 27 27 28 29 30 30 31 31 32 33 34 36 37 38 39 40 41 42 42 42 42 43 43 44 44 44 44 44 45 47 48 49 50 51 52 52 52 53 53 54 54 55 55 56 57 59 62 66 70 76 84 95 114 157 
85 64 49 37 29 24 20 18 17 17 17 17 17 17 17 17 17 17 17 17 17 17 17 17 17 17 17 17 18 18 19 19 20 20 21 22 23 23 23 23 24 26 27 29 31 32 32 31 30 28 26 24 22 21 20 20 19 18 17 16 15 14 14 14 14 14 14 14 14 14 14 14 14 14 14 14 14 14 14 14 14 14 14 14 14 14 14 14 14 14 14 14 14 14 14 14 14 14 14 14 14 14 14 14 14 14 14 14 14 14 14 14 14 14 14 14 14 14 14 14 14 14 14 14 14 14 14 14 14 14 14 14 14 14 14 14 14 14 14 14 14 14 14 14 14 14 14 14 14 14 14 14 14 14 14 14 14 14 14 14 14 15 17 19 22 26 31 36 41 48 54 61 68 74 79 83 86 88 89 89 88 88 87 87 88 90 93 97 101 106 111 114 115 114 113 111 109 107 105 104 103 103 104 105 105 105 105 103 99 94 87 80 74 69 64 59 54 49 44 41 38 35 33 32 31 30 29 28 28 28 27 27 27 27 28 29 30 30 31 32 33 34 36 37 38 39 40 41 42 42 42 42 43 43 43 44 44 44 44 44 45 47 49 51 52 52 52 52 52 53 54 55 55 56 56 57 58 60 63 68 73 79 87 98 108 109 
85 57 43 33 26 22 19 17 17 17 17 17 17 17 17 17 17 17 17 17 17 17 17 17 17 17 17 17 17 18 18 19 19 20 20 21 22 22 22 22 23 25 27 30 32 33 33 33 32 30 27 25 23 22 21 20 19 18 17 16 15 14 14 14 14 14 14 14 14 14 14 14 14 14 14 14 14 14 14 14 14 14 14 14 14 14 14 14 14 14 14 14 14 14 14 14 14 14 14 14 14 14 14 14 14 14 14 14 14 14 14 14 14 14 14 14 14 14 14 14 14 14 14 14 14 14 14 14 14 14 14 14 14 14 14 14 14 14 14 14 14 14 14 14 14 14 14 14 14 14 14 14 14 14 14 14 14 14 14 14 14 15 17 20 24 28 33 38 44 50 57 65 72 77 82 86 88 90 90 90 89 89 89 89 90 92 95 99 103 108 112 114 115 114 113 111 109 107 105 104 103 103 104 105 105 105 105 103 100 95 88 81 76 71 66 61 56 51 46 42 39 36 33 32 31 30 29 28 27 27 27 27 27 27 28 29 30 30 31 32 34 35 37 39 40 41 42 42 43 43 43 43 43 43 44 44 44 44 44 44 45 47 50 52 53 53 52 52 52 53 54 55 56 57 57 58 59 61 65 69 75 81 90 101 113 127 
26 37 34 28 23 20 18 17 17 17 17 17 17 17 17 17 17 17 17 17 17 17 17 17 17 17 17 17 17 17 18 18 19 19 20 20 21 21 21 22 23 25 27 30 32 33 34 34 33 31 28 26 24 23 22 21 20 19 18 17 16 15 14 14 14 14 14 14 14 14 14 14 14 14 14 14 14 14 14 14 14 14 14 14 14 14 14 14 14 14 14 14 14 14 14 14 14 14 14 14 14 14 14 14 14 14 14 14 14 14 14 14 14 14 14 14 14 14 14 14 14 14 14 14 14 14 14 14 14 14 14 14 14 14 14 14 14 14 14 14 14 14 14 14 14 14 14 14 14 14 14 14 14 14 14 14 14 14 14 14 14 16 18 21 25 30 35 40 46 53 60 68 75 80 84 88 90 91 91 91 90 90 91 91 92 94 97 101 105 109 113 115 115 114 113 111 109 107 105 104 103 103 104 104 104 104 104 103 100 95 88 82 77 72 67 62 57 52 48 44 40 37 34 32 31 30 29 28 27 27 27 27 27 27 28 29 30 31 32 33 35 36 38 40 42 44 44 44 44 44 44 44 44 44 44 44 44 44 44 44 45 47 50 52 53 53 52 52 52 53 54 55 56 57 58 59 60 62 66 70 76 82 91 103 118 136 
34 33 29 24 20 18 17 17 17 17 17 17 17 17 17 17 17 17 17 17 17 17 17 17 17 17 17 17 17 17 17 18 18 19 19 20 20 20 21 21 22 24 26 29 31 32 33 33 32 30 28 26 25 24 23 22 21 20 19 18 17 16 15 14 14 14 14 14 14 14 14 14 14 14 14 14 14 14 14 14 14 14 14 14 14 14 14 14 14 14 14 14 14 14 14 14 14 14 14 14 14 14 14 14 14 14 14 14 14 14 14 14 14 14 14 14 14 14 14 14 14 14 14 14 14 14 14 14 14 14 14 14 14 14 14 14 14 14 14 14 14 14 14 14 14 14 14 14 14 14 14 14 14 14 14 14 14 14 14 14 15 17 19 22 26 31 36 42 48 55 62 70 77 82 86 89 90 91 91 91 91 91 92 93 94 96 99 103 106 110 113 115 114 113 112 111 109 107 105 104 103 103 103 103 103 103 103 102 99 94 89 83 78 73 68 63 58 54 50 45 41 38 35 32 31 30 29 28 27 27 27 27 27 27 28 29 30 31 32 34 36 38 40 42 44 46 46 46 46 45 45 45 45 44 44 44 44 44 44 44 45 47 50 52 53 53 52 52 52 53 54 55 56 57 59 60 61 63 66 70 75 81 89 102 123 168 
44 32 26 22 19 17 17 17 17 17 17 17 17 17 17 18 18 18 18 18 18 18 18 18 18 18 18 18 18 18 18 18 18 18 19 19 19 20 20 21 22 23 25 27 29 30 30 30 30 29 28 26 25 24 23 22 21 20 19 18 17 16 15 14 14 14 14 14 14 14 14 14 14 14 14 14 14 14 14 14 14 14 14 14 14 14 14 14 14 14 14 14 14 14 14 14 14 14 14 14 14 14 14 14 14 14 14 14 14 14 14 14 14 14 14 14 14 14 14 14 14 14 14 14 14 14 14 14 14 14 14 14 14 14 14 14 14 14 14 14 14 14 14 14 14 14 14 14 14 14 14 14 14 14 14 14 14 14 14 14 15 17 20 23 28 33 38 44 50 57 64 72 79 84 87 89 90 91 92 92 92 92 93 95 96 98 101 104 107 111 114 115 114 113 112 111 109 107 105 104 103 103 103 103 103 103 102 101 98 94 89 84 79 74 69 64 60 56 51 47 42 39 36 33 31 30 29 28 27 27 27 27 27 27 28 29 30 31 32 34 36 39 41 44 46 48 48 48 47 46 46 46 45 44 44 44 44 44 44 44 45 47 49 51 52 52 52 52 52 53 55 56 57 58 60 61 62 64 66 70 74 79 85 93 105 128 
30 25 22 20 18 17 17 17 17 17 17 17 18 18 19 19 20 20 20 20 20 20 20 20 20 20 19 19 19 19 18 18 18 18 18 18 19 19 20 20 21 22 24 25 26 27 28 28 28 28 27 26 25 24 23 22 21 20 19 18 17 16 15 14 14 14 14 14 14 14 14 14 14 14 14 14 14 14 14 14 14 14 14 14 14 14 14 14 14 14 14 14 14 14 14 14 14 14 14 14 14 14 14 14 14 14 14 14 14 14 14 14 14 14 14 14 14 14 14 14 14 14 14 14 14 14 14 14 14 14 14 14 14 14 14 14 14 14 14 14 14 14 14 14 14 14 14 14 14 14 14 14 14 14 14 14 14 14 14 14 15 18 21 25 30 35 40 46 52 59 66 73 80 85 88 90 91 92 93 93 93 93 94 96 98 100 102 105 108 111 114 114 113 112 111 110 109 107 105 104 103 103 103 103 103 103 102 100 97 93 89 85 80 76 71 66 62 57 53 48 44 40 36 33 31 30 29 28 27 27 27 27 27 27 28 29 30 31 32 34 37 40 42 45 48 50 50 49 48 47 47 46 45 44 44 44 44 44 44 44 45 47 48 49 50 51 52 52 52 53 55 57 58 59 61 62 63 64 66 69 72 76 79 81 79 61 
11 18 19 18 17 17 17 17 17 17 18 18 19 20 21 22 22 22 22 22 22 22 22 22 22 21 21 20 20 19 19 18 18 18 18 18 18 19 19 19 20 21 22 23 24 25 26 27 27 27 27 27 26 25 24 23 22 21 20 19 18 17 15 14 14 14 14 14 14 14 14 14 14 14 14 14 14 14 14 14 14 14 14 14 14 14 14 14 14 14 14 14 14 14 14 14 14 14 14 14 14 14 14 14 14 14 14 14 14 14 14 14 14 14 14 14 14 14 14 14 14 14 14 14 14 14 14 14 14 14 14 14 14 14 14 14 14 14 14 14 14 14 14 14 14 14 14 14 14 14 14 14 14 14 14 14 14 14 14 14 16 19 22 26 31 37 42 48 54 61 68 74 81 86 89 90 91 92 93 94 94 94 95 97 99 101 103 106 109 112 114 114 113 112 111 110 109 107 105 104 103 103 103 103 103 103 102 100 97 93 89 85 81 77 73 69 64 59 55 50 45 41 37 34 31 30 29 28 27 27 27 27 27 27 28 29 30 31 32 34 37 40 43 47 50 52 52 51 49 48 47 46 45 44 44 44 44 44 44 44 45 46 47 48 49 50 51 52 52 53 55 57 58 60 61 62 63 64 66 69 71 73 75 75 71 60 
17 17 18 18 18 18 18 18 18 18 19 19 21 22 23 24 25 25 25 25 25 25 25 25 24 23 23 22 21 20 19 19 18 18 18 18 18 18 18 19 19 20 21 22 23 24 25 26 27 27 27 27 27 27 26 25 24 23 22 20 19 17 15 14 14 14 14 14 14 14 14 14 14 14 14 14 14 14 14 14 14 14 14 14 14 14 14 14 14 14 14 14 14 14 14 14 14 14 14 14 14 14 14 14 14 14 14 14 14 14 14 14 14 14 14 14 14 14 14 14 14 14 14 14 14 14 14 14 14 14 14 14 14 14 14 14 14 14 14 14 14 14 14 14 14 14 14 14 14 14 14 14 14 14 14 14 14 14 14 15 17 20 23 27 33 39 44 50 56 63 69 75 81 86 89 90 91 92 93 94 95 95 96 98 100 102 104 107 110 112 114 113 112 111 110 109 108 107 105 104 103 103 103 103 103 102 101 99 96 93 89 86 82 79 75 72 67 62 57 52 47 42 38 34 31 30 29 28 27 27 27 27 27 27 28 29 30 31 32 34 37 41 44 48 52 54 54 52 50 49 48 47 46 45 44 44 44 44 44 44 45 46 47 48 49 50 51 52 52 53 55 57 58 60 61 62 63 64 66 68 70 72 73 73 71 71 
18 18 19 19 19 19 19 19 19 19 20 21 23 24 25 27 28 28 28 28 28 28 28 28 27 26 25 24 23 22 21 20 19 18 18 18 18 18 18 18 19 19 20 21 22 23 24 25 26 27 27 28 28 28 28 28 27 25 23 21 19 17 15 14 14 14 14 14 14 14 14 14 14 14 14 14 14 14 14 14 14 14 14 14 14 14 14 14 14 14 14 14 14 14 14 14 14 14 14 14 14 14 14 14 14 14 14 14 14 14 14 14 14 14 14 14 14 14 14 14 14 14 14 14 14 14 14 14 14 14 14 14 14 14 14 14 14 14 14 14 14 14 14 14 14 14 14 14 14 14 14 14 14 14 14 14 14 14 14 15 18 21 24 29 34 40 46 52 58 64 70 76 82 86 88 90 91 92 93 94 95 96 97 99 101 103 105 108 111 113 114 113 112 111 110 109 108 107 105 104 103 103 103 103 103 102 101 98 95 92 89 86 83 80 77 74 70 65 59 54 49 43 39 35 32 30 29 28 27 27 27 27 27 27 28 29 30 31 32 34 37 41 45 49 53 55 55 53 51 50 49 48 46 45 44 44 44 44 44 44 45 46 47 48 49 50 51 52 52 53 55 57 58 60 61 62 63 64 66 68 70 72 74 74 71 62 
13 20 21 21 21 20 20 20 20 20 21 22 24 26 27 29 31 32 32 32 32 32 32 31 30 29 28 26 25 24 22 21 20 19 18 18 18 18 18 18 18 18 19 20 21 22 23 24 25 26 27 28 29 30 31 31 29 27 24 22 19 17 15 14 14 14 14 14 14 14 14 14 14 14 14 14 14 14 14 14 14 14 14 14 14 14 14 14 14 14 14 14 14 14 14 14 14 14 14 14 14 14 14 14 14 14 14 14 14 14 14 14 14 14 14 14 14 14 14 14 14 14 14 14 14 14 14 14 14 14 14 14 14 14 14 14 14 14 14 14 14 14 14 14 14 14 14 14 14 14 14 14 14 14 14 14 14 14 14 16 18 22 26 30 36 42 48 54 60 66 72 78 83 86 88 90 92 93 94 95 96 97 98 100 102 104 106 109 111 113 114 113 112 111 110 109 108 107 105 104 103 103 103 103 103 102 101 98 95 92 89 87 84 81 79 76 72 67 61 56 50 44 40 35 32 30 29 28 27 27 27 27 27 27 28 29 30 31 32 34 37 41 45 50 54 56 56 54 52 51 50 48 46 45 44 44 44 44 44 44 45 46 47 48 49 50 51 52 52 53 55 57 58 60 61 62 63 64 66 69 71 74 77 79 78 65 
35 31 27 25 24 22 21 21 21 21 22 23 25 27 30 32 34 36 37 37 37 37 36 35 34 32 30 29 27 25 24 22 21 20 19 18 18 18 18 18 18 18 18 19 20 21 22 23 25 26 28 29 31 33 34 34 32 29 25 22 19 17 15 14 14 14 14 14 14 14 14 14 14 14 14 14 14 14 14 14 14 14 14 14 14 14 14 14 14 14 14 14 14 14 14 14 14 14 14 14 14 14 14 14 14 14 14 14 14 14 14 14 14 14 14 14 14 14 14 14 14 14 14 14 14 14 14 14 14 14 14 14 14 14 14 14 14 14 14 14 14 14 14 14 14 14 14 14 14 14 14 14 14 14 14 14 14 14 15 16 19 23 27 32 37 43 49 55 61 67 73 79 84 87 89 91 93 94 95 96 97 98 99 101 103 105 107 110 112 114 114 113 112 111 110 109 108 107 105 104 103 103 103 103 103 103 101 98 95 92 89 87 85 82 80 78 75 70 64 58 51 45 40 35 32 30 29 28 27 27 27 27 27 27 28 29 30 31 32 34 37 41 45 50 54 56 56 55 53 52 50 48 46 45 44 44 44 44 44 44 45 46 47 48 49 50 51 52 52 53 55 57 58 60 61 62 63 64 66 69 72 77 83 90 98 107 
59 43 34 29 27 25 23 22 22 22 23 25 27 29 32 35 37 40 42 43 43 42 41 39 37 35 33 31 29 27 25 23 22 21 19 18 18 18 18 18 18 18 18 18 19 20 21 22 24 26 28 30 33 36 37 36 34 30 26 22 19 17 15 14 14 14 14 14 14 14 14 14 14 14 14 14 14 14 14 14 14 14 14 14 14 14 14 14 14 14 14 14 14 14 14 14 14 14 14 14 14 14 14 14 14 14 14 14 14 14 14 14 14 14 14 14 14 14 14 14 14 14 14 14 14 14 14 14 14 14 14 14 14 14 14 14 14 14 14 14 14 14 14 14 14 14 14 14 14 14 14 14 14 14 14 14 14 14 15 17 20 23 28 33 39 45 51 57 63 69 75 81 85 88 90 92 94 95 96 97 98 99 100 102 104 106 108 111 113 114 113 112 111 110 109 108 107 106 105 104 103 103 103 103 103 103 101 98 95 92 89 87 85 83 81 80 77 73 67 60 53 46 41 36 32 30 29 28 27 27 27 27 27 27 28 29 30 31 32 34 37 41 45 49 53 55 55 55 53 52 50 48 46 45 44 44 44 44 44 44 45 46 47 48 49 50 51 52 52 53 55 57 58 60 61 62 63 64 66 69 74 80 88 99 117 146 
67 50 40 34 30 28 26 24 24 24 25 27 29 31 34 37 40 43 46 47 47 46 45 43 41 39 37 34 32 29 27 25 23 21 19 18 18 18 18 18 18 18 17 17 18 19 20 21 23 26 28 31 35 38 39 38 35 31 26 22 19 17 15 14 14 14 14 14 14 14 14 14 14 14 14 14 14 14 14 14 14 14 14 14 14 14 14 14 14 14 14 14 14 14 14 14 14 14 14 14 14 14 14 14 14 14 14 14 14 14 14 14 14 14 14 14 14 14 14 14 14 14 14 14 14 14 14 14 14 14 14 14 14 14 14 14 14 14 14 14 14 14 14 14 14 14 14 14 14 14 14 14 14 14 14 14 14 14 15 17 20 24 29 34 40 47 53 59 66 72 78 83 86 88 90 92 94 96 97 98 99 100 101 103 105 107 109 111 113 114 113 112 111 110 109 108 107 106 105 104 103 103 103 103 103 103 101 98 95 92 89 87 85 84 82 81 79 75 69 61 54 47 41 36 32 30 29 28 27 27 27 27 27 27 28 29 30 31 32 34 37 41 44 47 51 53 54 54 53 52 50 48 46 45 44 43 43 43 43 44 45 46 47 48 49 50 51 52 52 53 55 57 58 60 61 62 63 64 66 70 74 81 90 104 127 167 
57 53 45 39 34 31 28 26 26 26 27 28 30 33 36 40 43 47 49 50 50 49 48 46 45 43 40 37 34 31 29 26 24 22 20 18 18 18 18 18 18 17 17 17 17 18 19 20 22 25 28 32 36 39 40 39 36 31 26 22 19 17 15 14 14 14 14 14 14 14 14 14 14 14 14 14 14 14 14 14 14 14 14 14 14 14 14 14 14 14 14 14 14 14 14 14 14 14 14 14 14 14 14 14 14 14 14 14 14 14 14 14 14 14 14 14 14 14 14 14 14 14 14 14 14 14 14 14 14 14 14 14 14 14 14 14 14 14 14 14 14 14 14 14 14 14 14 14 14 14 14 14 14 14 14 14 14 14 15 17 20 25 30 35 41 48 55 61 68 74 80 84 87 89 91 93 95 97 98 99 100 101 102 104 106 108 110 112 114 114 113 112 111 110 109 108 107 106 105 104 103 103 103 104 104 103 101 98 95 92 89 87 85 84 83 82 80 76 70 62 54 47 41 36 32 30 29 28 27 27 27 27 27 27 28 29 30 31 32 34 37 40 43 45 48 50 51 52 52 51 50 48 46 44 43 42 42 42 43 44 45 46 47 48 49 50 51 52 52 53 55 57 58 60 61 62 63 64 66 69 73 79 87 99 121 168 
73 62 52 44 38 34 31 29 28 28 28 29 31 34 38 42 46 50 52 52 52 51 49 48 47 45 43 40 37 33 30 27 25 23 20 18 18 18 18 18 17 17 16 16 16 17 18 19 21 24 28 32 36 39 40 39 36 31 26 22 19 16 14 14 14 14 14 14 14 14 14 14 14 14 14 14 14 14 14 14 14 14 14 14 14 14 14 14 14 14 14 14 14 14 14 14 14 14 14 14 14 14 14 14 14 14 14 14 14 14 14 14 14 14 14 14 14 14 14 14 14 14 14 14 14 14 14 14 14 14 14 14 14 14 14 14 14 14 14 14 14 14 14 14 14 14 14 14 14 14 14 14 14 14 14 14 14 14 15 17 21 25 30 36 42 49 56 63 70 76 81 85 88 89 91 93 95 97 99 100 101 102 103 105 108 110 112 114 115 114 113 112 111 110 109 108 107 106 105 104 103 103 103 104 104 103 101 98 95 92 89 87 85 84 84 82 80 76 70 62 54 47 41 36 32 30 29 28 27 27 27 27 27 27 28 29 30 31 32 34 37 39 41 43 45 47 48 49 50 50 49 47 45 43 42 41 41 42 43 44 45 46 47 48 49 50 51 52 52 53 55 57 58 60 61 62 63 64 66 68 71 76 81 87 92 88 
90 73 59 48 41 36 33 31 30 29 29 30 32 35 39 44 48 52 54 54 53 51 49 48 48 47 45 42 39 35 32 29 26 23 20 18 18 18 18 17 17 16 16 15 15 16 17 18 20 23 27 31 35 38 39 38 35 30 25 21 18 15 14 14 14 14 14 14 14 14 14 14 14 14 14 14 14 14 14 14 14 14 14 14 14 14 14 14 14 14 14 14 14 14 14 14 14 14 14 14 14 14 14 14 14 14 14 14 14 14 14 14 14 14 14 14 14 14 14 14 14 14 14 14 14 14 14 14 14 14 14 14 14 14 14 14 14 14 14 14 14 14 14 14 14 14 14 14 14 14 14 14 14 14 14 14 14 14 15 18 21 25 30 36 43 50 58 65 72 78 83 86 88 89 91 93 95 97 99 101 102 103 104 106 109 111 113 115 115 114 113 112 111 110 109 108 107 106 105 104 103 103 103 104 104 103 100 97 95 92 89 87 85 84 84 82 79 75 69 61 54 47 41 36 32 30 29 28 27 27 27 27 27 27 28 29 30 31 32 34 36 38 40 42 43 44 45 46 47 47 46 45 44 42 41 40 41 42 43 44 45 46 47 48 49 50 51 52 52 54 55 56 58 59 60 62 63 64 65 67 69 72 75 76 73 51 
108 82 63 51 42 37 34 32 31 30 30 31 33 36 40 45 50 53 55 55 53 51 49 48 48 48 47 44 41 37 34 30 27 23 20 18 18 18 17 17 16 16 15 15 15 15 16 17 19 22 26 30 33 36 37 36 33 29 24 20 17 15 14 14 14 14 14 14 14 14 14 14 14 14 14 14 14 14 14 14 14 14 14 14 14 14 14 14 14 14 14 14 14 14 14 14 14 14 14 14 14 14 14 14 14 14 14 14 14 14 14 14 14 14 14 14 14 14 14 14 14 14 14 14 14 14 14 14 14 14 14 14 14 14 14 14 14 14 14 14 14 14 14 14 14 14 14 14 14 14 14 14 14 14 14 14 14 14 16 18 21 25 30 36 43 51 59 67 74 80 84 87 88 89 91 93 95 97 99 101 103 104 105 107 110 112 114 116 116 114 113 112 111 110 109 108 107 106 105 104 103 103 103 104 104 102 99 96 94 92 89 87 85 84 84 82 78 73 67 60 53 47 41 36 32 30 29 28 27 27 27 27 27 27 28 29 30 31 32 34 36 37 39 40 41 42 43 43 43 43 43 43 42 41 40 40 41 42 43 44 45 46 47 48 49 50 51 52 53 54 55 56 57 58 60 61 62 63 64 66 67 69 71 72 73 76 
134 85 62 50 42 37 34 32 31 31 31 32 34 37 41 46 51 54 55 55 53 50 48 47 47 48 48 46 43 39 35 31 27 23 20 18 18 17 17 16 16 15 15 15 15 15 15 16 18 21 24 27 30 33 34 33 30 27 23 19 16 14 14 14 14 14 14 14 14 14 14 14 14 14 14 14 14 14 14 14 14 14 14 14 14 14 14 14 14 14 14 14 14 14 14 14 14 14 14 14 14 14 14 14 14 14 14 14 14 14 14 14 14 14 14 14 14 14 14 14 14 14 14 14 14 14 14 14 14 14 14 14 14 14 14 14 14 14 14 14 14 14 14 14 14 14 14 14 14 14 14 14 14 14 14 14 14 15 16 18 21 25 30 36 43 51 60 68 75 81 85 87 88 89 91 93 95 97 99 101 103 105 106 108 111 113 115 116 116 114 113 112 111 110 109 108 107 106 105 104 103 103 103 103 103 101 98 95 93 91 89 87 85 84 83 81 77 71 65 59 52 46 41 36 32 30 29 28 27 27 27 27 27 27 28 29 30 31 32 34 35 36 37 38 39 40 40 40 40 40 40 40 40 40 39 40 41 42 43 44 45 46 47 48 49 50 51 52 53 54 55 56 57 58 60 61 62 63 64 65 66 67 68 69 71 79 
73 63 53 45 40 36 33 31 31 31 32 33 35 38 42 47 51 54 55 54 52 49 47 46 46 47 48 47 44 41 37 32 27 23 20 18 17 17 16 16 15 15 15 15 15 15 15 16 17 19 22 24 27 29 30 29 27 24 21 18 15 14 14 14 14 14 14 14 14 14 14 14 14 14 14 14 14 14 14 14 14 14 14 14 14 14 14 14 14 14 14 14 14 14 14 14 14 14 14 14 14 14 14 14 14 14 14 14 14 14 14 14 14 14 14 14 14 14 14 14 14 14 14 14 14 14 14 14 14 14 14 14 14 14 14 14 14 14 14 14 14 14 14 14 14 14 14 14 14 14 14 14 14 14 14 14 14 15 16 18 21 25 30 36 43 51 60 68 75 81 85 87 88 89 91 93 95 97 99 101 103 105 107 109 112 114 116 117 116 114 113 112 111 110 109 108 107 106 105 104 103 103 103 102 101 99 97 94 92 91 89 87 85 84 83 80 75 69 63 57 51 45 40 36 32 30 29 28 27 27 27 27 27 27 28 29 30 31 32 33 34 35 36 37 38 38 38 38 38 38 38 38 38 38 39 40 41 42 43 44 45 46 47 48 49 50 52 53 54 55 56 57 58 59 61 62 63 64 65 65 65 65 65 65 64 64 
25 41 42 40 37 34 32 31 31 31 32 34 36 39 43 48 51 53 54 53 51 48 46 45 45 46 47 47 45 42 37 32 27 23 20 18 17 16 16 15 15 15 15 15 15 15 15 15 16 18 20 21 23 24 25 24 23 21 18 16 14 14 14 14 14 14 14 14 14 14 14 14 14 14 14 14 14 14 14 14 14 14 14 14 14 14 14 14 14 14 14 14 14 14 14 14 14 14 14 14 14 14 14 14 14 14 14 14 14 14 14 14 14 14 14 14 14 14 14 14 14 14 14 14 14 14 14 14 14 14 14 14 14 14 14 14 14 14 14 14 14 14 14 14 14 14 14 14 14 14 14 14 14 14 14 14 14 15 16 18 21 25 30 36 43 51 60 68 75 81 85 87 88 89 91 94 96 98 100 102 104 106 108 110 113 115 117 117 116 114 113 112 111 110 109 108 107 106 105 104 103 103 102 101 100 98 96 93 91 90 89 87 85 84 82 78 73 67 61 55 50 44 39 35 32 30 29 28 27 27 27 27 27 27 28 29 30 31 32 33 34 35 36 36 36 36 36 36 36 36 36 36 37 38 39 40 41 42 43 44 45 46 47 48 49 50 52 54 55 57 58 59 60 61 62 63 64 65 66 65 64 64 63 62 57 39 
30 36 37 36 34 32 31 31 31 31 32 34 36 39 43 48 51 52 53 52 49 47 45 44 44 45 46 46 45 42 37 32 27 23 20 18 17 16 15 15 15 15 15 15 15 15 15 15 15 16 17 18 19 20 20 20 19 18 16 15 14 14 14 14 14 14 14 14 14 14 14 14 14 14 14 14 14 14 14 14 14 14 14 14 14 14 14 14 14 14 14 14 14 14 14 14 14 14 14 14 14 14 14 14 14 14 14 14 14 14 14 14 14 14 14 14 14 14 14 14 14 14 14 14 14 14 14 14 14 14 14 14 14 14 14 14 14 14 14 14 14 14 14 14 14 14 14 14 14 14 14 14 14 14 14 14 14 15 16 18 21 25 30 36 43 51 59 67 74 80 84 87 88 89 91 94 97 99 101 103 105 107 109 111 114 116 117 117 116 114 113 112 111 110 109 108 107 106 105 104 103 102 101 100 98 96 94 92 90 89 88 87 85 83 81 76 71 65 59 53 48 43 38 34 31 30 29 28 27 27 27 27 27 27 28 29 30 31 32 33 34 35 35 35 35 35 35 35 35 35 35 36 37 38 39 40 41 42 43 44 45 46 47 48 49 50 52 54 56 58 60 61 62 63 64 65 66 67 67 65 64 63 63 64 63 53 
48 37 34 33 32 31 30 30 30 31 32 34 36 39 43 47 50 51 51 50 47 45 44 43 43 44 45 45 44 41 36 32 27 23 20 18 17 16 15 15 15 15 15 15 15 15 15 15 15 15 16 16 17 17 17 17 16 15 14 14 14 14 14 14 14 14 14 14 14 14 14 14 14 14 14 14 14 14 14 14 14 14 14 14 14 14 14 14 14 14 14 14 14 14 14 14 14 14 14 14 14 14 14 14 14 14 14 14 14 14 14 14 14 14 14 14 14 14 14 14 14 14 14 14 14 14 14 14 14 14 14 14 14 14 14 14 14 14 14 14 14 14 14 14 14 14 14 14 14 14 14 14 14 14 14 14 14 15 16 18 21 25 30 36 43 51 58 65 72 78 83 86 88 89 91 94 97 100 102 104 106 108 110 112 115 117 118 117 116 114 113 112 111 110 109 108 107 106 105 104 103 101 100 99 97 95 93 91 89 88 87 86 85 83 80 75 69 63 57 52 47 42 37 33 31 29 28 27 27 27 27 27 27 27 28 29 30 31 32 34 35 35 35 35 35 35 35 35 35 35 35 36 37 38 39 40 41 42 43 44 45 46 47 48 49 51 53 55 57 59 61 63 64 65 66 67 68 68 67 65 63 62 64 69 81 115 
22 30 31 31 30 30 30 30 30 31 32 34 36 38 41 45 48 49 48 47 45 43 42 41 41 42 44 44 43 40 35 31 27 23 20 18 17 16 15 15 15 15 15 15 15 15 15 15 15 15 15 15 15 15 15 15 14 14 14 14 14 14 14 14 14 14 14 14 14 14 14 14 14 14 14 14 14 14 14 14 14 14 14 14 14 14 14 14 14 14 14 14 14 14 14 14 14 14 14 14 14 14 14 14 14 14 14 14 14 14 14 14 14 14 14 14 14 14 14 14 14 14 14 14 14 14 14 14 14 14 14 14 14 14 14 14 14 14 14 14 14 14 14 14 14 14 14 14 14 14 14 14 14 14 14 14 14 15 16 18 21 25 30 36 43 50 57 64 71 77 82 86 88 89 91 94 97 100 103 105 107 109 111 113 116 118 118 117 116 114 113 112 111 110 109 108 107 106 105 104 102 100 99 98 96 94 92 90 88 87 86 85 84 82 79 73 67 61 56 51 46 41 36 33 30 29 28 27 27 27 27 27 27 27 28 29 30 31 32 34 34 34 34 34 34 34 34 34 34 34 35 36 37 38 39 40 41 42 43 44 45 46 47 48 49 51 54 56 59 61 63 65 66 67 68 69 69 68 66 63 61 60 62 67 77 99 
35 30 30 30 29 29 29 29 30 31 32 33 35 37 39 42 45 46 45 44 43 41 40 39 39 40 42 43 42 39 34 30 27 23 20 18 17 16 15 15 15 15 15 15 15 15 15 15 15 14 14 14 14 14 14 14 14 14 14 14 14 14 14 14 14 14 14 14 14 14 14 14 14 14 14 14 14 14 14 14 14 14 14 14 14 14 14 14 14 14 14 14 14 14 14 14 14 14 14 14 14 14 14 14 14 14 14 14 14 14 14 14 14 14 14 14 14 14 14 14 14 14 14 14 14 14 14 14 14 14 14 14 14 14 14 14 14 14 14 14 14 14 14 14 14 14 14 14 14 14 14 14 14 14 14 14 14 15 16 18 21 25 30 36 43 50 56 63 69 75 81 85 88 89 91 94 97 100 103 106 108 110 112 114 117 118 118 117 116 114 113 112 111 110 109 108 107 106 105 103 101 99 98 97 95 93 91 89 87 86 85 84 83 81 78 72 66 60 55 49 45 40 36 32 30 28 27 27 27 27 27 27 27 27 28 29 30 31 32 33 33 33 33 33 33 33 33 33 33 34 35 36 37 38 39 40 41 42 43 44 45 46 47 48 49 51 54 57 60 63 65 67 68 69 70 70 69 67 64 61 59 58 58 60 62 58 
24 28 29 29 29 29 29 29 30 31 32 33 34 36 37 39 41 42 42 41 40 39 38 37 38 39 40 41 40 37 33 29 26 23 20 18 17 16 15 15 15 15 15 15 15 15 15 15 14 14 14 14 14 14 14 14 14 14 14 14 14 14 14 14 14 14 14 14 14 14 14 14 14 14 14 14 14 14 14 14 14 14 14 14 14 14 14 14 14 14 14 14 14 14 14 14 14 14 14 14 14 14 14 14 14 14 14 14 14 14 14 14 14 14 14 14 14 14 14 14 14 14 14 14 14 14 14 14 14 14 14 14 14 14 14 14 14 14 14 14 14 14 14 14 14 14 14 14 14 14 14 14 14 14 14 14 14 15 17 19 22 26 31 36 43 49 55 61 67 73 79 84 87 89 91 94 97 100 103 106 109 111 113 115 117 118 117 116 115 114 113 112 111 110 109 108 107 106 104 102 100 98 97 96 94 92 90 88 86 85 85 84 83 81 77 71 65 59 53 48 44 39 35 32 29 28 27 27 27 27 27 27 27 27 28 30 31 31 32 32 32 32 32 32 32 32 32 33 34 35 36 37 38 39 40 41 42 43 43 44 45 46 47 48 49 51 54 58 62 65 67 69 70 70 70 69 67 65 61 58 56 54 53 53 53 55 
31 30 30 29 29 29 29 29 30 31 32 32 33 34 35 36 37 38 38 38 37 37 36 36 36 37 38 39 38 35 32 28 25 23 20 18 17 16 15 15 15 15 15 15 15 15 15 14 14 14 14 14 14 14 14 14 14 14 14 14 14 14 14 14 14 14 14 14 14 14 14 14 14 14 14 14 14 14 14 14 14 14 14 14 14 14 14 14 14 14 14 14 14 14 14 14 14 14 14 14 14 14 14 14 14 14 14 14 14 14 14 14 14 14 14 14 14 14 14 14 14 14 14 14 14 14 14 14 14 14 14 14 14 14 14 14 14 14 14 14 14 14 14 14 14 14 14 14 14 14 14 14 14 14 14 14 14 16 18 20 23 27 31 36 42 48 54 60 66 72 78 83 86 89 91 94 97 100 103 106 109 112 114 116 118 118 117 116 115 114 113 112 111 110 109 108 107 105 103 101 99 97 96 95 93 91 89 87 85 84 84 84 83 81 77 71 64 57 51 46 42 38 34 31 29 28 27 27 27 27 27 27 27 27 28 30 31 31 32 32 32 32 32 32 32 32 33 34 35 36 37 38 39 40 41 42 43 43 43 44 45 46 47 48 49 51 54 58 62 65 67 69 70 70 69 67 65 62 58 55 53 50 48 46 42 33 
34 32 30 30 30 30 30 30 30 31 31 31 32 33 33 34 34 34 34 34 34 34 34 34 34 35 36 37 36 33 30 27 25 23 20 18 17 16 15 15 15 15 15 15 15 15 15 14 14 14 14 14 14 14 14 14 14 14 14 14 14 14 14 14 14 14 14 14 14 14 14 14 14 14 14 14 14 14 14 14 14 14 14 14 14 14 14 14 14 14 14 14 14 14 14 14 14 14 14 14 14 14 14 14 14 14 14 14 14 14 14 14 14 14 14 14 14 14 14 14 14 14 14 14 14 14 14 14 14 14 14 14 14 14 14 14 14 14 14 14 14 14 14 14 14 14 14 14 14 14 14 14 14 14 14 14 15 17 19 21 23 27 31 36 42 48 54 60 66 72 77 82 85 88 91 94 97 100 103 106 109 112 114 116 118 118 117 116 115 114 113 112 111 110 109 108 106 104 102 100 98 96 95 93 91 89 87 86 84 83 83 83 82 80 76 70 62 55 49 44 40 37 33 30 28 27 27 27 27 27 27 27 27 28 29 30 31 32 33 33 33 33 33 33 33 33 34 35 36 37 38 39 40 40 41 42 43 43 43 44 45 46 47 48 49 51 54 58 61 64 66 67 68 68 67 65 62 58 55 52 49 46 43 41 37 30 
39 33 31 31 31 31 31 31 30 30 30 31 31 31 31 32 32 32 32 32 32 32 32 32 32 33 33 34 33 31 28 26 24 22 20 18 17 16 15 15 15 15 15 15 15 15 15 14 14 14 14 14 14 14 14 14 14 14 14 14 14 14 14 14 14 14 14 14 14 14 14 14 14 14 14 14 14 14 14 14 14 14 14 14 14 14 14 14 14 14 14 14 14 14 14 14 14 14 14 14 14 14 14 14 14 14 14 14 14 14 14 14 14 14 14 14 14 14 14 14 14 14 14 14 14 14 14 14 14 14 14 14 14 14 14 14 14 14 14 14 14 14 14 14 14 14 14 14 14 14 14 14 14 14 14 14 16 18 20 22 24 27 31 37 43 49 55 60 66 71 76 81 85 88 91 94 97 100 103 106 109 112 115 117 118 118 117 116 115 114 113 112 111 110 109 107 105 103 101 99 97 95 93 91 89 87 85 84 83 82 82 82 81 78 74 68 60 53 47 42 38 35 32 29 28 27 27 27 27 27 27 27 27 28 29 30 31 32 33 34 34 34 34 34 34 34 35 36 37 38 39 40 40 41 42 43 43 43 43 44 45 46 47 48 49 51 54 57 60 62 63 64 64 64 63 61 58 54 51 48 45 42 40 38 36 36 
33 32 31 31 31 31 31 31 31 30 30 30 30 30 30 30 30 30 30 30 30 30 30 30 30 31 31 30 29 28 26 25 23 21 20 18 17 16 15 15 15 15 15 15 15 15 15 14 14 14 14 14 14 14 14 14 14 14 14 14 14 14 14 14 14 14 14 14 14 14 14 14 14 14 14 14 14 14 14 14 14 14 14 14 14 14 14 14 14 14 14 14 14 14 14 14 14 14 14 14 14 14 14 14 14 14 14 14 14 14 14 14 14 14 14 14 14 14 14 14 14 14 14 14 14 14 14 14 14 14 14 14 14 14 14 14 14 14 14 14 14 14 14 14 14 14 14 14 14 14 14 14 14 14 14 15 17 19 21 23 25 28 32 38 44 50 55 60 65 70 75 80 84 88 91 94 97 100 103 106 109 112 115 118 119 118 117 116 115 114 113 112 111 110 109 107 105 103 101 99 97 95 92 90 88 86 84 82 81 81 81 80 79 76 71 65 58 51 45 40 37 34 31 29 27 27 27 27 27 27 27 27 28 29 30 31 32 33 34 35 35 35 35 35 35 36 37 37 38 39 40 40 41 41 42 43 43 43 43 44 45 46 47 48 49 50 53 55 57 58 59 59 59 59 58 56 53 50 47 44 41 39 37 35 33 34 
32 31 32 32 32 32 32 32 31 30 30 30 30 29 29 29 29 29 29 29 29 29 29 29 29 29 28 27 26 25 24 23 22 20 19 18 17 16 15 15 15 15 15 15 15 15 15 14 14 14 14 14 14 14 14 14 14 14 14 14 14 14 14 14 14 14 14 14 14 14 14 14 14 14 14 14 14 14 14 14 14 14 14 14 14 14 14 14 14 14 14 14 14 14 14 14 14 14 14 14 14 14 14 14 14 14 14 14 14 14 14 14 14 14 14 14 14 14 14 14 14 14 14 14 14 14 14 14 14 14 14 14 14 14 14 14 14 14 14 14 14 14 14 14 14 14 14 14 14 14 14 14 14 14 14 16 18 20 22 24 26 29 33 39 45 50 55 60 65 70 75 80 84 88 92 95 98 101 104 107 110 113 116 118 119 118 117 116 115 114 113 112 111 110 109 107 105 103 101 99 97 94 91 89 87 84 82 80 79 79 79 78 76 73 68 62 55 49 43 39 36 33 30 28 27 27 27 27 27 27 27 27 28 29 30 31 32 33 34 35 36 36 36 36 36 37 38 39 39 40 40 41 41 41 42 43 43 43 43 44 45 46 47 48 48 49 51 52 53 54 54 54 54 54 53 51 49 47 44 41 38 36 34 32 30 28 
20 30 33 34 34 34 33 33 32 31 30 30 29 29 28 28 28 28 28 28 28 28 28 28 28 27 26 25 24 23 22 21 20 19 18 17 16 15 15 15 15 15 15 15 15 15 15 14 14 14 14 14 14 14 14 14 14 14 14 14 14 14 14 14 14 14 14 14 14 14 14 14 14 14 14 14 14 14 14 14 14 14 14 14 14 14 14 14 14 14 14 14 14 14 14 14 14 14 14 14 14 14 14 14 14 14 14 14 14 14 14 14 14 14 14 14 14 14 14 14 14 14 14 14 14 14 14 14 14 14 14 14 14 14 14 14 14 14 14 14 14 14 14 14 14 14 14 14 14 14 14 14 14 14 15 17 19 21 23 25 27 30 35 41 46 51 56 61 66 71 76 81 85 89 93 96 99 102 105 108 111 114 117 119 119 118 117 116 115 114 113 112 111 110 108 106 104 102 100 98 96 93 90 88 85 82 80 78 77 77 76 75 72 69 64 58 52 46 41 37 34 32 29 28 27 27 27 27 27 27 27 28 29 30 31 32 33 34 35 36 37 37 37 37 37 38 39 40 41 41 41 41 41 42 43 43 43 43 43 44 45 46 47 47 47 48 49 50 50 50 50 50 50 50 49 47 45 44 42 39 37 35 32 30 27 23 
33 37 38 38 37 36 35 34 33 32 31 30 29 28 28 27 27 27 27 27 27 27 27 27 27 26 25 24 23 22 21 20 19 18 17 16 15 15 15 15 15 15 15 15 15 15 15 14 14 14 14 14 14 14 14 14 14 14 14 14 14 14 14 14 14 14 14 14 14 14 14 14 14 14 14 14 14 14 14 14 14 14 14 14 14 14 14 14 14 14 14 14 14 14 14 14 14 14 14 14 14 14 14 14 14 14 14 14 14 14 14 14 14 14 14 14 14 14 14 14 14 14 14 14 14 14 14 14 14 14 14 14 14 14 14 14 14 14 14 14 14 14 14 14 14 14 14 14 14 14 14 14 14 14 16 18 20 22 24 26 28 32 38 43 48 53 58 63 68 73 78 82 86 90 94 97 100 103 106 109 112 115 118 120 120 119 118 116 115 114 113 112 111 109 107 105 103 101 99 97 95 92 89 86 83 80 78 76 75 74 73 71 68 64 59 54 49 44 39 35 33 31 29 27 27 27 27 27 27 27 27 28 29 30 31 32 33 34 35 36 37 38 38 38 38 39 40 42 43 43 42 42 42 42 43 43 43 43 43 44 45 46 46 46 46 47 47 47 47 47 47 47 47 47 46 44 43 41 39 37 35 33 31 29 28 27 
57 48 44 42 40 39 37 36 34 33 31 30 29 28 27 27 26 26 26 26 26 26 26 26 26 25 24 23 23 22 21 20 19 18 17 16 15 15 15 15 15 15 15 15 15 15 15 14 14 14 14 14 14 14 14 14 14 14 14 14 14 14 14 14 14 14 14 14 14 14 14 14 14 14 14 14 14 14 14 14 14 14 14 14 14 14 14 14 14 14 14 14 14 14 14 14 14 14 14 14 14 14 14 14 14 14 14 14 14 14 14 14 14 14 14 14 14 14 14 14 14 14 14 14 14 14 14 14 14 14 14 14 14 14 14 14 14 14 14 14 14 14 14 14 14 14 14 14 14 14 14 14 14 15 17 19 21 23 25 28 31 36 41 46 51 56 61 66 71 76 80 84 88 92 95 98 101 104 107 110 113 116 119 121 121 120 118 116 115 114 113 112 111 109 107 105 103 101 99 97 94 91 88 85 82 79 76 74 72 70 68 65 62 58 54 50 45 41 37 34 31 29 28 27 27 27 27 27 27 27 28 29 30 31 32 33 34 35 36 37 38 38 38 38 38 39 41 43 44 44 43 42 42 43 43 43 43 43 43 44 45 45 45 45 45 45 45 45 45 45 45 45 45 45 44 43 41 39 38 36 34 32 31 30 30 34 
63 53 49 46 44 42 40 38 36 34 32 30 29 28 27 26 26 26 25 25 25 25 25 25 25 24 23 23 23 22 21 21 20 19 18 17 16 16 15 15 15 15 15 15 15 15 15 14 14 14 14 14 14 14 14 14 14 14 14 14 14 14 14 14 14 14 14 14 14 14 14 14 14 14 14 14 14 14 14 14 14 14 14 14 14 14 14 14 14 14 14 14 14 14 14 14 14 14 14 14 14 14 14 14 14 14 14 14 14 14 14 14 14 14 14 14 14 14 14 14 14 14 14 14 14 14 14 14 14 14 14 14 14 14 14 14 14 14 14 14 14 14 14 14 14 14 14 14 14 14 14 14 14 16 18 20 22 24 27 31 35 40 45 50 55 60 65 70 74 78 82 86 90 94 97 100 103 106 109 112 115 118 121 122 121 120 118 116 115 114 113 112 111 109 107 105 103 101 99 97 94 90 87 84 80 77 74 71 69 66 63 60 57 53 49 46 42 38 35 32 30 28 27 27 27 27 27 27 27 28 29 30 32 33 34 35 36 37 38 38 38 38 38 38 38 39 41 43 44 44 43 42 42 43 43 43 43 43 43 44 44 44 44 44 44 44 44 44 44 44 44 44 44 43 42 41 40 39 38 36 34 33 31 30 28 22 
45 55 54 51 48 45 42 40 37 35 32 30 29 28 27 26 26 25 25 25 24 24 24 24 24 23 22 22 22 22 21 21 21 20 20 19 18 17 16 15 15 15 15 15 15 15 15 14 14 14 14 14 14 14 14 14 14 14 14 14 14 14 14 14 14 14 14 14 14 14 14 14 14 14 14 14 14 14 14 14 14 14 14 14 14 14 14 14 14 14 14 14 14 14 14 14 14 14 14 14 14 14 14 14 14 14 14 14 14 14 14 14 14 14 14 14 14 14 14 14 14 14 14 14 14 14 14 14 14 14 14 14 14 14 14 14 14 14 14 14 14 14 14 14 14 14 14 14 14 14 14 14 15 17 19 21 23 26 30 34 38 43 48 53 58 63 68 73 77 81 85 89 92 95 98 102 105 108 111 114 117 120 122 123 122 120 118 116 115 114 113 112 111 109 107 105 103 101 99 96 93 89 86 82 78 75 72 68 65 62 59 56 53 49 46 42 39 35 33 30 29 28 27 27 27 27 27 27 27 28 30 32 34 36 37 38 39 40 40 40 39 39 39 38 38 39 41 42 43 43 43 42 42 43 43 43 43 43 43 43 43 43 43 43 43 43 43 43 43 43 43 43 43 42 41 40 39 38 38 37 35 34 33 32 31 32 
83 69 61 55 51 48 45 42 38 35 32 30 29 28 27 26 25 25 25 24 24 23 23 23 23 22 21 21 21 21 21 21 21 21 21 21 20 19 17 16 15 15 15 15 15 15 15 14 14 14 14 14 14 14 14 14 14 14 14 14 14 14 14 14 14 14 14 14 14 14 14 14 14 14 14 14 14 14 14 14 14 14 14 14 14 14 14 14 14 14 14 14 14 14 14 14 14 14 14 14 14 14 14 14 14 14 14 14 14 14 14 14 14 14 14 14 14 14 14 14 14 14 14 14 14 14 14 14 14 14 14 14 14 14 14 14 14 14 14 14 14 14 14 14 14 14 14 14 14 14 14 14 16 18 20 22 25 28 32 37 42 47 52 57 62 67 72 77 81 85 88 91 94 96 99 103 106 109 112 115 119 122 124 124 123 120 118 116 115 114 113 112 111 109 107 105 103 101 99 96 92 88 84 80 76 73 69 66 62 59 56 53 50 46 43 39 36 33 31 29 28 28 27 27 27 27 27 27 27 29 31 33 36 38 40 42 43 43 42 41 40 40 39 38 38 39 40 41 42 42 42 42 43 43 43 43 43 43 43 43 43 43 43 43 43 43 43 43 43 43 43 43 43 42 41 40 39 39 38 38 37 36 35 34 33 30 
109 77 65 58 54 51 48 44 40 36 33 30 29 28 27 26 25 25 24 24 23 22 22 22 22 21 20 20 20 21 21 22 22 23 23 23 22 20 18 16 15 15 15 15 15 15 15 14 14 14 14 14 14 14 14 14 14 14 14 14 14 14 14 14 14 14 14 14 14 14 14 14 14 14 14 14 14 14 14 14 14 14 14 14 14 14 14 14 14 14 14 14 14 14 14 14 14 14 14 14 14 14 14 14 14 14 14 14 14 14 14 14 14 14 14 14 14 14 14 14 14 14 14 14 14 14 14 14 14 14 14 14 14 14 14 14 14 14 14 14 14 14 14 14 14 14 14 14 14 14 14 15 17 19 21 24 27 31 35 40 45 51 56 61 66 71 76 81 85 89 91 93 95 97 100 104 107 110 113 116 120 123 125 125 123 120 118 116 115 114 113 112 111 109 107 105 103 101 99 95 91 87 83 79 75 71 67 63 59 56 53 50 47 43 40 36 33 31 29 28 28 28 27 27 27 27 27 27 28 29 32 34 37 40 43 46 47 46 44 43 41 40 39 38 38 39 40 41 42 42 42 42 43 43 43 43 43 43 43 43 43 43 43 43 43 43 43 43 43 43 43 43 43 43 42 41 41 40 40 39 39 38 38 39 39 35 
63 68 64 59 56 53 50 45 41 36 33 30 29 28 27 26 25 24 24 23 22 22 21 21 21 20 19 19 19 20 21 22 23 24 25 25 24 22 19 17 15 15 15 15 15 15 15 14 14 14 14 14 14 14 14 14 14 14 14 14 14 14 14 14 14 14 14 14 14 14 14 14 14 14 14 14 14 14 14 14 14 14 14 14 14 14 14 14 14 14 14 14 14 14 14 14 14 14 14 14 14 14 14 14 14 14 14 14 14 14 14 14 14 14 14 14 14 14 14 14 14 14 14 14 14 14 14 14 14 14 14 14 14 14 14 14 14 14 14 14 14 14 14 14 14 14 14 14 14 14 14 16 18 20 23 26 30 34 39 44 49 55 60 65 70 75 80 85 89 92 93 94 96 98 101 105 108 111 114 117 121 124 125 125 123 120 118 116 115 114 113 112 111 109 107 105 103 101 99 95 90 86 82 78 73 69 65 61 57 53 50 47 44 40 37 34 31 30 28 27 27 27 27 27 27 27 27 27 28 30 32 35 39 42 46 49 50 49 46 44 42 41 39 38 38 39 40 41 42 42 42 43 44 44 44 44 44 44 44 44 44 44 44 44 44 44 44 44 44 44 44 44 44 44 44 43 43 42 42 41 41 41 42 45 51 65 
70 68 64 60 57 54 51 46 41 36 33 30 29 28 27 26 25 24 23 22 22 21 21 20 20 19 18 18 18 19 21 22 24 26 27 27 26 24 20 17 15 15 15 15 15 15 15 14 14 14 14 14 14 14 14 14 14 14 14 14 14 14 14 14 14 14 14 14 14 14 14 14 14 14 14 14 14 14 14 14 14 14 14 14 14 14 14 14 14 14 14 14 14 14 14 14 14 14 14 14 14 14 14 14 14 14 14 14 14 14 14 14 14 14 14 14 14 14 14 14 14 14 14 14 14 14 14 14 14 14 14 14 14 14 14 14 14 14 14 14 14 14 14 14 14 14 14 14 14 14 15 17 19 21 24 28 33 37 42 48 53 59 65 70 75 80 85 89 92 94 94 95 97 99 102 106 109 112 115 118 122 124 125 124 122 120 118 116 115 114 113 112 111 109 107 105 103 101 98 94 89 85 81 76 71 67 63 59 55 51 47 44 41 37 34 32 30 29 27 27 27 27 27 27 27 27 27 27 28 30 33 36 40 44 48 51 52 51 48 45 43 41 39 38 38 39 40 41 42 42 42 43 44 45 45 45 45 45 45 45 45 45 45 45 45 45 45 45 45 45 46 46 46 46 46 46 45 44 44 43 43 43 45 48 56 74 
84 69 63 59 56 54 51 47 41 36 33 30 28 27 26 25 24 23 22 22 21 21 20 19 19 18 18 18 18 19 21 22 24 27 28 28 27 25 21 18 16 15 15 15 15 15 15 14 14 14 14 14 14 14 14 14 14 14 14 14 14 14 14 14 14 14 14 14 14 14 14 14 14 14 14 14 14 14 14 14 14 14 14 14 14 14 14 14 14 14 14 14 14 14 14 14 14 14 14 14 14 14 14 14 14 14 14 14 14 14 14 14 14 14 14 14 14 14 14 14 14 14 14 14 14 14 14 14 14 14 14 14 14 14 14 14 14 14 14 14 14 14 14 14 14 14 14 14 14 14 16 18 20 23 26 30 35 40 46 52 57 63 69 74 79 84 88 91 94 95 95 96 98 100 103 107 110 113 116 119 123 125 125 124 122 120 118 116 115 114 113 112 111 109 107 105 103 101 98 93 88 84 79 74 70 65 61 57 53 49 45 41 38 35 33 31 29 28 27 27 27 27 27 27 27 27 27 27 28 30 33 37 41 45 49 52 53 52 49 46 43 41 39 38 38 39 40 41 42 42 42 43 44 45 46 46 46 46 46 46 46 46 46 46 46 46 46 46 46 46 47 48 48 48 48 48 47 46 46 45 45 45 47 49 51 50 
62 63 61 58 55 53 51 47 41 36 32 29 28 27 26 25 24 23 22 21 21 20 19 19 18 18 18 18 18 19 20 22 24 27 28 28 27 25 21 18 16 15 15 15 15 15 15 14 14 14 14 14 14 14 14 14 14 14 14 14 14 14 14 14 14 14 14 14 14 14 14 14 14 14 14 14 14 14 14 14 14 14 14 14 14 14 14 14 14 14 14 14 14 14 14 14 14 14 14 14 14 14 14 14 14 14 14 14 14 14 14 14 14 14 14 14 14 14 14 14 14 14 14 14 14 14 14 14 14 14 14 14 14 14 14 14 14 14 14 14 14 14 14 14 14 14 14 14 14 15 17 19 21 24 28 33 38 43 49 55 61 67 73 78 83 87 90 93 95 96 96 97 99 101 104 108 111 114 117 120 123 125 125 124 122 120 118 116 115 114 113 112 110 108 106 104 102 100 97 92 87 82 77 73 68 64 59 55 51 47 43 39 36 34 32 30 28 27 26 26 26 26 26 26 26 26 26 27 28 30 33 37 41 46 50 52 53 52 49 45 42 41 39 38 38 39 40 41 42 42 43 44 45 46 47 47 47 47 47 47 47 47 47 47 47 47 47 47 47 47 48 49 49 49 49 49 48 47 47 47 47 48 49 50 49 43 
72 61 58 56 54 52 50 46 40 35 31 29 27 26 25 24 23 22 21 21 20 19 19 18 18 18 18 18 18 18 19 21 24 26 27 27 26 24 21 18 16 15 15 15 15 15 15 14 14 14 14 14 14 14 14 14 14 14 14 14 14 14 14 14 14 14 14 14 14 14 14 14 14 14 14 14 14 14 14 14 14 14 14 14 14 14 14 14 14 14 14 14 14 14 14 14 14 14 14 14 14 14 14 14 14 14 14 14 14 14 14 14 14 14 14 14 14 14 14 14 14 14 14 14 14 14 14 14 14 14 14 14 14 14 14 14 14 14 14 14 14 14 14 14 14 14 14 14 14 16 18 20 22 26 30 35 41 46 52 59 65 71 77 82 86 89 91 94 95 96 97 98 100 102 105 109 112 115 118 121 124 125 124 123 122 120 118 116 115 114 113 112 110 108 106 104 102 100 96 91 86 81 76 72 67 62 58 54 50 46 42 38 35 33 31 29 28 26 26 26 26 26 26 26 26 26 26 27 28 30 33 37 41 46 50 52 52 51 48 44 42 41 39 38 38 39 40 41 42 42 43 44 45 46 47 48 48 48 48 48 48 48 48 48 48 48 48 48 48 48 49 50 50 50 50 50 49 49 49 49 50 51 52 53 52 47 
38 53 56 55 53 50 48 44 39 34 31 28 27 26 25 24 23 22 21 20 19 19 18 18 18 18 18 18 17 17 18 20 22 24 25 25 24 22 19 17 15 15 15 15 15 15 15 14 14 14 14 14 14 14 14 14 14 14 14 14 14 14 14 14 14 14 14 14 14 14 14 14 14 14 14 14 14 14 14 14 14 14 14 14 14 14 14 14 14 14 14 14 14 14 14 14 14 14 14 14 14 14 14 14 14 14 14 14 14 14 14 14 14 14 14 14 14 14 14 14 14 14 14 14 14 14 14 14 14 14 14 14 14 14 14 14 14 14 14 14 14 14 14 14 14 14 14 14 15 17 19 21 24 28 32 37 43 49 55 62 69 75 80 84 87 90 92 95 96 97 98 99 101 103 106 110 113 116 119 122 124 125 124 123 122 120 118 116 115 114 113 112 110 108 106 104 102 100 96 91 86 81 76 71 66 62 58 54 50 46 42 38 35 33 31 29 27 26 25 25 25 25 25 25 25 26 26 27 28 30 33 37 41 46 49 51 51 49 46 43 41 40 39 38 38 39 40 41 42 42 43 44 45 46 47 48 49 49 49 49 49 49 49 49 49 49 49 49 49 49 50 51 51 51 51 51 50 50 51 51 52 54 56 59 60 53 
49 57 57 55 52 49 45 41 37 33 30 28 26 25 24 23 22 21 20 19 19 18 18 18 18 18 18 17 16 16 17 18 19 20 21 21 20 19 17 16 15 15 15 15 15 15 15 14 14 14 14 14 14 14 14 14 14 14 14 14 14 14 14 14 14 14 14 14 14 14 14 14 14 14 14 14 14 14 14 14 14 14 14 14 14 14 14 14 14 14 14 14 14 14 14 14 14 14 14 14 14 14 14 14 14 14 14 14 14 14 14 14 14 14 14 14 14 14 14 14 14 14 14 14 14 14 14 14 14 14 14 14 14 14 14 14 14 14 14 14 14 14 14 14 14 14 14 14 15 17 19 22 26 30 34 40 46 52 58 65 72 78 82 86 88 91 93 95 97 98 99 100 102 104 107 111 114 117 120 123 125 125 124 123 122 120 118 116 115 114 113 112 110 108 106 104 102 99 95 91 86 81 76 71 67 63 59 54 50 46 42 38 35 33 31 29 27 25 25 25 25 25 25 25 25 26 26 27 28 30 33 36 40 45 48 49 49 47 44 42 40 40 39 38 38 39 40 41 42 43 44 45 46 47 48 49 50 50 50 50 50 50 50 50 50 50 50 50 50 50 51 52 52 52 52 52 51 51 52 53 55 58 62 67 76 99 
92 71 62 56 51 47 43 39 36 32 29 27 26 25 24 23 22 21 20 19 18 18 18 18 18 18 17 16 15 15 16 17 17 18 18 18 17 16 15 15 15 15 15 15 15 15 15 14 14 14 14 14 14 14 14 14 14 14 14 14 14 14 14 14 14 14 14 14 14 14 14 14 14 14 14 14 14 14 14 14 14 14 14 14 14 14 14 14 14 14 14 14 14 14 14 14 14 14 14 14 14 14 14 14 14 14 14 14 14 14 14 14 14 14 14 14 14 14 14 14 14 14 14 14 14 14 14 14 14 14 14 14 14 14 14 14 14 14 14 14 14 14 14 14 14 14 14 14 16 18 20 24 28 32 37 43 49 55 61 67 74 80 84 87 89 92 94 96 98 99 100 101 103 105 108 112 115 118 121 124 125 124 123 122 121 120 118 116 115 114 113 112 110 108 106 104 102 99 95 91 86 81 76 72 68 64 59 55 51 46 42 38 35 33 31 29 26 25 25 25 25 25 25 25 25 26 26 27 28 30 33 36 39 43 46 47 46 44 42 41 40 39 39 38 38 39 40 41 42 43 45 46 48 49 50 51 51 51 51 51 51 51 51 51 51 51 51 51 51 51 52 53 53 53 52 52 52 52 54 56 58 62 67 72 79 88 
87 73 64 56 50 46 41 37 34 31 28 26 25 24 23 22 21 20 19 18 18 18 18 18 18 17 16 15 15 15 15 15 15 16 16 16 15 15 15 15 15 15 15 15 15 15 15 14 14 14 14 14 14 14 14 14 14 14 14 14 14 14 14 14 14 14 14 14 14 14 14 14 14 14 14 14 14 14 14 14 14 14 14 14 14 14 14 14 14 14 14 14 14 14 14 14 14 14 14 14 14 14 14 14 14 14 14 14 14 14 14 14 14 14 14 14 14 14 14 14 14 14 14 14 14 14 14 14 14 14 14 14 14 14 14 14 14 14 14 14 14 14 14 14 14 14 14 15 17 19 22 26 30 34 40 46 52 57 63 69 76 81 85 88 90 93 95 97 99 100 101 102 104 106 109 113 117 120 123 125 125 124 123 122 121 120 118 116 115 114 113 112 110 108 106 104 102 99 95 91 87 82 77 73 69 64 60 56 51 47 42 38 35 33 31 28 26 25 24 24 24 24 24 24 25 26 26 27 28 30 32 35 38 41 43 44 43 42 40 39 39 39 39 38 38 39 40 41 42 44 46 47 49 51 52 53 53 53 53 53 53 52 52 52 52 52 52 52 52 52 53 54 54 53 53 53 53 54 56 58 61 66 72 78 82 73 
78 73 64 56 49 44 39 36 33 30 27 26 25 24 23 22 21 20 19 18 18 18 18 18 17 16 15 15 15 15 15 15 15 15 15 15 15 15 15 15 15 15 15 15 15 15 15 14 14 14 14 14 14 14 14 14 14 14 14 14 14 14 14 14 14 14 14 14 14 14 14 14 14 14 14 14 14 14 14 14 14 14 14 14 14 14 14 14 14 14 14 14 14 14 14 14 14 14 14 14 14 14 14 14 14 14 14 14 14 14 14 14 14 14 14 14 14 14 14 14 14 14 14 14 14 14 14 14 14 14 14 14 14 14 14 14 14 14 14 14 14 14 14 14 14 14 14 16 18 20 24 28 32 37 43 49 54 59 65 71 77 82 85 88 91 93 95 97 99 101 102 103 105 107 110 114 118 121 124 126 126 124 123 122 121 120 118 116 115 114 113 112 110 108 106 104 102 99 95 91 87 83 78 74 70 65 61 57 52 47 43 38 35 33 30 27 25 24 24 24 24 24 24 24 25 26 26 27 28 30 31 33 36 38 40 40 40 39 38 38 38 38 38 38 38 39 40 41 42 44 46 48 51 53 55 56 56 56 55 55 54 53 53 53 53 53 53 53 53 53 54 54 54 53 53 54 54 55 57 60 64 69 77 87 101 115 
98 78 64 55 48 42 38 34 32 29 27 25 24 23 22 21 20 19 18 18 18 18 18 17 16 15 15 15 15 15 15 15 15 15 15 15 15 15 15 15 15 15 15 15 15 15 15 14 14 14 14 14 14 14 14 14 14 14 14 14 14 14 14 14 14 14 14 14 14 14 14 14 14 14 14 14 14 14 14 14 14 14 14 14 14 14 14 14 14 14 14 14 14 14 14 14 14 14 14 14 14 14 14 14 14 14 14 14 14 14 14 14 14 14 14 14 14 14 14 14 14 14 14 14 14 14 14 14 14 14 14 14 14 14 14 14 14 14 14 14 14 14 14 14 14 14 15 16 19 22 26 30 34 40 46 51 56 61 67 73 78 83 86 89 92 94 96 98 100 102 103 104 106 108 111 115 119 123 126 127 126 124 123 122 121 120 118 116 115 114 113 112 110 108 106 104 102 99 95 91 87 83 79 76 72 67 63 58 53 48 43 39 35 32 29 26 24 23 23 23 23 23 24 24 25 26 26 27 28 29 30 32 34 35 36 37 37 37 37 38 38 38 38 38 38 39 40 41 42 44 47 49 52 55 58 59 59 58 57 56 55 54 54 54 54 54 54 54 53 53 54 54 54 53 53 54 55 56 58 61 66 72 81 96 123 180 
101 76 61 52 45 40 36 33 30 28 26 25 24 23 22 21 20 19 18 18 18 18 17 16 15 15 15 15 15 15 15 15 15 15 15 15 15 15 15 15 15 15 15 15 15 15 15 14 14 14 14 14 14 14 14 14 14 14 14 14 14 14 14 14 14 14 14 14 14 14 14 14 14 14 14 14 14 14 14 14 14 14 14 14 14 14 14 14 14 14 14 14 14 14 14 14 14 14 14 14 14 14 14 14 14 14 14 14 14 14 14 14 14 14 14 14 14 14 14 14 14 14 14 14 14 14 14 14 14 14 14 14 14 14 14 14 14 14 14 14 14 14 14 14 14 14 15 17 20 23 27 32 37 43 48 53 58 63 69 74 79 83 86 89 92 95 97 99 101 103 104 105 107 109 112 116 121 125 127 127 126 124 123 122 121 120 118 116 115 114 113 111 109 107 105 103 101 98 95 91 88 84 81 78 74 70 65 60 55 49 44 40 36 32 28 25 23 22 22 22 22 23 24 24 25 26 26 27 28 29 30 31 32 33 34 35 35 36 37 38 38 38 38 38 38 39 40 41 42 44 47 50 53 57 60 62 62 60 59 57 56 55 55 55 55 55 54 54 53 53 53 53 53 53 53 54 55 56 59 62 67 73 82 95 116 148 
72 63 54 47 42 38 34 31 29 27 25 24 23 22 21 20 19 18 18 18 18 17 16 15 15 15 15 15 15 15 15 15 15 15 15 15 15 15 15 15 15 15 15 15 15 15 15 14 14 14 14 14 14 14 14 14 14 14 14 14 14 14 14 14 14 14 14 14 14 14 14 14 14 14 14 14 14 14 14 14 14 14 14 14 14 14 14 14 14 14 14 14 14 14 14 14 14 14 14 14 14 14 14 14 14 14 14 14 14 14 14 14 14 14 14 14 14 14 14 14 14 14 14 14 14 14 14 14 14 14 14 14 14 14 14 14 14 14 14 14 14 14 14 14 14 14 16 18 21 25 29 34 40 45 50 55 60 65 70 75 80 84 87 90 93 96 98 100 102 104 105 106 108 110 113 117 122 126 128 128 126 124 123 122 121 120 118 116 115 114 113 111 109 107 105 103 100 97 94 91 88 85 82 80 77 73 68 62 56 50 45 40 36 31 27 24 22 22 22 22 22 23 24 24 25 26 26 27 28 29 30 30 31 32 33 34 35 36 37 38 38 38 38 38 38 39 40 41 42 44 47 50 54 58 62 64 64 62 60 58 56 55 55 55 55 55 54 54 53 53 53 53 53 53 53 54 55 56 59 62 67 73 80 90 101 95 
44 50 47 43 39 35 32 29 27 26 25 24 23 22 21 20 19 18 18 18 17 16 15 15 15 15 15 15 15 15 15 15 15 15 15 15 15 15 15 15 15 15 15 15 15 15 15 14 14 14 14 14 14 14 14 14 14 15 15 15 15 15 15 15 15 15 15 15 15 15 14 14 14 14 14 14 14 14 14 14 14 14 14 14 14 14 14 14 14 14 14 14 14 14 14 14 14 14 14 14 14 14 14 14 14 14 14 14 14 14 14 14 14 14 14 14 14 14 14 14 14 14 14 14 14 14 14 14 14 14 14 14 14 14 14 14 14 14 14 14 14 14 14 14 14 15 17 19 23 27 31 36 42 47 52 57 62 67 72 77 82 85 88 91 94 96 98 100 102 104 106 107 109 111 114 118 123 126 128 128 126 124 123 122 121 120 118 116 115 114 112 110 108 106 104 102 100 97 94 91 89 86 84 82 79 76 71 64 58 52 46 40 35 30 26 23 22 21 21 21 22 23 24 24 25 26 26 27 28 29 29 30 31 32 33 34 35 36 37 38 38 38 38 38 38 39 40 41 42 44 47 50 54 59 63 65 65 63 61 58 56 55 55 55 55 55 54 53 53 53 53 53 53 53 54 55 56 57 59 62 66 72 79 88 104 136 
49 47 43 39 36 33 30 28 26 25 25 24 24 23 22 21 20 19 19 18 17 16 15 15 15 15 15 15 15 15 15 15 15 15 15 15 15 15 15 15 15 15 15 15 15 15 15 14 14 14 14 14 14 14 14 14 15 16 17 17 16 16 16 16 17 17 17 17 17 16 15 15 14 14 14 14 14 14 14 14 14 14 14 14 14 14 14 14 14 14 14 14 14 14 14 14 14 14 14 14 14 14 14 14 14 14 14 14 14 14 14 14 14 14 14 14 14 14 14 14 14 14 14 14 14 14 14 14 14 14 14 14 14 14 14 14 14 14 14 14 14 14 14 14 14 16 18 21 24 29 33 38 44 49 54 59 64 69 74 79 83 86 89 92 95 97 99 101 103 105 107 108 110 112 115 119 124 127 128 127 126 124 123 122 121 120 118 116 115 113 111 109 107 105 103 101 99 97 94 91 89 87 85 83 81 78 73 66 59 53 46 40 34 29 25 23 21 21 21 21 22 23 24 24 25 26 26 27 28 28 29 30 31 32 33 34 35 36 37 38 38 38 38 38 38 39 40 41 42 44 47 50 54 59 63 65 65 63 60 57 55 54 54 54 54 54 53 52 52 52 53 53 53 53 54 55 56 57 59 62 65 70 76 83 93 105 
68 46 39 35 33 30 28 27 26 25 25 25 25 24 24 23 22 21 21 20 19 18 16 15 15 15 15 15 15 15 15 15 15 15 15 15 15 15 15 15 15 15 15 15 15 15 15 14 14 14 14 14 14 14 14 14 15 16 17 17 17 17 17 17 18 19 19 19 19 18 17 16 15 14 14 14 14 14 14 14 14 14 14 14 14 14 14 14 14 14 14 14 14 14 14 14 14 14 14 14 14 14 14 14 14 14 14 14 14 14 14 14 14 14 14 14 14 14 14 14 14 14 14 14 14 14 14 14 14 14 14 14 14 14 14 14 14 14 14 14 14 14 14 14 15 17 19 22 26 31 35 41 46 51 56 61 66 71 76 81 84 87 90 93 96 98 100 102 104 106 108 109 111 113 116 120 124 127 128 127 126 124 123 122 121 120 118 116 114 112 110 108 106 104 102 100 98 96 94 91 89 87 86 84 82 79 74 67 60 53 46 39 33 28 25 22 21 21 21 21 22 23 24 24 25 26 26 27 28 28 29 30 31 32 33 34 35 36 37 38 38 38 38 38 38 39 40 41 42 44 47 50 54 58 62 64 64 62 59 56 54 53 53 53 53 53 52 51 51 52 53 53 53 53 54 55 56 57 59 62 64 68 73 78 83 84 
20 31 32 31 29 28 27 26 25 25 25 25 25 25 25 25 25 24 23 22 21 19 17 16 15 15 15 15 15 15 15 15 15 15 15 15 15 15 15 15 15 15 15 15 15 15 15 14 14 14 14 14 14 14 14 14 14 15 16 17 17 17 18 18 19 20 21 22 22 21 19 17 16 15 14 14 14 14 14 14 14 14 14 14 14 14 14 14 14 14 14 14 14 14 14 14 14 14 14 14 14 14 14 14 14 14 14 14 14 14 14 14 14 14 14 14 14 14 14 14 14 14 14 14 14 14 14 14 14 14 14 14 14 14 14 14 14 14 14 14 14 14 14 14 15 17 20 24 28 33 38 43 49 54 59 64 69 74 79 83 86 89 92 94 96 98 100 102 104 106 108 110 112 114 117 121 124 127 127 126 125 124 123 122 121 120 118 116 114 112 110 108 106 104 102 100 98 96 94 91 89 87 86 85 83 80 75 68 61 53 45 38 32 28 24 22 21 21 21 21 22 23 24 24 25 26 26 27 28 29 30 30 31 32 33 34 35 36 37 38 38 38 38 38 38 39 40 41 42 44 47 50 53 57 60 62 62 61 58 55 53 52 52 52 52 52 51 50 50 51 52 53 53 53 54 55 56 57 59 61 64 66 69 73 78 84 
22 26 28 28 27 26 25 25 25 25 25 26 26 27 27 27 28 27 26 25 23 21 18 16 15 15 15 15 15 15 15 15 15 15 15 15 15 15 15 15 15 15 15 15 15 15 15 14 14 14 14 14 14 14 14 14 14 14 15 16 16 17 18 19 20 22 24 25 26 25 22 19 17 15 14 14 14 14 14 14 14 14 14 14 14 14 14 14 14 14 14 14 14 14 14 14 14 14 14 14 14 14 14 14 14 14 14 14 14 14 14 14 14 14 14 14 14 14 14 14 14 14 14 14 14 14 14 14 14 14 14 14 14 14 14 14 14 14 14 14 14 14 14 14 16 18 21 25 30 35 40 45 51 57 63 68 73 78 82 85 88 91 93 95 97 99 101 103 105 107 109 111 113 115 118 122 125 127 127 126 125 124 123 122 121 119 117 115 113 111 109 107 105 103 101 99 97 95 93 91 89 87 86 85 83 80 75 68 60 52 44 37 32 27 24 22 21 21 21 21 21 22 23 24 25 26 26 27 28 29 30 31 32 33 33 34 35 36 37 38 38 38 38 38 38 39 40 41 42 44 47 49 52 55 58 60 60 59 56 54 52 51 51 51 51 51 50 49 49 50 51 52 53 53 54 55 56 58 59 61 63 65 67 69 72 89 
23 25 26 26 25 25 25 25 25 25 25 26 27 28 29 30 31 31 30 28 25 22 19 17 15 15 15 15 15 15 15 15 15 15 15 15 15 15 15 15 15 15 15 15 15 15 15 14 14 14 14 14 14 14 14 14 14 14 14 15 15 16 18 19 21 24 26 28 29 28 25 21 18 16 14 14 14 14 14 14 14 14 14 14 14 14 14 14 14 14 14 14 14 14 14 14 14 14 14 14 14 14 14 14 14 14 14 14 14 14 14 14 14 14 14 14 14 14 14 14 14 14 14 14 14 14 14 14 14 14 14 14 14 14 14 14 14 14 14 14 14 14 14 15 17 19 22 26 31 36 42 48 54 60 66 72 77 82 85 87 90 92 94 96 98 100 102 104 106 108 110 112 114 116 119 122 125 127 127 126 125 124 123 122 121 119 117 115 113 111 109 107 105 103 101 99 97 95 93 91 89 87 86 85 83 79 74 67 59 51 43 37 31 27 24 22 21 21 21 21 21 22 23 24 25 26 26 28 29 30 31 32 33 34 34 35 35 36 37 38 38 38 38 38 38 39 40 41 42 44 46 48 51 53 56 58 58 56 55 53 51 50 50 50 50 50 49 48 48 49 50 51 52 53 54 55 57 58 60 62 63 65 66 64 55 22 
29 27 26 25 25 25 25 25 25 25 26 27 28 30 32 33 34 34 33 31 28 24 20 17 15 15 15 15 15 15 15 15 15 15 15 15 15 15 15 15 15 15 15 15 15 15 15 14 14 14 14 14 14 14 14 14 14 14 14 14 15 16 18 20 22 25 28 30 31 30 27 23 20 17 15 14 14 14 14 14 14 14 14 14 14 14 14 14 14 14 14 14 14 14 14 14 14 14 14 14 14 14 14 14 14 14 14 14 14 14 14 14 14 14 14 14 14 14 14 14 14 14 14 14 14 14 14 14 14 14 14 14 14 14 14 14 14 14 14 14 14 14 14 15 17 20 23 27 33 38 44 51 57 63 69 75 81 85 87 89 91 93 95 97 99 101 103 105 107 109 111 113 115 117 120 123 125 127 126 125 124 123 122 121 120 118 117 115 113 111 109 107 105 103 101 99 97 95 93 91 89 87 86 85 82 78 72 65 58 50 43 36 31 27 24 22 21 21 21 21 21 22 23 24 25 26 27 28 30 32 33 34 35 36 36 36 36 36 37 38 38 38 38 38 38 39 40 41 42 44 46 47 49 51 53 55 55 54 53 52 50 49 49 49 49 49 48 47 47 48 50 51 52 54 55 56 58 60 61 63 65 66 67 66 63 62 
34 30 27 25 25 25 25 25 25 25 26 27 29 31 34 35 35 35 34 32 29 25 21 18 16 15 15 15 15 15 15 15 15 15 15 15 15 15 15 15 15 15 15 15 15 15 15 14 14 14 14 14 14 14 14 14 14 14 14 14 15 16 17 19 22 25 29 31 32 31 28 24 21 18 15 14 14 14 14 14 14 14 14 14 14 14 14 14 14 14 14 14 14 14 14 14 14 14 14 14 14 14 14 14 14 14 14 14 14 14 14 14 14 14 14 14 14 14 14 14 14 14 14 14 14 14 14 14 14 14 14 14 14 14 14 14 14 14 14 14 14 14 14 15 18 21 24 29 34 40 46 53 60 67 73 79 84 87 89 91 93 95 97 98 100 102 104 106 108 110 112 114 116 118 121 124 126 127 126 125 124 123 122 121 120 118 116 114 112 111 109 107 105 103 101 99 97 95 93 91 89 87 85 84 81 76 70 63 56 49 42 36 31 27 24 22 21 21 21 21 21 22 23 24 25 26 27 29 31 33 35 37 38 39 39 38 37 37 37 38 38 38 38 38 38 39 40 41 42 44 45 46 48 50 51 52 52 52 51 50 49 48 48 48 48 48 47 46 46 47 49 51 52 54 56 57 59 61 63 65 67 69 71 72 72 70 
47 32 27 25 25 25 25 25 25 25 26 28 30 32 35 36 36 35 34 31 28 24 20 17 15 15 15 15 15 15 15 15 15 15 15 15 15 15 15 15 15 15 15 15 15 15 15 14 14 14 14 14 14 14 14 14 14 14 14 14 14 15 16 18 21 25 29 31 32 31 29 25 22 18 15 14 14 14 14 14 14 14 14 14 14 14 14 14 14 14 14 14 14 14 14 14 14 14 14 14 14 14 14 14 14 14 14 14 14 14 14 14 14 14 14 14 14 14 14 14 14 14 14 14 14 14 14 14 14 14 14 14 14 14 14 14 14 14 14 14 14 14 14 16 19 22 26 30 35 41 48 55 63 70 76 82 86 88 90 92 94 96 98 99 101 103 105 107 109 111 113 115 117 119 122 124 126 127 126 125 124 123 122 121 120 118 116 114 112 110 108 106 104 102 100 98 96 94 92 90 88 86 84 82 79 73 67 61 54 48 41 35 30 26 23 21 21 21 21 21 21 22 23 24 25 26 27 29 32 34 37 39 40 41 41 40 39 38 37 38 38 38 38 38 38 39 40 41 42 43 44 45 47 48 49 50 50 50 50 49 48 47 47 47 47 47 46 45 45 46 48 50 52 54 56 58 60 62 64 67 69 72 76 80 84 89 
20 25 25 25 25 25 25 25 25 25 26 28 30 33 35 36 36 35 33 30 26 23 19 16 15 15 15 15 15 15 15 15 15 15 15 15 15 15 15 15 15 15 15 15 15 15 15 14 14 14 14 14 14 14 14 14 14 14 14 14 14 15 16 18 21 24 28 30 31 31 29 26 22 18 15 14 14 14 14 14 14 14 14 14 14 14 14 14 14 14 14 14 14 14 14 14 14 14 14 14 14 14 14 14 14 14 14 14 14 14 14 14 14 14 14 14 14 14 14 14 14 14 14 14 14 14 14 14 14 14 14 14 14 14 14 14 14 14 14 14 14 14 15 17 20 23 27 31 36 42 49 57 65 73 79 84 87 89 91 93 95 97 99 100 102 104 106 108 110 112 114 116 118 120 123 125 127 127 126 125 124 123 122 121 119 117 115 113 111 109 107 105 103 101 99 97 95 93 91 89 87 85 83 81 77 71 65 59 53 47 40 34 29 25 22 21 21 21 21 21 21 22 23 24 25 26 27 29 32 35 38 40 42 43 43 42 40 38 37 38 38 38 38 38 38 39 40 40 41 42 43 44 45 46 47 48 48 48 48 48 47 46 46 46 46 46 45 44 44 45 47 50 52 55 57 60 62 64 66 69 72 76 81 88 98 112 
19 24 25 25 25 25 25 24 24 25 26 28 30 33 35 35 35 33 31 28 24 21 18 16 15 15 15 15 15 15 15 15 15 15 15 15 15 15 15 15 15 15 15 15 15 15 15 14 14 14 14 14 14 14 14 14 14 14 14 14 14 14 15 17 20 23 26 29 30 30 29 26 22 18 15 14 14 14 14 14 14 14 14 14 14 14 14 14 14 14 14 14 14 14 14 14 14 14 14 14 14 14 14 14 14 14 14 14 14 14 14 14 14 14 14 14 14 14 14 14 14 14 14 14 14 14 14 14 14 14 14 14 14 14 14 14 14 14 14 14 14 14 15 17 20 24 28 32 37 44 51 59 67 75 81 86 89 90 92 94 96 98 100 101 103 105 107 109 111 113 115 117 119 121 124 126 128 128 126 125 124 123 122 121 119 117 115 113 111 109 107 105 103 101 99 97 95 93 91 89 87 85 83 80 75 69 63 57 51 45 39 33 28 24 22 21 21 21 21 21 21 22 23 24 25 26 27 29 32 36 39 41 43 44 44 43 41 39 38 38 38 38 38 38 38 39 39 39 40 41 42 43 44 45 46 46 46 46 46 46 46 45 45 45 45 45 44 43 43 44 46 49 52 55 58 62 65 67 68 71 74 79 85 93 107 139 
28 27 26 25 25 25 24 24 24 24 25 27 30 32 34 34 33 31 28 25 22 20 17 15 15 15 15 15 15 15 15 15 15 15 15 15 15 15 15 15 15 15 15 15 15 15 15 14 14 14 14 14 14 14 14 14 14 14 14 14 14 14 15 17 19 22 24 27 29 29 28 26 22 18 15 14 14 14 14 14 14 14 14 14 14 14 14 14 14 14 14 14 14 14 14 14 14 14 14 14 14 14 14 14 14 14 14 14 14 14 14 14 14 14 14 14 14 14 14 14 14 14 14 14 14 14 14 14 14 14 14 14 14 14 14 14 14 14 14 14 14 14 15 18 21 25 29 33 39 46 53 60 68 76 82 87 90 91 93 96 98 100 101 102 104 106 108 110 112 114 116 118 120 122 124 126 128 128 126 125 124 123 122 121 119 117 115 113 111 109 107 105 103 101 99 97 95 93 91 89 87 85 82 79 73 67 61 55 49 43 38 32 27 24 22 21 21 21 21 21 21 22 23 24 25 26 27 29 32 36 39 41 43 44 44 43 41 39 38 38 38 38 38 38 38 38 38 38 39 41 42 43 44 45 45 45 45 45 45 45 45 44 44 44 44 44 43 42 42 43 45 48 51 55 59 63 66 68 70 72 76 81 87 94 100 103 
41 32 28 26 25 24 24 23 23 23 24 26 29 31 32 31 30 28 25 23 20 18 16 15 15 15 15 15 15 15 15 15 15 15 15 15 15 15 15 15 15 15 15 15 15 15 15 14 14 14 14 14 14 14 14 14 14 14 14 14 14 14 14 16 18 20 22 25 27 28 27 25 22 18 15 14 14 14 14 14 14 14 14 14 14 14 14 14 14 14 14 14 14 14 14 14 14 14 14 14 14 14 14 14 14 14 14 14 14 14 14 14 14 14 14 14 14 14 14 14 14 14 14 14 14 14 14 14 14 14 14 14 14 14 14 14 14 14 14 14 14 14 16 18 22 26 30 35 41 47 54 61 69 77 83 87 90 92 94 97 100 101 102 103 105 107 109 111 113 115 117 119 121 123 125 127 128 127 126 125 124 123 122 121 119 117 115 113 111 109 107 105 103 101 99 97 95 93 91 89 87 85 82 78 72 66 60 54 48 42 37 31 27 24 22 21 21 21 21 21 21 22 23 24 25 26 27 29 31 34 37 40 42 43 43 42 40 38 37 37 37 37 37 37 37 37 37 37 38 40 42 43 44 44 44 43 43 43 43 43 43 43 43 43 43 43 42 41 41 42 44 47 50 54 59 63 66 68 70 72 76 82 89 96 98 70 
43 34 29 26 25 24 23 23 22 22 23 25 27 28 29 28 26 24 22 20 18 17 15 15 15 15 15 15 15 15 15 15 15 15 15 15 15 15 15 15 15 15 15 15 15 15 15 14 14 14 14 14 14 14 14 14 14 14 14 14 14 14 14 15 17 19 21 23 25 26 26 25 22 18 15 14 14 14 14 14 14 14 14 14 14 14 14 14 14 14 14 14 14 14 14 14 14 14 14 14 14 14 14 14 14 14 14 14 14 14 14 14 14 14 14 14 14 14 14 14 14 14 14 14 14 14 14 14 14 14 14 14 14 14 14 14 14 14 14 14 14 15 16 19 23 27 31 36 42 49 55 62 70 77 83 87 90 93 95 98 101 102 103 104 106 108 110 112 114 116 118 120 122 124 126 127 128 127 126 125 124 123 122 121 119 117 115 113 111 109 107 105 103 101 99 97 95 93 91 89 87 85 82 78 72 66 60 54 48 41 36 31 27 24 22 21 21 21 21 21 21 22 23 24 25 26 27 28 30 32 35 37 39 40 40 40 38 37 36 36 36 36 36 36 36 36 36 36 37 39 41 42 43 43 42 41 41 41 41 41 41 41 41 41 41 41 41 40 41 42 44 46 49 53 58 62 65 67 69 71 75 82 91 104 127 175 
32 32 29 26 25 24 23 22 21 21 22 24 25 25 25 24 23 21 20 18 17 16 15 15 15 15 15 15 15 15 15 15 15 15 15 15 15 15 15 15 15 15 15 15 15 15 15 14 14 14 14 14 14 14 14 14 14 14 14 14 14 14 14 14 16 18 20 21 23 24 25 24 22 18 15 14 14 14 14 14 14 14 14 14 14 14 14 14 14 14 14 14 14 14 14 14 14 14 14 14 14 14 14 14 14 14 14 14 14 14 14 14 14 14 14 14 14 14 14 14 14 14 14 14 14 14 14 14 14 14 14 14 14 14 14 14 14 14 14 14 14 15 17 20 24 28 32 37 43 50 56 63 70 77 83 87 90 93 96 99 101 102 104 105 107 109 111 113 115 117 119 121 123 125 127 128 128 127 126 125 124 123 122 120 118 116 114 112 110 108 106 104 102 100 98 96 94 92 90 88 86 84 82 78 72 66 60 54 47 40 35 30 26 23 21 21 21 21 21 21 21 22 23 24 25 26 27 28 29 31 33 34 36 37 37 37 36 36 35 35 35 35 35 35 35 35 35 35 36 38 40 41 41 41 40 39 39 39 39 39 39 39 39 39 39 39 39 40 40 41 43 45 48 52 56 60 63 65 67 70 74 80 89 104 131 189 
44 34 29 26 25 24 23 22 21 21 21 22 22 22 21 20 19 18 17 16 15 15 15 15 15 15 15 15 15 15 15 15 15 15 15 15 15 15 15 15 15 15 15 15 15 15 15 14 14 14 14 14 14 14 14 14 14 14 14 14 14 14 14 14 15 17 18 19 21 22 23 23 21 17 15 14 14 14 14 14 14 14 14 14 14 14 14 14 14 14 14 14 14 14 14 14 14 14 14 14 14 14 14 14 14 14 14 14 14 14 14 14 14 14 14 14 14 14 14 14 14 14 14 14 14 14 14 14 14 14 14 14 14 14 14 14 14 14 14 14 14 15 17 20 24 28 33 38 45 51 57 64 71 77 83 87 91 94 97 100 102 103 105 106 108 110 112 114 116 118 120 122 124 126 128 129 128 127 126 125 124 123 122 120 118 116 114 112 110 108 106 104 102 100 98 96 94 92 90 88 86 84 82 78 72 66 60 53 46 39 34 29 25 22 21 21 21 21 21 21 21 22 23 24 25 26 27 28 29 30 31 32 33 34 34 35 35 35 34 34 34 34 34 34 34 34 34 34 35 37 38 39 39 39 38 37 37 37 37 37 37 38 38 38 38 38 39 39 40 41 42 44 47 51 54 58 61 63 65 67 71 76 83 92 104 120 
34 31 28 26 25 24 23 22 21 20 20 20 19 19 18 17 16 16 15 15 15 15 15 15 15 15 15 15 15 15 15 15 15 15 15 15 15 15 15 15 15 15 15 15 15 15 15 14 14 14 14 14 14 14 14 14 14 14 14 14 14 14 14 14 14 15 16 17 19 20 21 21 19 16 14 14 14 14 14 14 14 14 14 14 14 14 14 14 14 14 14 14 14 14 14 14 14 14 14 14 14 14 14 14 14 14 14 14 14 14 14 14 14 14 14 14 14 14 14 14 14 14 14 14 14 14 14 14 14 14 14 14 14 14 14 14 14 14 14 14 14 15 17 21 25 29 34 40 46 52 58 65 71 77 83 88 91 94 97 100 102 103 105 107 109 111 113 115 117 119 121 123 125 127 129 129 128 127 126 125 124 123 122 120 118 116 114 112 110 108 106 104 102 100 98 96 94 92 90 88 86 84 82 78 72 66 59 52 45 38 33 28 24 22 21 21 21 21 21 21 21 22 23 24 25 26 27 28 29 29 30 31 32 32 33 33 33 33 33 33 33 33 33 33 33 33 33 33 34 35 36 36 36 36 36 35 35 35 36 36 36 37 37 37 37 38 38 39 39 40 41 43 46 49 52 55 58 60 61 63 67 71 75 78 73 40 
32 30 28 26 25 24 23 22 21 20 19 18 17 17 16 15 15 15 15 15 15 15 15 15 15 15 15 15 15 15 15 15 15 15 15 15 15 15 15 15 15 15 15 15 15 15 15 14 14 14 14 14 14 14 14 14 14 14 14 14 14 14 14 14 14 14 15 16 17 18 19 19 17 15 14 14 14 14 14 14 14 14 14 14 14 14 14 14 14 14 14 14 14 14 14 14 14 14 14 14 14 14 14 14 14 14 14 14 14 14 14 14 14 14 14 14 14 14 14 14 14 14 14 14 14 14 14 14 14 14 14 14 14 14 14 14 14 14 14 14 14 15 18 22 26 30 35 41 47 53 59 65 71 77 83 88 91 94 97 100 102 104 106 108 110 112 114 116 118 120 122 124 126 128 129 128 127 126 125 124 123 122 121 119 117 115 113 111 109 107 105 103 101 99 97 95 93 92 90 88 87 85 83 79 73 66 59 52 44 37 32 27 24 22 21 21 21 21 21 21 21 22 23 24 25 26 27 28 28 29 29 30 31 31 32 32 32 32 32 32 32 32 32 32 32 32 32 32 33 33 33 33 33 33 33 33 33 34 35 35 35 36 36 36 37 37 38 38 38 39 40 42 45 47 50 52 54 56 58 60 62 65 69 72 72 64 
33 31 29 27 25 24 23 22 21 20 19 18 17 16 15 15 15 15 15 15 15 15 15 15 15 15 15 15 15 15 15 15 15 15 15 15 15 15 15 15 15 15 15 15 15 15 15 14 14 14 14 14 14 14 14 14 14 14 14 14 14 14 14 14 14 14 14 15 15 16 16 16 15 14 14 14 14 14 14 14 14 14 14 14 14 14 14 14 14 14 14 14 14 14 14 14 14 14 14 14 14 14 14 14 14 14 14 14 14 14 14 14 14 14 14 14 14 14 14 14 14 14 14 14 14 14 14 14 14 14 14 14 14 14 14 14 14 14 14 14 14 16 19 22 27 31 36 42 48 54 60 66 72 78 84 88 91 94 97 100 102 104 106 108 110 112 114 116 118 120 122 124 126 128 128 127 126 125 124 123 122 121 120 119 117 115 113 111 109 107 105 103 101 99 97 94 92 91 90 88 87 86 84 80 74 67 59 51 43 36 31 27 24 22 21 21 21 21 21 21 21 22 23 24 25 26 27 27 28 28 29 30 30 31 31 31 31 31 31 31 31 31 31 31 31 31 31 31 31 31 31 31 31 31 31 31 32 33 34 34 34 35 35 36 36 37 37 37 37 38 39 41 43 45 47 49 51 53 54 56 58 61 64 69 80 121 
29 32 31 29 27 25 23 22 21 20 19 18 17 16 15 15 15 15 15 15 15 15 15 15 15 15 15 15 15 15 15 15 15 15 15 15 15 15 15 15 15 15 15 15 15 15 15 14 14 14 14 14 14 14 14 14 14 14 14 14 14 14 14 14 14 14 14 14 14 14 14 14 14 14 14 14 14 14 14 14 14 14 14 14 14 14 14 14 14 14 14 14 14 14 14 14 14 14 14 14 14 14 14 14 14 14 14 14 14 14 14 14 14 14 14 14 14 14 14 14 14 14 14 14 14 14 14 14 14 14 14 14 14 14 14 14 14 14 14 14 15 17 19 23 27 32 37 43 50 56 62 68 74 80 86 89 92 95 98 100 102 104 106 108 110 112 114 116 118 120 122 124 126 128 128 127 126 125 124 123 122 121 120 118 116 114 112 110 108 106 104 102 100 98 96 93 91 90 89 88 87 87 85 81 75 67 59 50 42 36 31 27 24 22 21 21 21 21 21 21 21 22 23 24 25 26 26 27 28 28 29 29 30 30 30 30 30 30 30 30 30 30 30 30 30 30 30 30 30 30 30 30 30 30 30 30 31 32 33 33 33 34 35 35 36 36 36 36 37 37 38 40 41 43 45 46 48 49 51 53 55 57 59 60 59 48 
38 37 35 32 29 26 23 22 21 20 19 18 17 16 15 15 15 15 15 15 15 15 15 15 15 15 15 15 15 15 15 15 15 15 15 15 15 15 15 15 15 15 15 15 15 15 15 14 14 14 14 14 14 14 14 14 14 14 14 14 14 14 14 14 14 14 14 14 14 14 14 14 14 14 14 14 14 14 14 14 14 14 14 14 14 14 14 14 14 14 14 14 14 14 14 14 14 14 14 14 14 14 14 14 14 14 14 14 14 14 14 14 14 14 14 14 14 14 14 14 14 14 14 14 14 14 14 14 14 14 14 14 14 14 14 14 14 14 14 14 15 17 20 23 28 33 38 44 51 58 64 70 76 82 88 91 94 97 100 101 103 105 107 109 111 113 115 117 119 121 123 125 127 128 127 126 125 124 123 122 121 120 119 118 116 114 112 110 108 106 104 102 100 98 95 92 90 89 89 88 87 87 85 81 75 67 58 49 42 36 31 27 24 22 21 21 21 21 21 21 21 22 23 24 25 25 26 27 27 28 28 29 29 30 30 30 30 30 30 30 30 30 30 30 30 30 30 30 30 30 30 30 30 30 30 30 31 32 33 33 33 34 34 35 35 35 35 36 36 37 38 39 40 41 42 43 45 46 48 50 52 54 55 54 50 37 
42 44 40 35 31 27 24 22 21 20 19 18 17 16 15 15 15 15 15 15 15 15 15 15 15 15 15 15 15 15 15 15 15 15 15 15 15 15 15 15 15 15 15 15 15 15 15 14 14 14 14 14 14 14 14 14 14 14 14 14 14 14 14 14 14 14 14 14 14 14 14 14 14 14 14 14 14 14 14 14 14 14 14 14 14 14 14 14 14 14 14 14 14 14 14 14 14 14 14 14 14 14 14 14 14 14 14 14 14 14 14 14 14 14 14 14 14 14 14 14 14 14 14 14 14 14 14 14 14 14 14 14 14 14 14 14 14 14 14 14 15 17 20 24 29 34 39 46 53 60 66 72 78 84 90 93 96 99 101 102 104 106 108 110 112 114 116 118 120 122 124 126 127 128 127 126 125 124 123 122 121 120 119 118 116 114 112 110 108 106 104 102 100 97 94 91 89 88 88 88 87 86 84 80 74 66 57 49 42 36 31 27 24 22 21 21 21 21 21 21 21 22 23 24 24 25 26 26 27 27 28 28 29 30 30 30 30 30 30 30 30 31 31 31 31 31 31 31 31 31 31 31 31 31 31 31 32 33 33 33 33 34 34 34 34 34 35 35 36 37 37 38 39 40 41 42 43 44 46 48 50 52 53 53 50 42 
71 57 46 39 33 28 25 22 21 20 19 18 17 16 15 15 15 15 15 15 15 15 15 15 15 15 15 15 15 15 15 15 15 15 15 15 15 15 15 15 15 15 15 15 15 15 15 15 15 15 14 14 14 14 14 14 14 14 14 14 14 14 14 14 14 14 14 14 14 14 14 14 14 14 14 14 14 14 14 14 14 14 14 14 14 14 14 14 14 14 14 14 14 14 14 14 14 14 14 14 14 14 14 14 14 14 14 14 14 14 14 14 14 14 14 14 14 14 14 14 14 14 14 14 14 14 14 14 14 14 14 14 14 14 14 14 14 14 14 14 15 17 20 24 29 35 41 47 54 61 68 74 81 87 92 95 98 101 102 103 105 107 109 111 113 115 117 119 121 123 125 126 127 127 126 125 124 123 122 121 120 119 118 117 115 113 111 109 107 105 103 101 99 96 93 90 88 87 87 87 86 85 82 78 72 64 55 47 41 35 30 26 23 21 21 21 21 21 21 21 21 22 23 23 24 25 25 26 26 27 27 28 29 29 30 30 30 30 30 30 30 31 32 32 32 32 33 33 33 33 33 33 33 33 33 33 34 34 34 34 34 34 34 34 34 34 34 35 36 36 37 38 38 39 40 41 42 43 45 47 49 51 53 55 57 63 
106 67 51 42 35 30 26 23 21 20 19 18 17 16 15 15 15 15 15 15 15 15 15 15 15 15 15 15 15 15 15 15 15 15 15 15 15 15 15 15 15 15 15 15 16 16 17 17 17 16 15 14 14 14 14 14 14 14 14 14 14 14 14 14 14 14 14 14 14 14 14 14 14 14 14 14 14 14 14 14 14 14 14 14 14 14 14 14 14 14 14 14 14 14 14 14 14 14 14 14 14 14 14 14 14 14 14 14 14 14 14 14 14 14 14 14 14 14 14 14 14 14 14 14 14 14 14 14 14 14 14 14 14 14 14 14 14 14 14 14 15 17 20 24 30 36 42 48 55 62 69 76 83 89 94 97 100 102 103 104 106 108 110 112 114 116 118 120 122 124 125 126 127 127 126 125 124 123 122 121 120 119 118 116 114 112 110 108 106 104 102 100 98 95 92 89 87 86 86 86 85 83 79 75 69 61 53 46 39 34 29 25 22 21 21 21 21 21 21 21 21 22 22 23 24 24 25 25 26 26 27 28 28 29 29 30 30 30 30 30 30 31 32 33 33 33 34 34 34 34 34 34 35 35 35 35 36 36 36 36 36 35 35 34 34 34 34 35 35 36 37 37 38 39 39 40 41 42 44 46 48 50 53 57 62 70 
52 56 50 43 37 31 27 23 21 20 19 18 17 16 15 15 15 15 15 15 15 15 15 15 15 15 15 15 15 15 15 15 15 15 15 15 15 15 15 15 15 15 16 17 18 18 19 19 19 18 17 16 15 14 14 14 14 14 14 14 14 14 14 14 14 14 14 14 14 14 14 14 14 14 14 14 14 14 14 14 14 14 14 14 14 14 14 14 14 14 14 14 14 14 14 14 14 14 14 14 14 14 14 14 14 14 14 14 14 14 14 14 14 14 14 14 14 14 14 14 14 14 14 14 14 14 14 14 14 14 14 14 14 14 14 14 14 14 14 14 15 17 20 25 30 36 43 50 57 64 71 78 85 91 95 98 101 103 104 105 107 109 111 113 115 117 119 121 123 124 125 126 127 127 126 125 124 123 122 121 120 119 118 116 114 112 110 108 106 104 102 100 97 94 91 88 86 85 85 84 83 80 76 71 65 57 50 44 38 32 28 24 22 21 21 21 21 21 21 21 21 21 22 23 23 24 24 25 25 26 27 27 28 28 29 30 30 30 30 30 30 31 32 33 34 34 35 35 35 35 35 35 36 37 37 37 38 39 39 39 38 36 35 35 35 35 35 35 35 36 36 37 38 38 39 39 40 41 43 45 47 49 53 58 64 71 
64 56 50 44 38 32 28 24 21 20 19 18 17 16 15 15 15 15 15 15 15 15 15 15 15 15 15 15 15 15 15 15 15 15 15 15 15 15 15 15 15 15 17 18 19 21 22 22 22 21 19 17 16 15 14 14 14 14 14 14 14 14 14 14 14 14 14 14 14 14 14 14 14 14 14 14 14 14 14 14 14 14 14 14 14 14 14 14 14 14 14 14 14 14 14 14 14 14 14 14 14 14 14 14 14 14 14 14 14 14 14 14 14 14 14 14 14 14 14 14 14 14 14 14 14 14 14 14 14 14 14 14 14 14 14 14 14 14 14 14 15 17 21 25 30 36 43 51 58 66 74 81 87 92 96 99 102 103 104 105 107 109 111 113 115 117 119 121 123 124 125 126 127 126 125 124 123 122 121 120 119 118 117 115 113 111 109 107 105 103 101 99 96 93 90 87 85 84 84 83 81 77 72 66 60 53 47 41 36 31 27 24 22 21 21 21 21 21 21 21 21 21 22 22 23 23 24 24 25 26 26 27 27 28 29 30 30 30 30 30 30 31 32 33 35 36 36 36 36 36 36 36 37 38 39 39 40 41 42 41 39 37 36 35 35 35 35 35 35 35 36 37 37 38 38 39 39 40 42 44 46 49 53 58 65 75 
46 54 51 45 39 33 29 25 22 20 19 18 17 16 15 15 15 15 15 15 15 15 15 15 15 15 15 15 15 15 15 15 15 15 15 15 15 15 15 15 15 16 18 19 21 23 25 26 26 24 22 19 17 15 14 14 14 14 14 14 14 14 14 14 14 14 14 14 14 14 14 14 14 14 14 14 14 14 14 14 14 14 14 14 14 14 14 14 14 14 14 14 14 14 14 14 14 14 14 14 14 14 14 14 14 14 14 14 14 14 14 14 14 14 14 14 14 14 14 14 14 14 14 14 14 14 14 14 14 14 14 14 14 14 14 14 14 14 14 14 15 18 21 25 30 36 43 51 59 68 76 83 89 93 97 100 103 104 104 106 108 110 112 114 116 118 120 122 123 124 125 126 126 125 124 123 122 121 120 119 118 117 116 115 113 111 109 107 105 103 101 98 95 92 89 86 84 83 82 81 78 73 67 61 56 50 44 38 33 29 26 23 21 21 21 21 21 21 21 21 21 21 21 22 22 23 23 24 25 25 26 26 27 28 29 30 30 30 30 30 30 31 33 34 36 37 38 38 38 38 37 37 38 39 40 41 43 44 44 42 40 38 36 35 35 35 35 35 35 35 36 36 37 37 38 38 39 39 41 43 45 48 52 58 64 62 
89 65 55 47 40 34 29 25 22 20 19 18 17 16 15 15 15 15 15 15 15 15 15 15 15 15 15 15 15 15 15 15 15 15 15 15 15 15 15 15 15 16 18 21 23 26 29 30 30 28 25 21 18 16 14 14 14 14 14 14 14 14 14 14 14 14 14 14 14 14 14 14 14 14 14 14 14 14 14 14 14 14 14 14 14 14 14 14 14 14 14 14 14 14 14 14 14 14 14 14 14 14 14 14 14 14 14 14 14 14 14 14 14 14 14 14 14 14 14 14 14 14 14 14 14 14 14 14 14 14 14 14 14 14 14 14 14 14 14 14 16 18 21 25 30 36 43 51 60 69 78 85 90 94 97 100 103 104 105 107 109 111 113 115 117 119 121 122 123 124 125 126 126 125 124 123 122 121 120 119 118 117 116 115 113 111 109 107 105 103 100 97 94 91 88 85 83 81 80 78 74 69 63 58 52 46 41 36 31 27 24 22 21 21 21 21 21 21 21 21 21 21 21 21 22 22 23 24 24 25 25 26 27 28 29 30 30 30 30 30 30 31 33 35 37 39 40 40 40 39 38 38 39 40 42 43 45 46 45 43 40 38 36 36 36 36 36 36 36 36 36 36 36 37 37 38 38 39 40 41 43 46 51 58 71 99 
64 64 57 49 41 35 29 25 22 20 19 18 17 16 15 15 15 15 15 15 15 15 15 15 15 15 15 15 15 15 15 15 15 15 15 15 15 15 15 15 15 17 19 22 25 29 32 33 33 31 27 23 19 17 15 14 14 14 14 14 14 14 14 14 14 14 14 14 14 14 14 14 14 14 14 14 14 14 14 14 14 14 14 14 14 14 14 14 14 14 14 14 14 14 14 14 14 14 14 14 14 14 14 14 14 14 14 14 14 14 14 14 14 14 14 14 14 14 14 14 14 14 14 14 14 14 14 14 14 14 14 14 14 14 14 14 14 14 14 15 16 18 21 25 30 36 43 51 60 70 79 86 91 95 98 101 103 104 105 107 109 111 113 115 117 119 121 122 123 124 125 126 126 125 124 123 122 121 120 119 118 117 116 115 113 111 109 107 105 102 99 96 93 90 87 84 82 79 77 74 69 64 59 54 49 43 38 34 29 26 23 21 20 20 20 20 20 20 20 20 20 20 20 21 21 22 23 23 24 24 25 26 27 28 29 30 30 30 30 30 30 31 33 36 38 40 42 42 41 40 39 39 40 41 43 45 46 47 46 43 40 38 37 36 36 36 36 36 36 36 36 36 36 36 37 37 38 38 39 40 42 44 48 54 64 83 
82 71 60 51 42 35 29 25 22 20 19 18 17 16 15 15 15 15 15 15 15 15 15 15 15 15 15 15 15 15 15 15 15 15 15 15 15 15 15 15 16 17 20 23 27 31 34 35 35 33 29 24 20 17 15 14 14 14 14 14 14 14 14 14 14 14 14 14 14 14 14 14 14 14 14 14 14 14 14 14 14 14 14 14 14 14 14 14 14 14 14 14 14 14 14 14 14 14 14 14 14 14 14 14 14 14 14 14 14 14 14 14 14 14 14 14 14 14 14 14 14 14 14 14 14 14 14 14 14 14 14 14 14 14 14 14 14 14 14 15 16 18 21 25 30 36 43 51 60 70 79 86 92 96 99 102 104 104 106 108 110 112 114 116 118 120 122 123 124 125 126 127 126 125 124 123 122 121 120 119 118 117 116 115 113 111 109 107 104 101 98 95 92 89 86 83 80 77 74 70 65 60 55 50 45 40 35 31 27 25 22 20 20 20 20 20 20 20 20 20 20 20 20 20 21 22 22 23 23 24 25 26 27 28 29 30 30 30 30 30 30 31 33 36 39 42 44 44 43 41 40 40 41 42 44 46 47 47 46 43 40 38 37 36 36 36 36 36 36 36 36 36 36 36 36 37 37 38 39 40 41 42 44 47 48 43 
121 81 63 52 43 36 30 25 22 20 19 18 17 16 15 15 15 15 15 15 15 15 15 15 15 15 15 15 15 15 15 15 15 15 15 15 15 15 15 15 16 18 20 23 27 32 35 36 36 34 30 25 21 17 15 14 14 14 14 14 14 14 14 14 14 14 14 14 14 14 14 14 14 14 14 14 14 14 14 14 14 14 14 14 14 14 14 14 14 14 14 14 14 14 14 14 14 14 14 14 14 14 14 14 14 14 14 14 14 14 14 14 14 14 14 14 14 14 14 14 14 14 14 14 14 14 14 14 14 14 14 14 14 14 14 14 14 14 14 15 16 18 21 25 30 36 43 51 60 70 79 86 92 96 99 102 104 105 106 108 110 112 114 116 118 120 122 123 124 125 126 127 126 125 124 123 122 121 120 119 118 117 116 115 113 111 109 106 103 100 97 94 91 88 85 82 79 76 72 67 62 57 52 47 42 37 33 29 26 23 21 20 20 20 20 20 20 20 20 20 20 20 20 20 21 21 22 22 23 24 25 26 27 28 29 30 30 30 30 30 30 31 33 36 39 43 45 45 44 42 41 41 42 43 45 46 47 46 45 43 40 38 37 37 37 37 37 37 37 37 37 37 37 37 37 37 37 38 39 39 40 41 42 42 40 35 
83 71 60 51 43 36 30 25 22 20 19 18 17 16 15 15 15 15 15 15 15 15 15 15 15 15 15 15 15 15 15 15 15 15 15 15 15 15 15 15 16 18 20 23 27 32 35 37 37 35 31 26 21 17 15 14 14 14 14 14 14 14 14 14 14 14 14 14 14 14 14 14 14 14 14 14 14 14 14 14 14 14 14 14 14 14 14 14 14 14 14 14 14 14 14 14 14 14 14 14 14 14 14 14 14 14 14 14 14 14 14 14 14 14 14 14 14 14 14 14 14 14 14 14 14 14 14 14 14 14 14 14 14 14 14 14 14 14 14 15 16 18 21 25 30 36 43 51 60 69 78 86 92 97 100 103 104 105 107 109 111 113 115 117 119 121 122 123 124 126 127 127 126 125 124 123 122 121 120 119 118 117 116 115 113 111 109 106 102 99 96 93 90 87 84 81 78 75 70 65 60 55 50 45 40 35 31 27 24 22 20 20 20 20 20 20 20 20 20 20 20 20 20 20 20 21 21 22 23 24 25 26 27 28 29 30 30 30 30 30 30 31 33 36 39 43 45 45 44 42 41 41 42 43 45 46 46 45 44 42 40 38 37 37 37 37 37 37 37 37 37 37 37 37 37 37 37 38 38 39 40 41 41 40 35 20 
46 60 56 49 42 35 30 25 22 20 19 18 17 16 15 15 15 15 15 15 15 15 15 15 15 15 15 15 15 15 15 15 15 15 15 15 15 15 15 15 16 17 19 22 26 31 35 37 37 35 31 26 21 17 15 14 14 14 14 14 14 14 14 14 14 14 14 14 14 14 14 14 14 14 14 14 14 14 14 14 14 14 14 14 14 14 14 14 14 14 14 14 14 14 14 14 14 14 14 14 14 14 14 14 14 14 14 14 14 14 14 14 14 14 14 14 14 14 14 14 14 14 14 14 14 14 14 14 14 14 14 14 14 14 14 14 14 14 14 15 16 18 21 25 30 36 43 51 60 69 77 85 92 97 100 103 104 106 108 110 112 114 116 118 120 121 122 123 124 126 127 126 125 124 123 122 121 120 119 118 117 116 115 114 113 111 109 105 101 98 96 93 90 87 84 81 78 74 69 63 58 53 48 43 38 33 29 25 23 21 20 20 20 20 20 20 20 20 20 20 20 20 20 20 20 20 21 22 23 24 25 26 27 28 29 30 30 30 30 30 30 31 33 36 39 42 44 44 43 42 41 41 42 43 44 45 45 44 43 41 40 38 37 37 37 37 37 37 37 37 37 37 37 37 37 37 38 38 39 40 41 41 42 42 42 41 
79 68 57 48 41 34 29 25 22 20 19 18 17 16 15 15 15 15 15 15 15 15 15 15 15 15 15 15 15 15 15 15 15 15 15 15 15 15 15 15 15 16 18 21 25 30 34 36 36 34 30 25 21 17 15 14 14 14 14 14 14 14 14 14 14 14 14 14 14 14 14 14 14 14 14 14 14 14 14 14 14 14 14 14 14 14 14 14 14 14 14 14 14 14 14 14 14 14 14 14 14 14 14 14 14 14 14 14 14 14 14 14 14 14 14 14 14 14 14 14 14 14 14 14 14 14 14 14 14 14 14 14 14 14 14 14 14 14 14 15 16 18 21 25 30 36 43 51 60 68 76 84 91 97 101 103 104 106 108 110 112 114 116 118 120 121 122 123 124 126 126 125 124 123 122 121 120 119 118 117 116 115 114 113 112 110 108 104 100 97 95 93 90 87 84 81 78 73 67 61 56 51 46 41 36 31 27 24 22 20 20 20 20 20 20 20 20 20 20 20 20 20 20 20 20 20 21 22 23 24 25 26 27 28 29 30 30 30 30 30 30 31 33 35 38 40 42 42 42 41 41 41 42 42 43 43 43 42 41 40 39 38 37 37 37 37 37 37 37 37 37 37 37 37 38 39 39 40 40 41 42 43 44 46 50 62 
112 75 57 47 39 33 28 24 22 20 19 18 17 16 15 15 15 15 15 15 15 15 15 15 15 15 15 15 15 15 15 15 15 15 15 15 15 15 15 15 15 16 18 21 24 28 32 34 34 32 29 24 20 17 15 14 14 14 14 14 14 14 14 14 14 14 14 14 14 14 14 14 14 14 14 14 14 14 14 14 14 14 14 14 14 14 14 14 14 14 14 14 14 14 14 14 14 14 14 14 14 14 14 14 14 14 14 14 14 14 14 14 14 14 14 14 14 14 14 14 14 14 14 14 14 14 14 14 14 14 14 14 14 14 14 14 14 14 14 15 16 18 21 25 30 36 43 51 59 67 75 83 91 97 101 103 105 107 109 111 113 115 117 119 120 121 122 123 124 125 125 124 123 122 121 120 119 118 117 116 115 114 113 112 111 110 107 103 99 96 94 92 90 87 84 81 78 72 66 60 54 49 44 39 34 29 25 23 21 20 20 20 20 20 20 20 20 20 20 20 20 20 20 20 20 20 21 22 23 24 25 26 27 28 29 30 30 30 30 30 30 31 33 34 36 38 39 40 40 40 40 40 41 41 41 41 41 41 41 40 39 38 38 38 38 38 38 38 38 38 38 38 38 39 40 41 41 41 41 42 43 44 46 49 51 46 
66 62 52 43 37 32 27 24 21 20 19 18 17 16 15 15 15 15 15 15 15 15 15 15 15 15 15 15 15 15 15 15 15 15 15 15 15 15 15 15 15 16 17 20 23 26 30 32 32 30 27 23 19 16 15 14 14 14 14 14 14 14 14 14 14 14 14 14 14 14 14 14 14 14 14 14 14 14 14 14 14 14 14 14 14 14 14 14 14 14 14 14 14 14 14 14 14 14 14 14 14 14 14 14 14 14 14 14 14 14 14 14 14 14 14 14 14 14 14 14 14 14 14 14 14 14 14 14 14 14 14 14 14 14 14 14 14 14 14 15 16 18 21 25 30 36 43 51 59 67 75 83 90 97 101 103 105 107 109 111 113 115 117 119 120 121 122 123 124 124 124 124 123 122 121 120 119 118 117 116 115 114 113 112 111 109 106 102 98 95 93 91 89 87 85 82 78 72 65 59 52 47 42 37 32 27 24 22 20 20 20 20 20 20 20 20 20 20 20 20 20 20 20 20 20 20 21 22 23 24 25 26 27 28 29 30 30 30 30 30 30 31 32 34 35 36 37 38 39 39 39 39 40 40 40 40 40 40 40 40 39 38 38 38 38 38 38 38 38 38 39 39 40 41 42 42 42 42 42 43 44 46 49 53 60 79 
78 55 45 39 34 30 26 23 21 20 19 18 17 16 15 15 15 15 15 15 15 15 15 15 15 15 15 15 15 15 15 15 15 15 15 15 15 15 15 15 15 15 16 19 21 24 27 29 29 27 24 21 18 16 14 14 14 14 14 14 14 14 14 14 14 14 14 14 14 14 14 14 14 14 14 14 14 14 14 14 14 14 14 14 14 14 14 14 14 14 14 14 14 14 14 14 14 14 14 14 14 14 14 14 14 14 14 14 14 14 14 14 14 14 14 14 14 14 14 14 14 14 14 14 14 14 14 14 14 14 14 14 14 14 14 14 14 14 14 15 17 19 22 26 31 37 44 52 60 68 76 83 90 97 101 103 105 107 109 111 113 115 117 119 120 121 122 123 124 124 124 124 123 122 121 120 119 118 117 116 115 114 113 112 111 109 105 101 97 94 92 91 89 87 85 82 77 71 64 57 50 45 40 35 30 26 23 21 20 20 20 20 20 20 20 20 20 20 20 20 20 20 20 20 20 21 22 22 23 24 25 26 27 28 29 29 30 30 30 30 30 31 32 33 34 35 36 37 38 38 38 39 40 40 40 40 40 40 40 40 39 38 38 38 38 38 39 39 39 40 41 41 42 43 43 43 43 43 43 44 46 48 51 55 58 47 
12 35 36 34 31 28 25 22 21 20 19 18 17 16 15 15 15 15 15 15 15 15 15 15 15 15 15 15 15 15 15 15 15 15 15 15 15 15 15 15 15 15 16 18 19 21 23 25 25 24 21 19 17 15 14 14 14 14 14 14 14 14 14 14 14 14 14 14 14 14 14 14 14 14 14 14 14 14 14 14 14 14 14 14 14 14 14 14 14 14 14 14 14 14 14 14 14 14 14 14 14 14 14 14 14 14 14 14 14 14 14 14 14 14 14 14 14 14 14 14 14 14 14 14 14 14 14 14 14 14 14 14 14 14 14 14 14 14 15 16 18 20 22 26 31 37 45 53 61 69 76 83 90 97 101 103 105 107 109 111 113 115 117 119 120 121 122 123 124 124 124 124 123 122 121 120 119 118 117 116 115 114 113 112 111 108 104 100 96 93 91 90 89 87 84 81 76 70 63 55 48 43 38 33 28 25 22 20 20 20 20 20 20 20 20 20 20 20 20 20 20 20 20 21 22 23 23 23 24 25 26 26 27 28 28 29 29 30 30 30 30 31 32 33 34 35 35 36 37 37 38 39 39 39 39 39 39 39 39 39 39 39 39 39 39 39 40 40 40 41 42 43 44 44 44 44 44 44 44 45 47 50 54 60 70 92 
47 36 33 31 29 26 24 22 21 20 19 18 17 16 15 15 15 15 15 15 15 15 15 15 15 15 15 15 15 15 15 15 15 15 15 15 15 15 15 15 15 15 15 16 17 19 20 21 21 20 18 17 16 14 14 14 14 14 14 14 14 14 14 14 14 14 14 14 14 14 14 14 14 14 14 14 14 14 14 14 14 14 14 14 14 14 14 14 14 14 14 14 14 14 14 14 14 14 14 14 14 14 14 14 14 14 14 14 14 14 14 14 14 14 14 14 14 14 14 14 14 14 14 14 14 14 14 14 14 14 14 14 14 14 14 14 14 15 16 17 19 21 23 26 31 38 46 54 62 69 76 83 90 97 101 103 105 107 109 111 113 115 117 119 121 122 123 124 124 124 124 124 123 122 121 120 119 118 117 116 115 114 113 112 110 107 102 98 95 92 90 89 88 86 83 79 74 68 61 53 46 41 36 31 27 24 21 20 20 20 20 20 20 20 20 20 20 20 20 20 20 21 21 22 23 24 25 25 26 27 27 27 28 28 28 29 29 29 30 30 30 31 32 33 34 34 35 35 36 37 38 38 38 38 38 38 38 38 38 38 39 39 40 40 40 40 41 41 41 42 43 44 45 45 45 45 45 45 46 47 48 51 55 61 70 75 
30 30 30 29 27 25 23 22 21 20 19 18 17 16 15 15 15 15 15 15 15 15 15 15 15 15 15 15 15 15 15 15 15 15 15 15 15 15 15 15 15 15 15 15 16 17 17 18 18 17 16 15 15 14 14 14 14 14 14 14 14 14 14 14 14 14 14 14 14 14 14 14 14 14 14 14 14 14 14 14 14 14 14 14 14 14 14 14 14 14 14 14 14 14 14 14 14 14 14 14 14 14 14 14 14 14 14 14 14 14 14 14 14 14 14 14 14 14 14 14 14 14 14 14 14 14 14 14 14 14 14 14 14 14 14 14 15 16 17 18 20 22 24 27 32 39 47 55 62 69 76 83 90 97 101 103 105 107 109 111 113 115 117 119 121 123 124 125 125 125 124 123 122 121 120 119 118 117 116 115 114 113 112 111 109 105 100 96 93 91 89 88 86 84 80 76 71 65 58 50 44 38 33 29 25 23 21 20 20 20 20 20 20 20 20 20 20 20 20 20 20 21 23 24 25 27 28 28 29 30 30 30 30 29 29 29 29 29 29 30 30 31 32 33 33 34 34 35 36 37 37 37 37 37 37 37 38 38 38 38 39 40 41 41 41 41 42 42 42 43 44 45 46 46 46 46 46 47 47 47 48 51 55 62 75 110 
13 25 28 28 26 25 23 22 21 20 19 18 17 16 15 15 15 15 15 15 15 15 15 15 15 15 15 15 15 15 15 15 15 15 15 15 15 15 15 15 15 15 15 15 15 15 15 16 16 15 15 15 14 14 14 14 14 14 14 14 14 14 14 14 14 14 14 14 14 14 14 14 14 14 14 14 14 14 14 14 14 14 14 14 14 14 14 14 14 14 14 14 14 14 14 14 14 14 14 14 14 14 14 14 14 14 14 14 14 14 14 14 14 14 14 14 14 14 14 14 14 14 14 14 14 14 14 14 14 14 14 14 14 14 14 15 16 17 18 19 21 23 25 28 33 40 48 56 63 70 77 84 91 97 101 103 105 107 109 111 113 115 117 119 121 123 125 126 126 125 124 123 122 121 120 119 118 117 116 115 114 113 112 111 108 103 98 94 91 89 87 86 84 81 77 72 67 61 54 47 41 36 31 27 24 22 20 20 20 20 20 20 20 20 20 20 20 20 20 20 21 22 24 26 28 30 31 32 33 33 33 32 32 31 30 30 29 29 29 30 30 31 32 32 33 33 34 35 36 36 36 36 36 37 37 37 38 38 38 38 39 40 41 42 42 42 43 43 44 45 46 47 48 48 48 48 48 48 48 48 48 50 53 57 61 52 
34 31 30 28 26 25 23 22 21 20 19 18 17 16 15 15 15 15 15 15 15 15 15 15 15 15 15 15 15 15 15 15 15 15 15 15 15 15 15 15 15 15 15 15 15 15 15 15 15 15 15 15 14 14 14 14 14 14 14 14 14 14 14 14 14 14 14 14 14 14 14 14 14 14 14 14 14 14 14 14 14 14 14 14 14 14 14 14 14 14 14 14 14 14 14 14 14 14 14 14 14 14 14 14 14 14 14 14 14 14 14 14 14 14 14 14 14 14 14 14 14 14 14 14 14 14 14 14 14 14 14 14 14 14 15 16 17 18 19 20 22 24 26 30 36 43 50 58 65 72 79 86 92 98 101 103 105 107 109 111 113 115 117 119 121 123 125 127 127 126 125 124 122 121 120 119 118 117 116 115 114 113 112 110 106 101 96 92 89 86 84 82 80 77 73 68 62 56 50 44 38 33 29 25 23 21 20 20 20 20 20 20 20 20 20 20 20 20 20 21 22 24 26 28 30 33 35 36 37 37 37 36 34 33 31 30 29 29 29 29 30 31 31 32 32 33 34 35 35 35 36 36 36 37 37 37 38 38 38 38 39 40 41 42 43 43 44 44 45 46 47 48 49 50 50 50 49 49 48 48 48 49 51 54 60 75 
44 38 33 30 27 25 23 22 21 20 19 18 17 16 15 15 15 15 15 15 15 15 15 15 15 15 15 15 15 15 15 15 15 15 15 15 15 15 15 15 15 15 15 15 15 15 15 15 15 15 15 15 14 14 14 14 14 14 14 14 14 14 14 14 14 14 14 14 14 14 14 14 14 14 14 14 14 14 14 14 14 14 14 14 14 14 14 14 14 14 14 14 14 14 14 14 14 14 14 14 14 14 14 14 14 14 14 14 14 14 14 14 14 14 14 14 14 14 14 14 14 14 14 14 14 14 14 14 14 14 14 14 14 15 16 17 18 19 20 21 23 25 28 33 39 46 53 61 68 75 82 88 94 99 102 104 106 108 110 112 114 116 118 120 122 124 126 128 128 127 126 124 122 121 120 119 118 117 116 115 114 113 112 109 104 99 94 90 87 83 80 78 75 72 68 63 57 51 46 40 35 31 27 24 22 20 20 20 20 20 20 20 20 20 20 20 20 20 20 22 23 25 28 31 33 36 38 40 41 41 41 39 37 35 33 31 30 29 29 29 30 30 31 31 32 33 34 35 35 35 36 36 36 37 37 37 38 38 38 39 40 41 42 43 44 44 45 45 46 47 49 50 51 52 52 51 50 49 48 47 47 47 48 49 50 53 
52 44 37 32 29 26 24 23 21 20 19 18 17 16 15 15 15 15 15 15 15 15 15 15 15 15 15 15 15 15 15 15 15 15 15 15 15 15 15 15 15 15 15 15 15 15 15 15 15 15 15 15 14 14 14 14 14 14 14 14 14 14 14 14 14 14 14 14 14 14 14 14 14 14 14 14 14 14 14 14 14 14 14 14 14 14 14 14 14 14 14 14 14 14 14 14 14 14 14 14 14 14 14 14 14 14 14 14 14 14 14 14 14 14 14 14 14 14 14 14 14 14 14 14 14 14 14 14 14 14 14 14 15 16 17 18 19 20 21 22 24 27 31 37 44 51 58 65 72 78 84 90 96 100 103 105 107 109 111 113 115 117 119 122 124 126 128 129 129 128 126 124 122 121 120 119 118 117 116 115 114 113 111 107 102 97 92 88 84 80 76 73 70 66 62 57 52 47 42 37 32 28 25 22 21 20 20 20 20 20 20 20 20 20 20 20 20 20 21 22 24 27 30 33 36 39 42 44 45 45 44 42 39 36 34 31 30 29 29 29 29 30 30 31 32 33 34 35 35 35 36 36 36 37 37 37 38 38 38 39 40 41 42 43 44 45 46 46 47 48 50 52 53 53 53 52 50 48 47 46 45 45 45 44 39 24 
75 50 39 33 30 27 25 23 22 21 20 19 18 17 16 15 15 15 15 15 15 15 15 15 15 15 15 15 15 15 15 15 15 15 15 15 15 15 15 15 15 15 15 15 15 15 15 15 15 15 15 15 14 14 14 14 14 14 14 14 14 14 14 14 14 14 14 14 14 14 14 14 14 14 14 14 14 14 14 14 14 14 14 14 14 14 14 14 14 14 14 14 14 14 14 14 14 14 14 14 14 14 14 14 14 14 14 14 14 14 14 14 14 14 14 14 14 14 14 14 14 14 14 14 14 14 14 14 14 14 14 15 16 17 18 19 20 21 22 24 26 30 36 42 49 56 62 69 75 81 87 93 98 101 104 106 108 110 112 114 116 118 120 123 126 128 130 131 130 128 126 124 122 121 120 119 118 117 116 115 114 113 110 106 101 95 90 86 81 77 72 68 65 61 56 52 47 42 38 33 29 26 23 21 20 20 20 20 20 20 20 20 20 20 20 20 20 20 21 23 25 28 32 35 39 42 45 46 47 47 46 44 41 37 34 32 30 29 29 29 29 29 30 31 32 33 34 35 35 35 36 36 36 37 37 37 38 38 38 39 40 41 42 43 44 45 46 47 48 49 51 53 54 54 53 51 49 47 46 45 44 44 44 42 38 32 
50 43 38 34 31 28 26 24 23 22 21 20 19 18 17 16 15 15 15 15 15 15 15 15 16 16 16 15 15 15 15 15 15 15 15 15 15 15 15 15 15 15 15 15 15 15 15 15 15 15 15 15 14 14 14 14 14 14 14 14 14 14 14 14 14 14 14 14 14 14 14 14 14 14 14 14 14 14 14 14 14 14 14 14 14 14 14 14 14 14 14 14 14 14 14 14 14 14 14 14 14 14 14 14 14 14 14 14 14 14 14 14 14 14 14 14 14 14 14 14 14 14 14 14 14 14 14 14 14 14 15 16 17 18 19 20 21 22 24 27 30 35 41 47 54 60 66 72 78 84 90 96 100 103 105 107 109 111 113 115 117 119 121 124 127 129 131 132 131 129 126 124 122 121 121 120 119 118 117 116 115 113 109 104 99 93 88 83 78 73 68 64 60 56 52 47 43 38 34 30 26 24 22 20 20 20 20 20 20 20 20 20 20 20 20 20 20 20 21 23 26 29 33 37 41 44 47 48 48 48 46 44 41 37 34 32 30 29 29 29 29 29 30 31 32 33 34 35 35 35 36 36 36 37 37 37 38 38 38 39 40 41 42 43 44 45 46 48 49 50 52 53 54 53 52 50 48 46 45 44 44 44 44 44 42 30 
35 37 36 34 32 29 27 25 24 23 22 21 20 19 18 17 16 15 15 15 15 15 15 16 17 17 17 16 16 15 15 15 15 15 15 15 15 15 15 15 15 15 15 15 15 15 15 15 15 15 15 15 14 14 14 14 14 14 14 14 14 14 14 14 14 14 14 14 14 14 14 14 14 14 14 14 14 14 14 14 14 14 14 14 14 14 14 14 14 14 14 14 14 14 14 14 14 14 14 14 14 14 14 14 14 14 14 14 14 14 14 14 14 14 14 14 14 14 14 14 14 14 14 14 14 14 14 14 14 15 16 17 18 19 20 21 23 25 28 32 36 41 47 53 59 65 71 77 83 89 94 99 102 104 106 108 110 112 114 116 118 120 122 125 128 130 132 133 132 129 126 124 122 121 121 120 119 118 117 116 115 112 108 103 97 91 86 80 75 70 65 60 56 52 48 43 39 34 30 27 24 22 21 20 20 20 20 20 20 20 20 20 20 20 20 20 20 20 21 23 26 30 34 39 43 46 48 49 49 48 46 43 40 37 34 32 30 30 30 30 30 30 30 31 32 33 34 35 35 35 36 36 36 37 37 37 38 38 39 40 41 42 43 44 45 46 47 49 50 51 52 53 53 52 51 49 47 45 44 43 43 44 45 49 56 74 
30 36 36 35 33 30 28 26 25 24 23 22 21 20 19 18 17 16 15 15 15 15 15 16 18 19 19 18 18 17 16 15 15 15 15 15 15 15 15 15 15 15 15 15 15 15 15 15 15 15 15 15 14 14 14 14 14 14 14 14 14 14 14 14 14 14 14 14 14 14 14 14 14 14 14 14 14 14 14 14 14 14 14 14 14 14 14 14 14 14 14 14 14 14 14 14 14 14 14 14 14 14 14 14 14 14 14 14 14 14 14 14 14 14 14 14 14 14 14 14 14 14 14 14 14 14 14 14 15 16 17 18 19 21 22 24 26 29 33 37 42 47 53 59 64 70 76 82 88 93 98 102 104 105 107 109 111 113 115 117 119 121 123 126 129 131 133 133 132 129 126 124 122 121 121 120 119 118 117 116 115 112 107 101 95 89 83 78 72 67 61 56 52 48 44 39 35 31 27 24 22 21 20 20 20 20 20 20 20 20 20 20 20 20 20 20 20 20 21 23 26 30 35 40 43 46 48 48 48 47 44 42 39 37 34 32 31 30 30 30 30 30 30 31 32 33 34 35 35 35 36 36 36 37 37 37 38 38 39 40 41 42 44 45 46 47 48 49 50 51 52 52 51 50 49 48 46 44 43 42 42 43 46 51 61 86 
39 41 39 36 34 32 30 28 26 25 24 23 22 21 20 19 18 17 16 15 15 15 15 16 18 20 21 21 20 19 18 17 16 15 15 15 15 15 15 15 15 15 15 15 15 15 15 15 15 15 15 15 14 14 14 14 14 14 14 14 14 14 14 14 14 14 14 14 14 14 14 14 14 14 14 14 14 14 14 14 14 14 14 14 14 14 14 14 14 14 14 14 14 14 14 14 14 14 14 14 14 14 14 14 14 14 14 14 14 14 14 14 14 14 14 14 14 14 14 14 14 14 14 14 14 14 14 15 16 17 18 20 22 24 26 28 31 35 39 44 49 54 59 64 69 75 81 87 92 97 101 104 105 106 107 109 112 114 116 118 120 122 124 127 130 132 133 133 131 129 126 124 122 121 121 121 120 119 118 117 115 111 106 100 94 87 81 75 69 63 58 52 48 44 40 35 31 28 25 22 21 20 20 20 20 20 20 20 20 20 20 20 20 20 20 20 20 20 21 23 26 30 35 40 43 45 47 47 46 45 42 40 38 36 34 32 31 30 30 30 30 30 30 31 32 33 34 35 35 35 36 36 36 37 37 37 38 38 39 41 42 43 45 46 47 48 49 50 51 52 52 51 50 49 48 47 45 43 42 42 42 43 45 48 51 43 
76 52 43 39 36 34 32 30 28 26 25 24 23 22 21 20 19 18 17 16 15 15 15 16 18 20 21 22 22 21 20 19 17 16 15 15 15 15 15 15 15 15 15 15 15 15 15 15 15 15 15 15 14 14 14 14 14 14 14 14 14 14 14 14 14 14 14 14 14 14 14 14 14 14 14 14 14 14 14 14 14 14 14 14 14 14 14 14 14 14 14 14 14 14 14 14 14 14 14 14 14 14 14 14 14 14 14 14 14 14 14 14 14 14 14 14 14 14 14 14 14 14 14 14 14 14 15 16 17 19 20 22 25 27 30 33 37 41 45 50 55 60 65 70 75 80 86 91 96 101 104 105 106 106 107 109 112 115 117 119 121 123 125 128 131 133 134 133 131 129 126 124 122 121 121 121 120 119 118 117 115 111 105 99 92 85 79 73 67 61 55 49 44 40 36 32 28 25 23 21 20 20 20 20 20 20 20 20 20 20 20 20 20 20 20 20 20 20 21 23 26 30 34 39 42 44 45 45 44 42 40 39 37 35 34 32 31 30 30 30 30 30 30 31 32 33 34 35 35 35 36 36 36 37 37 37 38 38 39 41 43 44 46 48 49 50 51 52 52 52 52 50 49 48 47 46 44 42 42 42 42 43 45 48 53 62 
49 49 45 41 38 36 34 32 30 28 26 25 24 23 22 21 20 19 18 17 16 15 15 16 18 20 21 22 23 22 21 20 19 17 16 15 15 15 15 15 15 15 15 15 15 15 15 15 15 15 15 15 14 14 14 14 14 14 14 14 14 14 14 14 14 14 14 14 14 14 14 14 14 14 14 14 14 14 14 14 14 14 14 14 14 14 14 14 14 14 14 14 14 14 14 14 14 14 14 14 14 14 14 14 14 14 14 14 14 14 14 14 14 14 14 14 14 14 14 14 14 14 14 14 14 15 16 17 19 21 23 26 29 32 35 38 42 47 51 56 61 66 71 76 80 85 90 95 100 104 106 106 106 106 107 109 112 115 118 120 122 124 126 129 132 134 134 133 131 129 126 124 122 121 121 121 120 119 118 117 114 110 104 97 90 84 77 71 65 58 52 46 41 36 32 28 25 23 21 20 20 20 20 20 20 20 20 20 20 20 20 20 20 20 20 20 20 20 21 23 26 29 33 37 40 41 42 41 40 39 38 37 36 34 33 32 31 30 30 30 30 30 30 31 32 33 34 35 35 35 36 36 36 37 37 37 38 38 39 41 43 45 47 49 51 53 54 54 54 53 51 49 48 47 46 45 43 42 42 42 42 42 44 47 52 59 
49 52 48 43 40 37 35 33 31 29 27 26 25 24 23 22 21 20 19 17 16 15 15 16 18 20 21 22 23 24 23 22 20 18 16 15 15 15 15 15 15 15 15 15 15 15 15 15 15 15 15 15 14 14 14 14 14 14 14 14 14 14 14 14 14 14 14 14 14 14 14 14 14 14 14 14 14 14 14 14 14 14 14 14 14 14 14 14 14 14 14 14 14 14 14 14 14 14 14 14 14 14 14 14 14 14 14 14 14 14 14 14 14 14 14 14 14 14 14 14 14 14 14 14 15 16 18 19 21 24 27 30 33 36 40 44 48 53 58 63 68 72 77 81 85 90 94 99 103 106 107 107 106 106 107 109 112 115 118 121 123 125 127 130 133 135 135 133 131 129 126 124 122 121 121 121 120 119 118 117 114 109 103 96 89 82 75 69 62 56 50 44 38 32 28 25 23 22 20 20 20 20 20 20 20 20 20 20 20 20 20 20 20 20 20 20 20 20 21 23 25 28 31 34 37 38 38 38 38 37 36 35 34 34 33 32 31 31 31 31 31 31 31 31 32 33 34 35 35 35 36 36 36 37 37 37 38 38 39 41 44 46 48 50 53 55 55 55 54 52 50 48 47 46 45 44 42 42 42 42 42 42 43 45 50 64 
91 63 52 46 42 39 37 35 33 31 29 27 26 25 24 23 22 21 19 18 16 15 15 16 18 20 21 22 23 25 25 24 22 19 16 15 15 15 15 15 15 15 15 15 15 15 15 15 15 15 15 15 14 14 14 14 14 14 14 14 14 14 14 14 14 14 14 14 14 14 14 14 14 14 14 14 14 14 14 14 14 14 14 14 14 14 14 14 14 14 14 14 14 14 14 14 14 14 14 14 14 14 14 14 14 14 14 14 14 14 14 14 14 14 14 14 14 14 14 14 14 14 15 15 16 18 20 22 25 28 31 34 38 41 45 50 54 59 64 69 74 78 82 86 90 94 98 101 105 107 108 107 106 106 107 109 112 115 118 121 124 126 128 131 134 135 135 133 131 129 126 124 122 121 121 121 121 120 119 117 114 109 102 95 88 81 74 67 60 54 48 42 36 30 26 24 22 21 20 20 20 20 20 20 20 20 20 20 20 20 20 20 20 20 20 20 20 20 21 23 25 27 29 31 33 34 35 35 35 35 34 34 33 33 33 32 31 31 31 31 31 31 31 31 32 33 34 35 35 35 36 36 36 37 37 37 38 38 39 42 45 47 49 51 54 56 56 55 53 51 49 47 46 45 44 43 42 42 42 42 42 42 42 42 39 26 
79 60 52 47 43 41 39 37 35 33 31 29 27 26 25 24 23 21 20 18 17 16 16 17 18 20 21 22 23 25 25 24 22 19 16 15 15 15 15 15 15 15 15 15 15 15 15 15 15 15 15 15 14 14 14 14 14 14 14 14 14 14 14 14 14 14 14 14 14 14 14 14 14 14 14 14 14 14 14 14 14 14 14 14 14 14 14 14 14 14 14 14 14 14 14 14 14 14 14 14 14 14 14 14 14 14 14 14 14 14 14 14 14 14 14 14 14 14 14 14 14 15 16 17 18 20 23 26 29 32 35 39 43 47 51 56 60 65 70 75 80 84 88 92 95 97 100 103 106 108 108 107 106 106 107 109 112 115 118 121 124 127 129 132 135 136 135 133 131 129 126 124 122 121 121 121 121 121 120 118 114 108 101 94 87 80 73 66 60 54 48 42 36 30 25 23 22 21 20 20 20 20 20 20 20 20 20 20 20 20 20 20 20 20 20 20 20 20 21 22 24 26 27 29 30 31 32 32 32 33 33 33 32 32 32 32 31 31 31 31 31 31 31 31 32 33 34 35 35 35 36 36 36 37 37 37 38 38 40 42 45 48 50 52 54 56 56 54 52 50 48 46 45 44 43 42 42 42 42 42 42 42 42 42 40 33 
30 47 49 47 45 43 41 39 37 35 33 31 29 27 26 25 23 22 20 19 17 16 16 17 18 19 20 21 23 25 25 23 21 18 16 15 15 15 15 15 15 15 15 15 15 15 15 15 15 15 15 15 14 14 14 14 14 14 14 14 14 14 14 14 14 14 14 14 14 14 14 14 14 14 14 14 14 14 14 14 14 14 14 14 14 14 14 14 14 14 14 14 14 14 14 14 14 14 14 14 14 14 14 14 14 14 14 14 14 14 14 14 14 14 14 14 14 14 14 14 15 16 17 19 21 23 26 29 32 36 40 44 48 53 57 62 66 71 76 81 86 90 93 96 98 99 101 104 107 108 108 107 106 106 107 110 113 116 119 122 125 128 130 133 135 136 135 133 131 129 126 124 122 121 121 121 121 121 120 118 114 108 101 94 87 80 73 66 60 54 48 42 36 30 25 23 22 21 20 20 20 20 20 20 20 20 20 20 20 20 20 20 20 20 20 20 20 20 21 22 23 25 26 27 28 29 30 30 31 31 31 31 31 31 31 31 31 31 31 31 31 31 31 31 32 33 34 35 35 35 36 36 36 37 37 37 38 39 40 42 45 48 50 52 54 55 55 53 51 49 47 45 44 43 42 42 42 42 42 42 42 42 43 44 46 53 
50 49 50 49 47 45 43 41 39 37 35 33 31 29 27 25 24 22 21 19 18 17 17 17 18 19 19 20 22 24 24 22 20 17 15 15 15 15 15 15 15 15 15 15 15 15 15 15 15 15 15 15 14 14 14 14 14 14 14 14 14 14 14 14 14 14 14 14 14 14 14 14 14 14 14 14 14 14 14 14 14 14 14 14 14 14 14 14 14 14 14 14 14 14 14 14 14 14 14 14 14 14 14 14 14 14 14 14 14 14 14 14 14 14 14 14 14 14 14 15 16 17 19 21 24 27 30 33 37 41 45 50 54 59 63 68 73 78 83 88 92 95 97 98 99 100 102 105 107 107 107 107 106 106 108 111 114 117 120 123 126 129 131 134 136 136 134 132 130 128 126 124 122 121 121 121 121 121 120 118 114 108 101 94 87 80 74 68 62 56 50 44 38 32 26 23 22 21 20 20 20 20 20 20 20 20 20 20 20 20 20 20 20 20 20 20 20 20 21 22 23 24 25 26 27 28 29 30 30 30 30 31 31 31 31 31 31 32 32 32 32 32 32 32 33 33 34 35 35 35 36 36 36 37 37 37 38 39 40 42 45 48 50 52 54 54 53 51 50 48 46 44 43 42 42 42 42 42 42 42 43 44 45 46 48 50 
38 50 53 52 50 48 46 43 41 39 37 35 33 30 28 26 24 23 21 20 18 17 17 17 18 18 19 20 21 22 22 20 18 16 15 15 15 15 15 15 15 15 15 15 15 15 15 15 15 15 15 15 14 14 14 14 14 14 14 14 14 14 14 14 14 14 14 14 14 14 14 14 14 14 14 14 14 14 14 14 14 14 14 14 14 14 14 14 14 14 14 14 14 14 14 14 14 14 14 14 14 14 14 14 14 14 14 14 14 14 14 14 14 14 14 14 14 14 14 15 17 19 21 24 27 31 35 38 42 46 51 56 60 65 69 74 79 84 89 93 96 98 99 99 100 101 103 105 107 107 107 107 106 107 109 111 114 117 120 123 126 129 132 134 136 136 134 132 130 128 126 124 122 121 121 121 122 122 121 118 114 108 101 95 88 81 75 69 63 57 51 45 39 33 28 24 22 21 20 20 20 20 20 20 20 20 20 20 20 20 20 20 20 20 20 20 20 20 21 22 23 24 25 26 27 28 29 30 30 30 30 31 31 31 31 32 32 33 33 33 33 33 33 33 34 34 35 35 35 35 36 36 36 37 37 37 38 39 40 42 45 48 50 52 53 52 51 49 48 47 45 43 42 42 42 42 42 42 42 43 44 46 48 50 50 42 
64 63 61 57 54 51 48 46 43 41 39 37 34 32 29 27 25 23 22 20 18 17 17 17 17 18 18 19 20 21 20 18 17 15 15 15 15 15 15 15 15 15 15 15 15 15 15 15 15 15 15 15 14 14 14 14 14 14 14 14 14 14 14 14 14 14 14 14 14 14 14 14 14 14 14 14 14 14 14 14 14 14 14 14 14 14 14 14 14 14 14 14 14 14 14 14 14 14 14 14 14 14 14 14 14 14 14 14 14 14 14 14 14 14 14 14 14 14 15 16 18 21 24 27 31 35 39 43 48 52 57 62 66 71 75 80 85 89 93 96 98 99 100 100 101 102 103 105 106 106 106 106 106 107 109 112 115 118 121 124 127 130 133 135 136 135 134 132 130 128 126 124 122 121 121 121 122 122 121 118 113 107 101 95 89 82 76 70 64 58 52 46 40 35 30 25 22 21 20 20 20 20 20 20 20 20 20 20 20 20 20 20 20 20 20 20 20 20 21 22 23 24 25 26 27 28 29 30 30 30 30 31 31 31 31 32 33 34 34 34 34 34 34 34 35 35 36 36 36 36 36 36 36 37 37 37 38 39 40 42 45 48 50 51 51 50 49 47 46 45 44 42 42 42 42 42 42 42 43 44 45 48 52 56 62 72 
88 78 70 64 59 55 51 48 46 43 41 38 36 33 31 28 26 24 22 20 19 17 17 17 17 17 18 18 19 19 18 17 16 15 15 15 15 15 15 15 15 15 15 15 15 15 15 15 15 15 15 15 14 14 14 14 14 14 14 14 14 14 14 14 14 14 14 14 14 14 14 14 14 14 14 14 14 14 14 14 14 14 14 14 14 14 14 14 14 14 14 14 14 14 14 14 14 14 14 14 14 14 14 14 14 14 14 14 14 14 14 14 14 14 14 14 14 15 16 18 20 23 27 31 35 40 44 48 53 58 63 68 72 77 81 85 90 94 97 99 100 100 101 101 102 102 103 105 106 106 106 106 106 107 109 112 115 118 121 124 127 130 133 135 136 135 134 132 130 128 126 124 122 121 121 121 122 122 120 117 112 107 101 95 89 83 77 71 65 59 53 47 42 37 32 27 23 21 20 20 20 20 20 20 20 20 20 20 20 20 20 20 20 20 20 20 20 20 21 22 23 24 25 26 27 28 29 30 30 30 30 31 31 31 32 33 34 35 35 35 35 35 35 35 36 36 37 37 36 36 36 36 36 37 37 37 38 39 40 42 45 48 50 50 49 48 47 46 45 44 43 42 42 42 42 42 42 43 44 45 47 51 56 62 70 81 
109 91 79 70 63 58 54 51 49 46 43 40 38 35 32 30 27 25 23 21 19 17 17 17 17 17 17 17 17 17 16 15 15 15 15 15 15 15 15 15 15 15 15 15 15 15 15 15 15 15 15 15 14 14 14 14 14 14 14 14 14 14 14 14 14 14 14 14 14 14 14 14 14 14 14 14 14 14 14 14 14 14 14 14 14 14 14 14 14 14 14 14 14 14 14 14 14 14 14 14 14 14 14 14 14 14 14 14 14 14 14 14 14 14 14 14 15 16 18 20 23 26 30 35 39 44 49 53 58 63 68 73 78 82 86 90 94 97 99 100 101 101 102 102 102 102 103 104 105 106 106 106 106 107 109 112 115 118 121 124 128 131 134 136 136 135 134 132 130 128 126 124 122 121 121 121 122 122 120 116 111 106 101 96 90 85 79 73 67 61 55 50 45 40 35 30 25 22 21 20 20 20 20 20 20 20 20 20 20 20 20 20 20 20 20 20 20 20 21 22 23 24 25 26 27 28 29 30 30 30 30 31 31 31 32 33 34 35 36 36 36 36 36 36 36 37 38 37 36 36 36 36 36 37 37 37 38 39 40 42 45 48 49 48 47 46 45 44 43 42 42 42 42 42 42 42 42 43 44 46 49 53 59 66 77 89 
119 99 85 74 67 61 57 54 51 49 46 43 40 37 34 31 28 26 24 22 20 18 17 17 17 17 17 16 16 15 15 15 15 15 15 15 15 15 15 15 15 15 15 15 15 15 15 15 15 15 15 15 14 14 14 14 14 14 14 14 14 14 14 14 14 14 14 14 14 14 14 14 14 14 14 14 14 14 14 14 14 14 14 14 14 14 14 14 14 14 14 14 14 14 14 14 14 14 14 14 14 14 14 14 14 14 14 14 14 14 14 14 14 14 14 14 15 17 19 22 26 29 34 39 44 49 54 59 64 69 74 79 84 88 92 95 97 99 100 101 102 102 102 102 102 102 103 104 105 106 106 106 106 107 110 113 116 119 122 125 128 131 134 136 136 134 133 132 130 128 126 124 122 121 121 121 122 121 119 115 110 106 101 96 91 86 81 76 70 64 58 53 48 43 38 33 28 24 22 21 20 20 20 20 20 20 20 20 20 20 20 20 20 20 20 20 20 20 21 22 23 24 25 26 27 28 29 30 30 30 30 31 31 32 33 34 35 36 36 36 36 36 36 36 36 37 38 37 36 36 36 36 36 37 37 37 38 39 40 42 45 47 47 46 45 44 43 42 42 41 41 41 41 41 41 42 42 44 45 47 50 55 61 70 84 105 
125 101 87 76 69 63 59 56 53 51 49 46 43 40 37 33 30 27 25 23 20 18 17 17 17 17 16 15 15 15 15 15 15 15 15 15 15 15 15 15 15 15 15 15 15 15 15 15 15 15 15 15 14 14 14 14 14 14 14 14 14 14 14 14 14 14 14 14 14 14 14 14 14 14 14 14 14 14 14 14 14 14 14 14 14 14 14 14 14 14 14 14 14 14 14 14 14 14 14 14 14 14 14 14 14 14 14 14 14 14 14 14 14 14 14 15 16 18 21 24 28 32 37 43 48 54 59 64 69 75 80 85 89 93 96 98 99 100 101 102 102 102 102 102 102 102 103 104 105 106 106 106 106 108 110 113 116 119 122 125 128 131 134 135 135 133 132 131 130 128 126 124 122 121 121 121 121 120 117 113 109 105 101 97 92 88 84 79 74 68 62 56 51 46 41 36 31 26 24 22 20 20 20 20 20 20 20 20 20 20 20 20 20 20 20 20 20 20 21 22 23 24 25 26 27 28 29 30 30 30 30 31 31 32 33 34 35 36 36 36 36 36 36 36 36 37 37 37 36 36 36 36 36 37 37 37 38 39 40 42 44 45 45 44 43 42 42 41 41 40 40 40 40 41 41 42 43 45 46 48 51 56 63 72 87 116 
100 95 86 77 70 65 61 58 55 53 52 50 47 43 39 35 32 28 26 23 21 19 17 17 17 16 15 15 15 15 15 15 15 15 15 15 15 15 15 15 15 15 15 15 15 15 15 15 15 15 15 15 14 14 14 14 14 14 14 14 14 14 14 14 14 14 14 14 14 14 14 14 14 14 14 14 14 14 14 14 14 14 14 14 14 14 14 14 14 14 14 14 14 14 14 14 14 14 14 14 14 14 14 14 14 14 14 14 14 14 14 14 14 14 14 16 17 20 23 27 31 36 41 47 53 59 64 70 75 81 86 90 94 97 99 100 100 101 102 102 102 102 102 102 102 102 103 104 105 106 106 106 107 108 111 114 117 120 122 125 128 131 133 134 133 132 131 130 129 128 126 124 122 121 121 121 121 119 116 112 109 105 101 97 93 90 86 82 78 72 66 60 54 49 44 39 34 29 26 23 21 20 20 20 20 20 20 20 20 20 20 20 20 20 20 20 20 20 21 22 23 24 25 26 27 28 29 30 30 30 30 31 31 32 33 34 35 36 36 36 36 36 36 36 36 36 36 36 36 36 36 36 36 37 37 37 38 39 40 41 43 43 43 42 42 41 41 40 40 40 40 40 40 41 41 42 44 46 47 49 52 57 63 70 78 80 
97 93 85 77 70 65 61 59 57 55 54 53 50 45 41 37 33 29 26 24 21 19 17 17 17 16 15 15 15 15 15 15 15 15 15 15 15 15 15 15 15 15 15 15 15 15 15 15 15 15 15 15 14 14 14 14 14 14 14 14 14 14 14 14 14 14 14 14 14 14 14 14 14 14 14 14 14 14 14 14 14 14 14 14 14 14 14 14 14 14 14 14 14 14 14 14 14 14 14 14 14 14 14 14 14 14 14 14 14 14 14 14 14 14 15 17 19 22 25 30 34 40 45 51 57 63 69 75 81 87 91 95 98 100 101 101 101 102 102 102 102 102 102 102 102 103 103 104 105 106 106 106 107 109 111 114 117 120 122 125 128 131 133 133 132 131 130 129 128 127 126 124 122 121 121 121 120 118 115 112 109 105 101 98 94 91 88 85 82 77 71 64 58 52 47 42 37 32 28 25 22 21 20 20 20 20 20 20 20 20 20 20 20 20 20 20 20 20 21 22 23 24 25 26 27 28 29 30 30 30 30 31 32 33 34 35 36 36 36 36 36 36 36 36 36 36 36 36 36 36 36 36 36 37 37 37 38 39 39 40 41 41 41 41 41 40 40 39 39 39 39 40 40 41 41 43 45 47 48 50 53 58 64 71 78 83 
123 96 84 76 69 65 61 59 58 57 56 55 52 47 43 39 35 31 27 24 21 19 17 17 16 16 15 15 15 15 15 15 15 15 15 15 15 15 15 15 15 15 15 15 15 15 15 15 15 15 15 15 14 14 14 14 14 14 14 14 14 14 14 14 14 14 14 14 14 14 14 14 14 14 14 14 14 14 14 14 14 14 14 14 14 14 14 14 14 14 14 14 14 14 14 14 14 14 14 14 14 14 14 14 14 14 14 14 14 14 14 14 14 15 16 18 20 24 28 33 38 43 49 55 62 68 74 81 87 92 95 98 100 101 102 102 102 102 102 102 102 102 102 102 103 103 103 104 105 106 106 106 107 109 112 115 118 120 122 125 128 131 132 132 131 130 129 128 127 126 125 124 122 121 121 120 119 117 114 111 108 105 101 98 95 93 90 88 85 81 75 68 62 56 50 45 40 35 30 27 24 22 20 20 20 20 20 20 20 20 20 20 20 20 20 20 20 20 21 22 23 24 25 26 27 28 29 30 30 30 30 31 32 33 34 35 36 37 37 37 37 37 37 37 37 37 37 37 37 37 37 37 37 37 37 37 38 38 38 39 39 39 39 39 39 39 39 39 39 39 39 40 40 41 42 44 46 48 49 51 54 59 66 75 84 82 
87 87 80 73 67 63 60 58 57 57 57 56 53 49 45 41 36 32 28 25 21 19 17 16 16 16 15 15 15 15 15 15 15 15 15 15 15 15 15 15 15 15 15 15 15 15 15 15 15 15 15 15 14 14 14 14 14 14 14 14 14 14 14 14 14 14 14 14 14 14 14 14 14 14 14 14 14 14 14 14 14 14 14 14 14 14 14 14 14 14 14 14 14 14 14 14 14 14 14 14 14 14 14 14 14 14 14 14 14 14 14 14 14 15 17 19 22 26 30 35 41 47 53 60 67 73 79 86 92 96 98 100 101 102 102 102 102 102 102 102 102 102 102 103 103 103 103 104 105 106 106 106 107 109 112 115 118 120 122 125 128 130 131 131 130 129 128 127 126 125 124 123 122 121 120 119 118 116 113 110 107 104 101 98 96 94 92 90 88 84 79 72 66 60 54 48 43 38 33 29 25 23 21 20 20 20 20 20 20 20 20 20 20 20 20 20 20 20 21 22 23 24 25 26 27 28 29 30 30 30 31 32 33 34 35 36 37 38 38 38 38 38 39 39 39 39 39 39 38 38 38 38 37 37 37 37 37 37 37 37 37 37 37 37 38 38 38 38 38 39 39 40 40 41 42 44 46 48 50 52 55 60 68 81 103 145 
107 86 75 69 64 61 59 57 56 56 57 56 54 51 47 42 37 33 29 25 21 19 17 16 16 16 15 15 15 15 15 15 15 15 15 15 15 15 15 15 15 15 15 15 15 15 15 15 15 15 15 15 14 14 14 14 14 14 14 14 14 14 14 14 14 14 14 14 14 14 14 14 14 14 14 14 14 14 14 14 14 14 14 14 14 14 14 14 14 14 14 14 14 14 14 14 14 14 14 14 14 14 14 14 14 14 14 14 14 14 14 14 14 16 18 21 24 28 33 38 44 51 57 64 71 78 84 91 96 99 100 101 102 102 102 102 102 102 102 102 102 102 103 103 103 103 103 104 105 106 106 106 107 110 113 116 118 120 122 125 128 130 130 130 129 128 127 126 125 124 123 122 121 120 119 118 116 114 112 109 107 104 101 99 97 95 93 92 90 87 82 76 70 64 58 52 46 41 35 31 27 24 22 20 20 20 20 20 20 20 20 20 20 20 20 20 20 20 21 22 23 24 25 26 27 28 29 30 30 30 31 32 33 34 35 36 37 38 39 39 39 39 40 41 41 41 41 40 39 39 39 38 37 37 37 37 37 37 37 37 37 37 37 37 37 37 37 38 38 39 39 40 40 41 42 44 46 48 51 53 56 61 68 81 106 164 
86 75 68 64 61 58 57 56 55 55 56 56 54 52 48 43 38 34 29 25 22 19 17 16 16 16 15 15 15 15 15 15 15 15 15 15 15 15 15 15 15 15 15 15 15 15 15 15 15 15 15 15 14 14 14 14 14 14 14 14 14 14 14 14 14 14 14 14 14 14 14 14 14 14 14 14 14 14 14 14 14 14 14 14 14 14 14 14 14 14 14 14 14 14 14 14 14 14 14 14 14 14 14 14 14 14 14 14 14 14 14 14 15 17 19 22 26 31 36 41 48 55 61 68 75 82 89 95 99 101 102 102 102 102 102 102 102 102 102 102 102 103 103 103 103 103 103 104 105 106 106 106 108 110 113 116 118 120 122 125 127 129 129 129 128 127 126 125 124 123 122 121 120 119 118 117 115 113 111 108 106 104 101 99 97 96 94 93 92 89 85 79 73 67 61 55 49 43 38 33 29 25 23 21 20 20 20 20 20 20 20 20 20 20 20 20 20 20 21 22 23 24 25 26 27 28 29 30 30 30 31 32 33 34 35 36 37 38 39 40 40 40 41 42 43 43 42 41 40 40 39 38 38 38 38 38 38 38 38 38 38 38 38 38 38 38 38 38 38 39 39 40 40 41 42 44 46 49 52 54 57 61 66 73 77 55 
57 60 59 58 57 55 54 54 53 53 54 55 54 52 49 44 39 34 29 25 22 19 18 16 16 16 15 15 15 15 15 15 15 15 15 15 15 15 15 15 15 15 15 15 15 15 15 15 15 15 15 15 14 14 14 14 14 14 14 14 14 14 14 14 14 14 14 14 14 14 14 14 14 14 14 14 14 14 14 14 14 14 14 14 14 14 14 14 14 14 14 14 14 14 14 14 14 14 14 14 14 14 14 14 14 14 14 14 14 14 14 14 16 18 20 24 28 33 39 45 51 58 65 72 79 86 93 98 101 103 103 103 103 103 103 103 103 103 103 103 103 103 103 103 103 103 103 104 105 106 106 107 108 110 113 116 118 120 122 125 127 128 128 128 127 126 125 124 123 122 121 120 119 118 117 116 114 112 110 107 105 103 101 99 97 96 95 95 94 92 88 83 77 70 64 58 52 46 41 36 31 27 24 22 20 20 20 20 20 20 20 20 20 20 20 20 20 20 21 22 23 24 25 26 27 28 29 30 30 30 31 32 33 34 35 36 37 38 39 40 41 41 42 43 44 44 44 42 41 40 39 39 39 38 38 38 38 38 38 38 38 38 38 38 38 38 38 38 38 39 39 40 40 41 42 44 47 50 53 55 58 61 65 70 76 84 
35 49 53 53 53 53 52 52 51 51 52 53 53 52 49 45 40 34 29 25 22 20 18 16 16 16 15 15 15 15 15 15 15 15 15 15 15 15 15 15 15 15 15 15 15 15 15 15 15 15 15 15 14 14 14 14 14 14 14 14 14 14 14 14 14 14 14 14 14 14 14 14 14 14 14 14 14 14 14 14 14 14 15 15 15 14 14 14 14 14 14 14 14 14 14 14 14 14 14 14 14 14 14 14 14 14 14 14 14 14 14 15 16 19 22 26 30 36 42 48 55 62 69 77 84 91 97 101 104 105 105 104 104 104 104 104 104 104 104 104 104 104 104 104 104 103 103 104 105 106 106 107 108 111 114 116 118 120 122 124 126 127 127 127 127 126 125 124 123 122 121 120 119 118 117 116 114 111 109 107 105 103 101 99 97 97 96 96 96 94 91 86 80 73 67 61 55 49 44 39 34 29 26 23 21 20 20 20 20 20 20 20 20 20 20 20 20 20 21 22 23 24 25 26 27 28 29 30 30 30 31 32 33 34 35 36 37 38 39 40 41 42 43 44 45 45 45 43 42 41 40 40 39 39 39 39 39 39 39 39 39 39 39 39 39 39 39 39 39 39 39 40 40 41 42 45 48 51 54 56 59 62 66 70 77 88 
48 49 50 50 50 50 50 50 49 49 50 52 52 51 49 45 40 34 29 25 22 20 18 16 16 16 15 15 15 15 15 15 15 15 15 15 15 15 15 15 15 15 15 15 15 15 15 15 15 15 15 15 14 14 14 14 14 14 14 14 14 14 14 14 14 14 14 14 14 14 14 14 14 14 14 14 14 14 14 14 15 16 16 16 16 15 14 14 14 14 14 14 14 14 14 14 14 14 14 14 14 14 14 14 14 14 14 14 14 14 14 15 17 20 23 28 33 39 45 51 59 66 73 81 88 95 100 104 106 106 106 105 105 105 105 105 105 105 105 105 105 105 105 105 104 103 103 104 105 106 106 107 109 111 114 116 118 120 122 124 126 126 126 126 126 126 125 124 123 122 121 120 119 118 117 115 113 110 108 106 104 103 101 99 98 97 97 97 97 96 93 89 83 76 70 64 58 52 47 42 36 31 27 24 22 20 20 20 20 20 20 20 20 20 20 20 20 20 21 22 23 24 25 26 27 28 29 30 30 30 31 32 33 34 35 37 38 39 40 41 42 43 44 45 45 45 45 44 43 42 41 40 40 40 40 40 40 40 40 40 40 40 40 40 40 40 40 40 39 39 39 40 40 41 43 45 48 51 54 57 60 63 67 71 76 80 
51 49 49 48 48 48 48 48 47 47 48 50 51 50 48 45 40 34 29 25 22 20 18 16 16 16 15 15 15 15 15 15 15 15 15 15 15 15 15 15 15 15 15 15 15 15 15 15 15 15 15 15 14 14 14 14 14 14 14 14 14 14 14 14 14 14 14 14 14 14 14 14 14 14 14 14 14 14 14 14 16 17 18 18 17 16 15 14 14 14 14 14 14 14 14 14 14 14 14 14 14 14 14 14 14 14 14 14 14 14 14 16 18 21 25 30 35 41 48 55 62 70 77 85 92 98 103 106 108 108 107 106 106 106 106 106 106 106 106 106 106 106 106 105 104 103 103 104 105 106 106 107 109 111 114 116 118 120 122 124 126 126 126 126 126 126 125 124 123 122 121 120 119 118 117 115 112 110 108 106 104 103 101 99 98 97 97 97 97 97 95 91 86 79 73 67 61 55 50 44 39 34 29 26 23 21 20 20 20 20 20 20 20 20 20 20 20 20 21 22 23 24 25 26 27 28 29 30 30 30 31 32 33 34 36 37 38 40 41 43 44 45 46 46 46 46 45 44 43 42 41 41 40 40 40 40 40 40 40 40 40 40 40 40 40 40 40 40 39 39 39 40 40 41 43 45 48 51 54 57 61 64 68 72 78 96 
57 50 48 47 46 46 46 46 45 45 46 48 49 49 47 44 39 34 29 25 22 20 18 16 16 16 15 15 15 15 15 15 15 15 15 15 15 15 15 15 15 15 15 15 15 15 15 15 15 15 15 15 14 14 14 14 14 14 14 14 14 14 14 14 14 14 14 14 14 14 14 14 14 14 14 14 14 14 14 15 16 18 20 20 19 18 16 15 14 14 14 14 14 14 14 14 14 14 14 14 14 14 14 14 14 14 14 14 14 14 15 16 19 22 26 32 37 44 51 58 66 74 81 89 96 102 106 109 110 109 108 107 107 107 107 107 107 107 107 107 107 106 106 105 104 103 103 104 105 106 106 107 109 111 114 117 119 121 123 125 126 126 126 126 126 126 125 124 124 123 122 121 120 119 117 114 112 110 108 106 104 103 101 99 98 97 97 97 97 97 96 93 88 82 76 70 64 58 53 47 42 36 31 27 24 22 20 20 20 20 20 20 20 20 20 20 20 20 21 22 23 24 25 26 27 28 29 30 30 30 31 32 33 35 36 37 38 40 42 44 46 48 48 48 48 47 46 45 44 43 42 41 41 41 41 41 41 41 41 41 41 41 41 41 41 41 41 40 40 39 39 40 40 41 43 45 48 51 55 58 62 66 70 73 70 49 
29 46 47 46 45 44 44 44 44 44 45 46 47 47 45 42 37 33 29 25 22 20 18 16 16 16 15 15 15 15 15 15 15 15 15 15 15 15 15 15 15 15 15 15 15 15 15 15 15 15 15 15 14 14 14 14 14 14 14 14 14 14 14 14 14 14 14 14 14 14 14 14 14 14 14 14 14 14 14 15 17 19 21 22 21 19 17 15 14 14 14 14 14 14 14 14 14 14 14 14 14 14 14 14 14 14 14 14 14 14 15 17 20 23 28 34 40 47 54 61 69 77 85 93 100 105 109 111 111 110 109 108 108 108 108 108 108 108 108 108 107 106 106 105 104 103 103 104 105 106 106 107 109 112 115 117 119 121 123 125 126 126 126 126 126 126 125 124 124 124 123 122 121 120 118 114 112 109 107 106 104 103 101 99 98 97 97 97 97 97 96 94 90 85 80 74 68 62 56 50 44 39 34 29 25 23 21 20 20 20 20 20 20 20 20 20 20 20 21 22 23 24 25 26 27 28 29 30 30 30 31 32 34 35 36 37 38 40 43 45 48 50 50 50 50 49 48 46 45 44 43 42 41 41 41 41 41 41 41 41 41 41 41 42 42 42 42 41 40 39 39 40 40 41 43 45 48 52 56 60 64 69 75 80 81 72 
73 59 50 45 43 43 43 43 42 42 43 44 44 44 42 39 35 32 28 25 22 20 18 17 16 16 15 15 15 15 15 15 15 15 15 15 15 15 15 15 15 15 15 15 15 15 15 15 15 15 15 15 14 14 14 14 14 14 14 14 14 14 14 14 14 14 14 14 14 14 14 14 14 14 14 14 14 14 14 15 17 19 22 23 22 20 18 15 14 14 14 14 14 14 14 14 14 14 14 14 14 14 14 14 14 14 14 14 14 14 15 18 21 25 30 36 42 49 57 64 72 80 88 96 103 108 111 112 112 111 109 108 108 108 108 108 108 108 108 108 107 106 106 105 104 103 103 104 105 106 106 107 109 112 115 117 119 121 123 125 125 125 125 125 125 125 125 124 124 124 124 123 122 121 118 114 111 108 107 106 104 103 101 99 98 98 98 98 98 97 96 94 91 88 83 78 72 66 60 54 48 42 36 31 27 24 22 20 20 20 20 20 20 20 20 20 20 20 21 22 23 24 25 26 27 28 29 30 30 30 31 33 34 35 36 37 38 40 43 46 49 51 52 52 51 50 49 47 45 44 43 42 42 42 42 42 42 42 42 42 42 42 42 43 43 43 43 42 41 40 39 40 40 41 43 45 49 52 56 61 66 73 81 91 105 127 
105 70 53 45 42 42 42 41 41 40 41 41 41 41 39 36 33 30 27 25 22 20 18 17 16 16 15 15 15 15 15 15 15 15 15 15 15 15 15 15 15 15 15 15 15 15 15 15 15 15 15 15 14 14 14 14 14 14 14 14 14 14 14 14 14 14 14 14 14 14 14 14 14 14 14 14 14 14 14 15 17 19 22 23 22 20 18 15 14 14 14 14 14 14 14 14 14 14 14 14 14 14 14 14 14 14 14 14 14 14 16 18 22 26 31 38 44 52 60 68 76 84 92 100 106 110 113 114 113 111 109 108 108 108 108 108 108 108 108 108 107 106 106 105 104 103 103 104 105 106 106 107 110 113 115 117 119 121 123 124 124 124 124 124 124 124 124 124 124 124 124 124 123 121 118 114 110 108 107 106 104 103 101 99 98 98 98 98 98 97 96 95 93 90 87 82 77 71 64 58 51 45 38 33 28 25 22 20 20 20 20 20 20 20 20 20 20 20 21 22 23 24 25 26 27 28 29 30 30 31 32 33 34 35 36 37 38 40 43 46 49 51 52 52 51 50 48 46 45 44 43 42 42 42 42 42 42 42 42 42 43 43 44 45 45 45 45 43 41 40 39 40 40 41 43 46 49 52 56 61 67 75 86 101 122 153 
94 64 50 44 41 41 40 40 39 38 38 38 38 37 35 33 31 29 26 24 22 20 18 17 16 16 15 15 15 15 15 15 15 15 15 15 15 15 15 15 15 15 15 15 15 15 15 15 15 15 15 15 14 14 14 14 14 14 14 14 14 14 14 14 14 14 14 14 14 14 14 14 14 14 14 14 14 14 14 15 16 18 21 22 21 19 17 15 14 14 14 14 14 14 14 14 14 14 14 14 14 14 14 14 14 14 14 14 14 15 16 19 23 27 33 40 47 54 62 71 79 88 96 103 108 112 114 115 114 111 109 108 108 108 108 108 108 108 108 108 107 106 106 105 104 103 103 104 105 106 106 108 111 113 115 117 119 121 123 124 124 124 124 124 124 124 124 125 125 125 125 125 124 121 117 113 110 108 107 106 104 103 101 99 98 98 98 98 98 98 97 96 95 93 91 87 82 76 69 62 54 47 41 35 30 26 23 21 20 20 20 20 20 20 20 20 20 20 21 22 23 24 25 26 27 28 29 30 30 31 32 33 34 35 36 37 38 40 42 45 47 49 50 50 49 48 47 45 44 44 43 42 42 42 42 42 42 43 43 43 44 44 45 46 47 47 46 43 41 40 39 40 40 41 43 46 49 52 56 61 67 76 87 104 130 172 
35 44 43 41 40 39 39 38 37 36 36 35 34 33 32 31 29 27 25 24 22 20 18 17 16 16 15 15 15 15 15 15 15 15 15 15 15 15 15 15 15 15 15 15 15 15 15 15 15 15 15 15 14 14 14 14 14 14 14 14 14 14 14 14 14 14 14 14 14 14 14 14 14 14 14 14 14 14 14 14 15 17 19 20 19 17 15 14 14 14 14 14 14 14 14 14 14 14 14 14 14 14 14 14 14 14 14 14 14 15 17 20 24 29 35 42 49 57 65 74 82 91 99 105 110 113 115 115 114 111 109 108 108 108 108 108 108 108 108 108 107 106 106 105 104 103 103 104 105 106 107 109 111 113 115 117 119 121 123 124 124 124 124 124 124 124 124 125 125 125 125 125 124 121 117 113 110 108 107 106 104 103 101 99 98 98 98 98 98 98 98 98 97 96 95 92 87 81 73 65 57 50 43 37 31 27 24 21 20 20 20 20 20 20 20 20 20 20 21 22 23 24 25 26 27 28 29 30 31 32 33 34 35 36 37 37 38 40 41 43 45 46 46 46 46 46 45 44 44 44 43 43 43 43 43 43 43 44 44 44 45 45 46 47 48 48 46 43 41 40 39 40 40 41 43 46 49 52 56 61 66 74 84 99 125 183 
27 37 39 39 38 38 37 36 35 34 33 32 31 30 29 28 27 26 24 23 22 20 18 17 16 16 15 15 15 15 15 15 15 15 15 15 15 15 15 15 15 15 15 15 15 15 15 15 15 15 15 15 14 14 14 14 14 14 14 14 14 14 14 14 14 14 14 14 14 14 14 14 14 14 14 14 14 14 14 14 14 15 16 17 16 15 14 14 14 14 14 14 14 14 14 14 14 14 14 14 14 14 14 14 14 14 14 14 14 15 17 20 25 30 36 43 51 59 67 76 85 94 102 108 112 115 116 116 114 111 109 108 108 108 108 108 108 108 108 108 107 106 106 105 104 103 103 104 105 106 107 109 111 113 115 117 119 121 123 124 124 124 124 124 124 124 124 125 126 126 126 126 124 121 116 112 109 107 106 105 104 103 101 99 99 99 99 99 99 99 99 99 99 99 98 96 92 86 78 69 60 52 45 39 33 28 24 21 20 20 20 20 20 20 20 20 20 20 21 22 23 24 25 26 27 28 29 30 31 32 33 34 35 36 37 37 38 39 40 41 42 43 43 43 43 43 43 43 43 43 43 43 43 43 43 44 44 45 45 45 46 46 46 47 48 48 46 43 41 40 39 40 40 41 43 46 49 52 56 60 64 69 76 83 89 80 
43 38 38 37 37 36 35 34 33 32 31 30 29 28 27 26 25 24 23 22 21 20 18 17 16 16 15 15 15 15 15 15 15 15 15 15 15 15 15 15 15 15 15 15 15 15 15 15 15 15 15 15 14 14 14 14 14 14 14 14 14 14 14 14 14 14 14 14 14 14 14 14 14 14 14 14 14 14 14 14 14 14 14 15 14 14 14 14 14 14 14 14 14 14 14 14 14 14 14 14 14 14 14 14 14 14 14 14 14 15 17 21 26 31 38 45 53 61 70 79 88 97 104 110 114 116 117 116 114 111 109 108 108 108 108 108 108 108 108 108 107 106 106 105 104 103 103 104 105 106 107 109 111 114 116 118 120 122 123 124 124 124 124 124 124 124 124 125 126 127 127 126 124 120 115 111 108 107 106 105 104 103 101 100 99 99 100 100 100 101 101 101 102 102 102 100 96 90 82 73 63 55 47 40 34 29 25 22 20 20 20 20 20 20 20 20 20 20 21 22 23 24 25 26 27 28 29 30 31 32 33 34 35 36 37 37 38 39 39 40 40 40 41 41 41 42 42 43 43 43 43 43 44 44 44 45 45 46 46 46 46 46 46 47 48 47 45 43 41 40 39 40 40 41 43 46 49 52 55 58 61 64 68 71 70 59 
34 37 37 36 35 34 34 33 32 31 30 29 28 27 26 25 24 23 22 21 20 19 18 17 16 16 15 15 15 15 15 15 15 15 15 15 15 15 15 15 15 15 15 15 15 15 15 15 15 15 15 15 14 14 14 14 14 14 14 14 14 14 14 14 14 14 14 14 14 14 14 14 14 14 14 14 14 14 14 14 14 14 14 14 14 14 14 14 14 14 14 14 14 14 14 14 14 14 14 14 14 14 14 14 14 14 14 14 14 15 18 22 27 33 39 47 55 63 72 81 90 99 106 111 115 117 117 116 114 111 109 108 108 108 108 108 108 108 108 108 107 106 106 105 104 103 103 104 105 106 107 109 111 114 116 118 120 122 123 124 124 124 124 124 124 124 124 125 126 127 127 126 123 119 114 110 108 107 106 105 104 103 101 100 99 99 100 101 101 102 103 103 104 105 105 103 99 93 85 76 66 57 49 41 35 30 26 23 21 20 20 20 20 20 20 20 20 20 21 22 23 24 25 26 27 29 30 31 32 33 34 35 36 37 37 37 38 38 38 38 38 39 40 40 41 42 42 43 43 44 44 44 45 45 45 46 46 46 46 46 46 46 46 47 47 46 45 43 41 40 39 40 40 41 43 46 49 52 55 57 59 60 62 63 61 56 
55 41 37 35 34 33 33 32 31 30 29 28 27 27 26 25 24 23 22 21 20 19 18 17 16 16 15 15 15 15 15 15 15 15 15 15 15 15 15 15 15 15 15 15 15 15 15 15 15 15 15 15 14 14 14 14 14 14 14 14 14 14 14 14 14 14 14 14 14 14 14 14 14 14 14 14 14 14 14 14 14 14 14 14 14 14 14 14 14 14 14 14 14 14 14 14 14 14 14 14 14 14 14 14 14 14 14 14 15 16 19 23 28 34 41 49 57 65 74 83 92 100 107 112 115 117 117 115 113 111 109 108 108 108 108 108 108 108 108 108 107 106 106 105 104 103 103 104 105 106 107 109 112 115 117 119 121 122 123 124 124 124 124 124 124 124 124 125 126 127 127 125 122 118 113 110 108 107 106 105 104 103 101 100 99 100 101 102 102 103 104 105 106 107 107 105 101 95 87 78 68 58 49 41 35 30 26 23 21 20 20 20 20 20 20 20 20 20 21 22 23 24 25 26 27 29 31 32 33 34 35 36 37 37 37 37 37 37 37 37 38 39 40 40 41 42 42 43 43 44 45 45 46 46 46 46 46 46 46 46 46 46 46 46 46 45 44 43 41 40 39 40 40 41 43 46 49 52 55 56 57 57 58 58 57 56 
32 35 35 34 33 32 32 31 30 29 28 27 26 26 26 25 24 24 23 22 21 20 19 18 17 16 15 15 15 15 15 15 15 15 15 15 15 15 15 15 15 15 15 15 15 15 15 15 15 15 15 15 14 14 14 14 14 14 14 14 14 14 14 14 14 14 14 14 14 14 14 14 14 14 14 14 14 14 14 14 14 14 14 14 14 14 14 14 14 14 14 14 14 14 14 14 14 14 14 14 14 14 14 14 14 14 14 15 16 17 19 23 28 35 43 51 59 67 76 85 94 102 108 112 115 116 116 115 113 111 109 108 108 108 108 108 108 108 108 108 107 106 106 105 104 103 103 104 105 106 107 110 113 116 118 120 122 123 124 124 124 124 124 124 124 124 124 125 126 127 127 125 121 117 113 110 108 107 106 105 104 103 101 100 100 100 101 102 103 104 106 107 108 109 108 106 102 96 88 79 68 58 49 41 35 30 26 23 21 20 20 20 20 20 20 20 20 20 21 22 23 24 25 26 28 30 32 33 34 35 36 37 37 37 37 37 37 37 37 37 38 39 40 40 41 42 42 43 43 44 45 46 46 46 46 46 46 46 46 46 46 46 46 46 46 45 44 43 41 40 39 40 40 41 43 46 49 52 54 54 54 54 55 56 56 56 
29 35 35 34 33 31 31 30 29 28 27 26 25 25 25 25 24 24 24 23 23 22 21 20 18 17 15 15 15 15 15 15 15 15 15 15 15 15 15 15 15 15 15 15 15 15 15 15 15 15 15 15 14 14 14 14 14 14 14 14 14 14 14 15 15 15 14 14 14 14 14 14 14 14 14 14 14 14 14 14 14 14 14 14 14 14 14 14 14 14 14 14 14 14 14 14 14 14 14 14 14 14 14 14 14 14 15 16 17 18 20 24 29 37 45 53 61 69 78 87 96 103 109 113 115 116 115 114 113 111 109 108 108 108 108 108 108 108 108 108 107 106 106 105 104 103 103 104 105 106 108 111 114 116 119 121 123 124 124 124 124 124 124 124 124 124 124 125 126 127 126 124 120 116 112 109 107 106 105 104 103 102 101 100 100 100 101 103 104 105 107 108 109 110 109 106 102 96 88 79 68 58 49 41 35 30 26 23 21 20 20 20 20 20 20 20 20 20 21 22 23 24 25 26 28 30 32 34 35 36 37 37 37 37 37 37 37 37 37 37 38 39 40 40 41 42 42 43 44 45 46 46 46 46 46 46 47 47 47 47 47 47 47 47 46 45 44 43 41 40 39 40 40 41 43 45 48 50 52 52 52 53 54 55 56 59 
50 41 37 34 32 31 30 29 28 27 26 25 24 24 24 24 24 24 24 24 24 24 23 22 20 17 15 15 15 15 15 15 15 15 15 15 15 15 15 15 15 15 15 15 15 15 15 15 15 15 15 15 14 14 14 14 14 14 14 14 14 15 15 16 17 17 16 15 14 14 14 14 14 14 14 14 14 14 14 14 14 14 14 14 14 14 14 14 14 14 14 14 14 14 14 14 14 14 14 14 14 14 14 14 14 15 16 17 18 19 21 25 31 39 47 55 63 71 80 89 97 104 109 113 115 115 114 113 112 111 109 108 108 108 108 108 108 108 108 108 107 107 106 105 104 103 103 104 105 106 109 112 114 116 119 122 124 125 125 124 124 124 124 124 124 124 124 125 126 127 126 123 119 115 111 108 107 106 105 104 103 102 101 100 100 100 102 104 105 106 108 110 111 111 110 107 102 96 88 78 67 57 48 41 35 30 26 23 21 20 20 20 20 20 20 20 20 20 21 22 23 24 25 27 29 31 33 35 36 37 37 37 37 37 37 37 37 37 37 37 38 39 40 40 41 42 42 43 44 45 46 46 46 46 46 46 47 48 48 49 49 49 49 48 47 46 44 43 41 40 39 40 40 41 43 44 46 48 49 50 51 52 53 54 55 57 
50 42 38 35 32 30 29 28 27 26 25 24 23 23 23 24 24 24 25 25 26 26 25 23 20 17 15 15 15 15 15 15 15 15 15 15 15 15 15 15 15 15 15 15 15 15 15 15 15 15 15 15 14 14 14 14 14 14 14 14 14 15 16 18 19 19 17 16 14 14 14 14 14 14 14 14 14 14 14 14 14 14 14 14 14 14 14 14 14 14 14 14 14 14 14 14 14 14 14 14 14 14 14 14 15 16 17 18 19 20 22 26 33 41 49 57 65 73 82 91 99 105 110 113 114 114 113 112 111 110 109 108 108 108 108 108 108 108 108 108 108 107 106 105 104 104 104 104 105 107 110 112 114 116 119 122 125 126 125 124 124 124 124 124 124 124 124 125 126 126 125 122 118 114 110 108 107 106 105 104 103 102 101 100 100 101 102 104 106 107 109 111 113 113 111 107 102 95 87 77 66 56 48 41 35 30 26 23 21 20 20 20 20 20 20 20 20 20 21 22 23 24 25 27 29 32 34 36 37 37 37 37 37 37 37 37 37 37 37 37 38 39 40 40 41 42 43 44 45 46 46 46 46 46 46 46 47 48 49 50 51 51 51 50 48 46 44 43 41 40 39 40 40 41 42 44 45 46 47 48 49 50 51 53 56 62 
35 40 38 35 32 29 28 27 26 25 24 23 22 22 22 23 24 24 25 26 26 26 25 23 20 17 15 15 15 15 15 15 15 15 15 15 15 15 15 15 15 15 15 15 15 15 15 15 15 15 15 15 14 14 14 14 14 14 14 14 14 15 17 19 21 21 19 17 15 14 14 14 14 14 14 14 14 14 14 14 14 14 14 14 14 14 14 14 14 14 14 14 14 14 14 14 14 14 14 14 14 14 14 15 16 17 18 19 20 21 23 28 35 43 51 59 67 75 84 92 100 106 110 112 113 113 112 112 111 110 109 109 109 109 109 109 109 109 109 109 108 107 106 105 105 105 104 104 105 108 110 112 114 116 119 122 125 126 125 124 124 124 124 124 124 124 124 125 126 126 124 121 117 113 110 108 107 106 105 104 103 102 101 100 100 101 103 105 107 108 110 112 114 114 112 108 102 95 86 76 65 56 48 41 35 30 26 23 21 20 20 20 20 20 20 20 20 20 21 22 23 24 25 27 29 32 35 36 37 36 36 36 37 37 37 37 37 37 37 37 38 39 40 40 41 42 43 45 46 46 46 46 46 46 46 46 47 49 50 51 52 53 52 51 48 46 44 43 41 40 39 40 40 41 42 43 44 45 46 47 48 49 50 51 53 59 
48 45 40 35 32 29 27 26 25 24 23 22 21 21 21 22 23 24 25 26 26 25 23 21 19 17 15 15 15 15 15 15 15 15 15 15 15 15 15 15 15 15 15 15 15 15 15 15 15 15 15 15 14 14 14 14 14 14 14 14 14 15 17 20 22 22 20 17 15 14 14 14 14 14 14 14 14 14 14 14 14 14 14 14 14 14 14 14 14 14 14 14 14 14 14 14 14 14 14 14 14 14 15 16 17 18 19 20 21 22 25 30 38 46 54 62 70 77 86 94 101 106 109 111 111 111 111 111 111 110 109 109 109 109 109 109 109 109 109 109 108 107 106 106 106 105 105 105 106 108 110 112 114 116 119 122 124 125 125 124 124 124 124 124 124 124 124 125 126 125 123 120 116 112 110 108 107 106 105 104 103 102 101 100 100 102 104 106 108 109 111 113 114 114 112 108 102 94 85 74 64 55 47 40 34 29 25 22 21 20 20 20 20 20 20 20 20 20 21 22 23 24 25 27 29 32 35 36 36 35 35 36 37 37 37 37 37 37 37 37 38 39 40 40 41 43 44 46 47 47 47 47 47 46 46 46 47 49 51 52 53 54 53 51 48 46 44 43 41 40 40 40 40 41 42 43 44 45 46 47 48 49 49 50 49 40 
73 53 42 36 32 29 27 25 24 23 22 21 20 20 20 21 23 24 25 25 24 23 21 19 17 16 15 15 15 15 15 15 15 15 15 15 15 15 15 15 15 15 15 15 15 15 15 15 15 15 15 15 14 14 14 14 14 14 14 14 14 15 17 20 22 22 20 17 15 14 14 14 14 14 14 14 14 14 14 14 14 14 14 14 14 14 14 14 14 14 14 14 14 14 14 14 14 14 14 14 14 15 16 17 18 19 20 21 22 23 27 33 41 49 57 65 72 79 87 95 101 106 109 110 110 110 110 110 110 110 109 109 110 110 110 110 110 110 110 110 109 108 107 107 106 106 106 106 107 109 111 113 115 117 119 121 123 124 124 124 124 124 124 124 124 124 124 125 125 124 121 118 115 112 110 108 107 106 105 104 103 102 101 100 101 102 104 106 108 110 112 114 115 114 111 107 101 93 83 72 62 54 46 39 33 28 24 22 21 20 20 20 20 20 20 20 20 20 21 22 23 24 25 27 29 32 34 34 34 34 34 35 36 37 37 37 37 37 37 37 38 39 40 40 41 43 45 47 49 49 49 48 47 46 46 46 47 49 51 53 54 54 53 51 48 46 44 43 41 40 40 40 40 41 42 43 44 45 46 47 48 49 49 50 54 71 
77 54 42 35 31 28 26 24 23 22 21 20 20 19 19 20 22 23 23 23 22 21 19 18 16 16 15 15 15 15 15 15 15 15 15 15 15 15 15 15 15 15 15 15 15 15 15 15 15 15 15 15 14 14 14 14 14 14 14 14 14 15 17 19 21 21 20 17 15 14 14 14 14 14 14 14 14 14 14 14 14 14 14 14 14 14 14 14 14 14 14 14 14 14 14 14 14 14 14 14 15 16 17 18 19 20 21 22 23 25 30 37 44 52 60 67 74 81 89 96 102 106 108 109 109 109 109 109 109 109 109 109 110 111 111 111 111 111 111 111 110 109 108 107 107 107 107 107 108 110 112 114 116 118 120 121 123 124 124 124 124 124 124 124 124 124 124 124 124 123 120 117 114 112 110 108 107 106 105 104 103 102 101 101 101 103 105 107 109 111 113 114 115 114 111 106 99 91 81 70 61 52 45 38 32 27 24 22 21 20 20 20 20 20 20 20 20 20 21 22 23 24 25 27 29 31 32 33 33 33 34 35 36 37 37 37 37 37 37 37 38 39 40 40 42 44 46 49 51 51 50 49 47 46 46 46 47 49 51 52 53 53 52 50 48 46 44 43 41 40 40 40 40 41 42 43 44 45 46 47 48 49 49 50 48 32 
54 47 39 33 29 27 25 23 22 21 20 20 19 18 18 19 21 21 21 20 19 18 17 16 16 16 15 15 15 15 15 15 15 15 15 15 15 15 15 15 15 15 15 15 15 15 15 15 15 15 15 15 14 14 14 14 14 14 14 14 14 15 16 18 20 20 19 16 14 14 14 14 14 14 14 14 14 14 14 14 14 14 14 14 14 14 14 14 14 14 14 14 14 14 14 14 14 14 14 15 16 17 18 19 20 21 22 23 25 28 34 41 48 55 62 69 76 83 90 97 102 105 106 107 108 108 108 109 109 109 109 109 110 111 112 112 112 112 112 111 110 109 108 108 108 108 108 108 109 111 113 115 117 119 120 121 123 124 124 124 124 124 124 124 124 124 124 124 124 122 119 116 114 112 110 108 107 106 105 104 103 102 101 101 102 104 106 108 109 111 113 115 115 113 110 105 98 89 79 69 59 51 44 37 31 27 24 22 21 20 20 20 20 20 20 20 20 20 21 22 23 24 25 26 28 29 30 31 32 33 34 35 36 37 37 37 37 37 37 37 38 39 40 41 42 44 47 50 52 52 51 49 47 46 46 46 47 48 49 50 51 51 50 49 47 46 44 43 41 40 40 40 40 41 42 43 44 45 46 47 48 49 51 53 56 55 
47 45 38 32 28 26 24 22 21 20 20 19 18 18 18 18 19 19 19 18 17 16 16 16 16 16 15 15 15 15 15 15 15 15 15 15 15 15 15 15 15 15 15 15 15 15 15 15 15 15 15 15 14 14 14 14 14 14 14 14 14 14 15 17 18 19 18 15 14 14 14 14 14 14 14 14 14 14 14 14 14 14 14 14 14 14 14 14 14 14 14 14 14 14 14 14 14 14 15 16 17 18 19 20 21 22 23 24 27 32 38 45 52 59 66 72 79 85 92 97 101 104 105 106 107 107 107 108 109 109 109 109 110 111 112 113 113 113 113 112 111 110 109 109 109 109 109 109 110 112 114 116 118 119 120 121 122 123 123 123 123 123 123 123 123 123 123 123 123 121 118 116 114 112 110 108 107 106 105 104 103 102 101 101 103 105 107 108 109 111 113 115 115 113 109 103 96 87 77 67 58 50 43 36 31 27 24 22 21 20 20 20 20 20 20 20 20 20 21 22 23 24 25 26 27 28 29 30 31 32 33 34 35 36 37 37 37 37 37 37 38 39 40 41 42 44 47 50 52 52 51 49 47 46 46 46 46 47 48 48 49 49 48 47 46 45 44 43 41 40 40 40 40 41 42 43 44 45 46 47 48 50 53 58 69 99 
73 50 39 32 28 25 23 22 21 20 19 18 18 18 18 18 18 18 17 16 16 16 16 16 16 16 15 15 15 15 15 15 15 15 15 15 15 15 15 15 15 15 15 15 15 15 15 15 15 15 15 15 14 14 14 14 14 14 14 14 14 14 15 16 17 18 17 15 14 14 14 14 14 14 14 14 14 14 14 14 14 14 14 14 14 14 14 14 14 14 14 14 14 14 14 14 14 15 16 17 18 19 20 21 22 23 24 27 31 37 43 49 56 63 69 75 81 87 93 97 100 102 103 104 105 106 106 107 108 109 109 109 110 111 112 113 114 114 114 113 112 111 110 110 110 110 110 110 111 113 115 117 118 119 120 121 122 123 123 123 123 123 123 123 123 123 123 123 122 120 118 116 114 112 110 108 107 106 105 104 103 102 101 102 104 106 107 108 109 111 113 114 114 112 108 102 94 84 75 65 56 48 41 35 30 26 23 22 21 20 20 20 20 20 20 20 20 20 21 22 23 24 25 26 27 28 29 30 31 32 33 34 35 36 37 37 37 37 37 37 38 39 40 41 42 44 47 49 51 51 50 48 46 45 45 45 45 46 46 46 46 46 46 46 45 44 43 42 41 40 40 40 40 41 42 43 44 45 46 47 48 50 53 57 63 68 
54 44 37 32 28 25 23 22 21 20 19 18 18 18 18 18 18 17 16 16 16 16 16 16 16 16 15 15 15 15 15 15 15 15 15 15 15 15 15 15 15 15 15 15 15 15 15 15 15 15 15 15 14 14 14 14 14 14 14 14 14 14 14 15 15 16 15 14 14 14 14 14 14 14 14 14 14 14 14 14 14 14 14 14 14 14 14 14 14 14 14 14 14 14 14 14 15 16 17 18 19 20 21 22 23 25 27 31 36 42 48 54 60 66 72 78 84 89 94 97 99 100 101 102 103 104 105 106 107 108 109 110 111 112 113 114 115 115 115 114 113 112 111 111 111 111 111 112 113 114 116 117 118 119 120 121 122 122 122 122 122 122 122 122 122 122 122 122 121 119 117 115 113 111 109 108 107 106 105 104 103 102 102 103 105 106 107 108 109 111 113 114 113 110 106 100 92 82 73 63 54 46 39 34 29 25 23 22 21 20 20 20 20 20 20 20 20 20 21 22 23 24 25 26 27 28 29 30 31 32 33 34 35 36 37 37 37 37 37 37 38 39 40 41 42 44 46 48 49 49 48 47 45 44 44 44 44 44 44 44 44 44 44 44 44 44 43 42 41 40 40 40 40 41 42 43 44 45 46 47 48 50 53 56 58 51 
32 38 35 31 27 24 23 22 21 20 19 18 18 18 18 18 18 17 16 16 16 16 16 16 16 16 15 15 15 15 15 15 15 15 15 15 15 15 15 15 15 15 15 15 15 15 15 15 15 15 15 15 14 14 14 14 14 14 14 14 14 14 14 14 14 14 14 14 14 14 14 14 14 14 14 14 14 14 14 14 14 14 14 14 14 14 14 14 14 14 14 14 14 14 14 15 16 17 18 19 20 21 22 23 25 28 32 37 42 47 53 59 64 70 76 82 87 92 95 97 98 99 100 101 102 103 104 105 106 107 109 110 111 112 113 114 115 116 116 115 114 113 112 112 112 112 113 114 115 116 117 118 119 120 121 121 121 121 121 121 121 121 121 121 121 121 121 121 120 118 116 114 112 110 109 108 107 106 105 104 103 102 103 104 105 106 107 108 109 111 112 113 112 109 104 97 89 80 71 61 52 44 38 33 28 25 23 22 21 20 20 20 20 20 20 20 20 20 21 22 23 24 25 26 27 28 29 30 31 32 33 34 35 36 37 37 37 37 37 37 38 39 40 41 42 43 45 46 46 46 46 45 44 43 43 43 43 43 43 43 43 43 43 43 43 43 43 42 41 40 40 40 40 41 42 43 44 45 45 46 48 50 54 58 63 65 
43 41 36 31 27 24 23 22 21 20 19 18 18 18 18 18 18 17 16 16 16 16 16 16 16 16 15 15 15 15 15 15 15 15 15 15 15 15 15 15 15 15 15 15 15 15 15 15 15 15 15 15 14 14 14 14 14 14 14 14 14 14 14 14 14 14 14 14 14 14 14 14 14 14 14 14 14 14 14 14 14 14 14 14 14 14 14 14 14 14 14 14 14 15 16 17 18 19 20 21 22 23 25 27 30 34 38 43 48 53 58 63 68 74 80 85 90 94 96 97 98 99 100 101 102 103 104 105 106 108 109 110 111 112 113 114 115 116 116 116 115 114 113 113 113 113 114 115 116 117 118 119 120 121 121 121 121 121 121 121 121 121 121 121 121 121 121 121 119 117 115 113 111 110 109 108 107 106 105 104 103 103 104 105 106 107 108 109 110 111 112 112 111 107 102 95 86 77 68 59 50 43 37 32 28 25 23 22 21 20 20 20 20 20 20 20 20 20 21 22 23 24 25 26 27 28 29 30 31 32 33 34 35 36 37 37 37 37 37 37 38 39 40 41 42 42 43 43 43 43 43 43 43 42 42 42 42 42 42 42 42 42 42 42 42 42 42 42 41 40 40 40 40 41 42 43 44 44 45 46 48 51 55 61 72 91 
71 48 37 31 27 24 23 22 21 20 19 18 18 18 18 18 18 17 16 16 16 16 16 16 16 16 15 15 15 15 15 15 15 15 15 15 15 15 15 15 15 15 15 15 15 15 15 15 15 15 15 15 14 14 14 14 14 14 14 14 14 14 14 14 14 14 14 14 14 14 14 14 14 14 14 14 14 14 14 14 14 14 14 14 14 14 14 14 14 14 14 15 16 17 18 19 20 21 23 24 25 27 29 32 36 40 44 49 54 58 63 68 73 78 83 88 92 95 96 97 98 99 100 101 102 103 104 105 107 108 109 110 111 112 113 114 115 117 117 116 115 115 114 114 114 115 116 117 118 119 120 120 121 122 122 122 121 121 121 121 121 121 121 121 121 121 121 120 118 116 114 112 111 110 109 108 107 106 105 104 104 104 105 106 107 108 109 110 111 111 112 112 110 106 100 92 83 74 65 57 48 41 35 30 27 24 23 22 21 20 20 20 20 20 20 20 20 20 21 22 23 24 25 26 27 28 29 30 31 32 33 34 35 36 37 37 37 37 37 37 38 39 40 41 41 41 41 41 41 41 41 41 41 41 41 41 41 41 41 41 41 41 41 41 41 41 41 41 41 40 40 40 40 41 42 43 43 44 44 45 47 50 55 62 74 99 
67 44 34 29 26 24 23 22 21 20 19 18 18 18 18 18 18 17 16 16 16 16 16 16 16 16 15 15 15 15 15 15 15 15 15 15 15 15 15 15 15 15 15 15 15 15 15 15 15 15 15 15 14 14 14 14 14 14 14 14 14 14 14 14 14 14 14 14 14 14 14 14 14 14 14 14 14 14 14 14 14 14 14 14 14 14 14 14 14 15 16 17 18 19 21 22 23 25 27 28 30 33 36 39 43 47 51 55 59 64 68 73 77 82 86 91 94 96 97 98 99 100 101 102 103 104 105 106 107 108 109 110 111 112 113 114 115 117 117 116 115 115 115 115 115 116 117 118 119 120 121 121 122 122 122 122 121 121 121 121 121 121 121 121 121 121 120 119 117 115 113 112 111 110 109 108 107 106 105 105 105 105 106 107 108 109 110 111 111 111 111 111 109 104 98 90 81 72 63 55 47 40 34 29 26 24 23 22 21 20 20 20 20 20 20 20 20 20 21 22 23 24 25 26 27 28 29 30 31 32 33 34 35 36 37 37 37 37 37 37 38 39 40 40 40 40 40 40 40 40 40 40 40 40 40 40 40 40 40 40 40 40 40 40 40 40 40 40 40 40 40 40 40 41 42 42 43 43 43 44 46 49 54 59 63 60 
14 28 29 27 25 24 23 22 21 20 19 18 18 18 18 18 18 17 16 16 16 16 16 16 16 16 15 15 15 15 15 15 15 15 15 15 15 15 15 15 15 15 15 15 15 15 15 15 15 15 15 15 14 14 14 14 14 14 14 14 14 14 14 14 14 14 14 14 14 14 14 14 14 14 14 14 14 14 14 14 14 14 14 14 14 14 15 15 16 17 18 19 21 23 24 26 28 30 32 34 37 40 43 46 50 54 58 62 65 69 73 77 81 85 89 93 95 96 97 98 99 100 101 102 103 104 105 106 107 108 109 110 111 112 113 114 115 116 116 116 116 116 116 116 116 117 118 119 120 121 122 122 123 123 123 122 121 121 121 121 121 121 121 121 121 120 119 118 116 114 113 112 111 110 109 108 107 106 106 106 106 106 107 108 109 110 111 111 111 111 111 110 108 103 96 87 79 70 61 53 45 38 32 28 25 24 23 22 21 20 20 20 20 20 20 20 20 20 21 22 23 24 25 26 27 28 29 30 31 32 33 34 36 37 37 37 37 37 37 38 39 39 39 39 40 40 40 40 40 40 40 40 40 40 40 40 40 40 40 40 40 40 40 40 40 40 40 40 40 40 40 40 40 41 41 42 42 42 43 44 46 49 53 57 60 49 
18 25 27 26 25 24 23 22 21 19 18 18 18 18 18 18 18 17 16 16 16 16 16 16 16 16 15 15 15 15 15 15 15 15 15 15 15 15 15 15 15 15 15 15 15 15 15 15 15 15 15 15 14 14 14 14 14 14 14 14 14 14 14 14 14 14 14 14 14 14 14 14 14 14 14 14 14 14 14 14 14 14 14 14 15 16 17 18 19 20 21 23 25 27 29 31 34 36 39 41 44 47 50 53 57 61 65 68 71 75 78 82 85 89 92 94 96 97 98 99 100 101 102 103 104 105 106 107 108 109 110 111 112 113 114 115 115 116 116 116 116 116 116 117 117 118 119 120 121 122 123 123 124 124 123 122 121 121 121 121 121 121 121 121 120 119 118 117 116 114 113 112 111 110 109 108 107 107 107 107 107 107 108 109 110 111 111 111 111 111 111 110 107 101 94 85 77 68 59 51 43 36 31 27 25 24 23 22 21 20 20 20 20 20 20 20 20 20 21 22 23 24 25 26 27 28 29 30 31 32 33 34 36 37 37 37 37 37 38 39 39 39 39 40 40 40 40 40 40 40 40 40 40 40 40 40 40 40 40 40 40 40 40 40 40 40 40 40 40 40 40 40 40 40 41 41 41 42 42 43 45 48 52 58 71 107 
32 30 28 26 25 24 23 22 20 19 18 18 18 18 18 18 18 17 16 16 16 16 16 16 16 16 15 15 15 15 15 15 15 15 15 15 15 15 15 15 15 15 15 15 15 15 15 15 15 15 15 15 14 14 14 14 14 14 14 14 14 14 14 14 14 14 14 14 14 14 14 14 14 14 14 14 14 14 14 14 14 14 15 16 17 18 19 21 22 24 26 28 30 32 35 38 40 43 46 49 52 55 58 61 64 68 71 74 77 80 83 86 89 92 94 95 96 97 98 99 100 101 102 103 104 105 106 107 108 109 110 111 112 113 114 115 115 115 115 116 116 116 117 118 118 119 120 121 122 123 124 124 125 125 123 122 121 121 121 121 121 121 121 120 119 118 117 116 115 114 113 112 111 110 109 108 108 108 108 108 108 108 109 110 111 111 111 111 111 111 111 109 106 100 92 83 75 66 57 49 41 35 30 27 25 24 23 22 21 20 20 20 20 20 20 20 20 20 21 22 23 24 25 26 27 28 29 30 31 32 33 34 35 36 36 37 37 37 38 39 40 40 40 41 41 41 41 41 41 41 41 41 41 41 41 41 41 41 41 41 41 41 41 41 41 41 41 41 41 41 41 41 40 40 40 40 41 41 41 42 44 47 50 54 59 58 
58 36 29 26 25 24 23 21 20 19 18 18 18 18 18 18 18 17 16 16 16 16 16 16 16 16 15 15 15 15 15 15 15 15 15 15 15 15 15 15 15 15 15 15 15 15 15 15 15 15 15 15 14 14 14 14 14 14 14 14 14 14 14 14 14 14 14 14 14 14 14 14 14 14 14 14 14 14 14 14 15 16 17 18 19 21 23 25 27 29 31 33 36 39 42 45 48 51 54 57 60 63 66 69 72 75 78 81 83 86 88 90 92 94 95 96 97 98 99 100 101 102 103 104 105 106 107 108 109 110 111 112 113 114 115 115 115 115 115 116 116 116 117 118 119 120 121 122 123 124 125 125 126 125 123 122 121 121 121 121 121 121 120 119 118 117 116 115 114 113 113 112 111 110 110 110 110 110 110 110 110 110 111 111 111 111 111 111 111 111 111 109 105 98 89 81 73 64 55 47 40 34 30 27 25 24 23 22 21 20 20 20 20 20 20 20 20 20 21 22 23 24 25 26 27 28 29 30 31 32 33 34 35 35 36 37 37 38 39 40 41 41 41 42 42 42 43 43 43 43 43 43 43 43 43 43 43 43 43 43 43 43 43 43 43 43 43 43 43 42 42 41 40 40 40 40 40 40 40 41 43 45 48 51 54 49 
21 27 27 26 25 24 22 21 20 19 18 18 18 18 18 18 18 17 16 16 16 16 16 16 16 16 15 15 15 15 15 15 15 15 15 15 15 15 15 15 15 15 15 15 15 15 15 15 15 15 15 15 14 14 14 14 14 14 14 14 14 14 14 14 14 14 14 14 14 14 14 14 14 14 14 14 14 14 15 15 16 18 19 21 23 25 27 29 32 34 37 40 43 46 49 52 55 58 61 64 67 71 74 77 80 83 85 87 89 91 92 94 95 96 97 98 99 100 101 102 103 104 105 106 107 108 108 109 110 111 112 113 114 115 115 115 115 115 115 116 116 116 117 118 120 121 123 124 124 125 126 126 126 124 123 122 121 121 121 121 121 120 119 119 118 117 116 115 114 114 113 112 112 111 111 111 111 111 111 111 111 112 112 112 112 112 112 112 112 112 111 109 104 96 87 79 71 62 53 45 38 33 29 26 25 24 23 22 21 20 20 20 20 20 20 20 20 20 21 22 23 24 25 26 27 28 29 30 31 32 33 34 35 35 36 37 37 38 39 40 41 42 42 43 43 43 44 45 45 45 45 45 45 45 45 45 45 45 45 45 45 45 45 46 46 46 45 45 44 43 42 41 40 40 40 40 40 40 40 40 42 44 47 51 57 67 
16 25 26 26 25 23 22 21 20 19 18 18 18 18 18 18 18 17 16 16 16 16 16 16 16 16 15 15 15 15 15 15 15 15 15 15 15 15 15 15 15 15 15 15 15 15 15 15 15 15 15 15 14 14 14 14 14 14 14 14 14 14 14 14 14 14 14 14 14 14 14 14 14 14 14 14 14 15 16 17 19 21 23 25 27 29 32 35 38 40 43 46 50 53 57 60 63 66 69 72 76 79 82 85 88 90 92 93 94 95 96 97 98 99 100 101 102 103 103 104 105 106 107 108 109 109 109 110 111 112 113 114 115 115 115 115 115 115 116 116 116 116 117 118 120 122 124 125 125 125 126 126 125 123 122 121 121 121 121 121 121 120 119 119 118 117 116 116 115 115 114 113 113 113 113 113 113 113 113 113 113 114 114 114 114 114 114 114 114 113 112 109 103 95 86 77 69 60 52 44 37 32 28 26 25 24 23 22 21 20 20 20 20 20 20 20 20 20 21 22 23 24 25 26 27 28 29 30 31 32 33 34 35 35 36 37 38 39 40 41 42 43 43 44 44 44 45 46 47 47 47 47 47 47 47 47 47 47 47 47 47 47 47 48 49 49 48 47 45 44 43 41 40 40 40 40 40 39 39 39 40 42 45 49 57 69 
38 32 29 27 25 23 22 21 20 19 18 18 18 18 18 18 18 17 16 16 16 16 16 16 16 16 15 15 15 15 15 15 15 15 15 15 15 15 15 15 15 15 15 15 15 15 15 15 15 15 15 15 14 14 14 14 14 14 14 14 14 14 14 14 14 14 14 14 14 14 14 14 14 14 14 15 16 17 18 20 22 24 27 29 32 35 38 41 44 47 50 54 58 61 65 68 72 75 78 81 85 88 91 94 96 98 99 99 99 100 100 101 102 102 103 104 105 105 105 106 107 108 109 110 110 110 110 111 112 113 114 115 115 115 115 115 115 116 116 116 116 116 117 118 120 121 123 124 124 124 124 124 123 122 121 120 120 120 120 120 120 120 119 119 118 117 116 116 116 116 115 114 114 114 114 114 114 114 114 114 115 116 116 116 116 116 116 116 116 115 113 109 102 93 84 75 67 59 51 43 36 31 28 26 25 24 23 22 21 20 20 20 20 20 20 20 20 20 21 22 23 24 25 26 27 28 29 30 31 32 33 34 35 35 36 37 38 39 40 41 42 43 44 45 45 45 46 47 48 49 49 49 49 49 49 49 49 49 49 49 49 49 49 50 51 51 50 48 46 45 43 41 40 40 40 40 39 38 38 38 38 39 41 45 53 77 
43 37 32 28 25 23 22 21 20 19 18 18 18 18 18 18 18 17 16 16 16 16 16 16 16 16 15 15 15 15 15 15 15 15 15 15 15 15 15 15 15 15 15 15 15 15 15 15 15 16 16 16 15 14 14 14 14 14 14 14 14 14 14 14 14 14 14 14 14 14 14 14 14 15 15 16 18 19 21 23 26 29 32 34 37 41 44 47 51 55 58 62 66 70 73 76 80 84 87 90 94 97 100 102 104 105 105 105 104 104 104 105 105 105 106 107 107 107 108 108 109 110 111 111 111 111 111 112 113 114 115 115 115 115 115 115 116 116 116 116 116 116 117 118 119 120 121 122 122 122 122 122 121 121 120 119 119 119 119 119 119 119 119 119 118 117 116 116 116 116 116 115 115 115 115 115 115 115 115 116 116 117 118 118 118 118 118 118 118 117 114 109 101 92 83 74 66 58 50 42 35 31 28 26 25 24 23 22 21 20 20 20 20 20 20 20 20 20 21 22 23 24 25 26 27 28 29 30 31 32 33 34 35 35 36 37 38 39 40 41 42 43 44 45 46 47 48 49 50 51 51 51 51 51 51 51 51 51 51 51 51 51 51 51 52 52 51 49 47 45 43 41 40 40 40 39 38 37 37 37 37 37 37 37 35 23 
64 43 34 29 25 23 22 21 20 19 18 18 18 18 18 18 18 17 16 16 16 16 16 16 16 16 15 15 15 15 15 15 15 15 15 15 15 15 15 15 15 15 15 15 15 15 15 15 16 17 18 18 17 16 15 14 14 14 14 14 14 14 14 14 14 14 14 14 14 14 14 14 15 16 17 19 21 22 24 27 30 33 37 40 44 47 51 55 59 63 66 70 74 78 81 84 88 92 96 99 102 105 108 110 111 111 111 110 109 109 108 108 108 108 109 109 109 110 110 110 111 112 112 112 112 112 112 113 114 115 115 115 115 115 115 116 116 116 116 116 116 116 117 118 118 119 119 119 119 119 119 119 119 119 119 118 118 118 118 118 118 118 118 118 118 117 116 116 116 116 116 116 116 116 116 116 116 116 117 117 117 118 119 120 120 120 120 120 120 118 114 109 101 92 83 74 65 57 49 41 35 31 28 26 25 24 23 22 21 20 20 20 20 20 20 20 20 20 21 22 23 24 25 26 27 28 29 30 31 32 33 34 35 35 36 37 38 39 40 41 42 43 45 46 47 48 49 50 51 52 53 54 54 54 54 54 54 54 54 54 53 52 52 52 52 52 51 50 48 46 43 41 40 40 39 38 37 36 36 36 35 35 34 32 29 22 
49 38 33 29 25 23 22 21 20 19 18 18 18 18 18 18 18 17 16 16 16 16 16 16 16 16 15 15 15 15 15 15 15 15 15 15 15 15 15 15 15 15 15 15 15 15 15 15 16 18 19 20 19 17 15 14 14 14 14 14 14 14 14 14 14 14 14 14 14 14 15 16 17 18 20 22 24 26 29 32 35 39 43 47 51 55 59 63 67 71 74 78 82 86 89 92 96 100 104 107 110 112 114 116 117 117 116 115 114 113 112 112 111 111 111 111 112 112 112 112 113 113 113 113 113 113 114 114 115 115 115 115 115 115 116 116 116 116 116 116 116 116 117 117 117 118 118 118 118 118 118 118 118 118 118 118 118 118 118 118 118 118 118 118 118 117 117 117 117 117 117 117 117 117 118 118 118 118 118 118 118 119 120 121 122 122 123 123 122 119 115 109 100 91 82 73 64 56 48 40 34 30 28 26 25 24 23 22 21 20 20 20 20 20 20 20 20 20 21 22 23 24 25 26 27 28 29 30 31 32 33 34 35 36 37 38 39 40 41 42 43 45 46 47 48 50 51 52 53 54 55 56 57 58 58 58 58 58 57 56 55 53 53 52 52 51 50 49 48 46 43 41 40 39 38 37 36 36 35 35 34 34 33 31 27 21 
15 29 31 29 26 23 22 21 20 19 18 18 18 18 18 18 18 17 16 16 16 16 16 16 16 16 15 15 15 15 15 15 15 15 15 15 15 15 15 15 15 15 15 15 15 15 15 15 16 18 20 21 20 18 15 14 14 14 14 14 14 14 14 14 14 14 14 14 14 15 16 18 19 21 23 25 28 31 34 38 41 45 49 53 58 62 67 71 75 79 83 87 91 94 97 100 104 108 111 114 116 117 119 120 121 121 120 119 118 117 116 115 114 114 114 114 114 114 114 114 115 115 115 115 115 115 115 115 115 115 115 115 115 116 116 116 116 116 116 116 116 117 117 117 117 117 117 117 117 117 117 117 117 117 117 117 117 117 117 117 117 117 117 117 117 117 117 117 117 117 118 118 118 118 119 119 119 119 119 119 119 120 121 122 123 124 125 125 123 120 115 109 100 91 82 73 64 55 47 39 33 30 28 26 25 24 23 22 21 20 20 20 20 20 20 20 20 20 21 22 23 24 25 26 27 28 29 30 31 32 33 34 35 36 38 39 41 42 43 44 45 47 48 49 50 52 53 54 56 57 58 59 60 61 62 62 62 61 60 58 56 54 53 52 51 50 49 48 47 45 43 41 40 39 38 37 36 35 35 34 34 34 33 32 29 19 
28 34 33 30 27 24 22 21 20 19 18 18 18 18 18 18 18 17 16 16 16 16 16 16 16 16 15 15 15 15 15 15 15 15 15 15 15 15 15 15 15 15 15 15 15 15 15 15 16 18 20 21 20 18 15 14 14 14 14 14 14 14 14 14 14 14 14 15 16 17 19 21 22 24 27 30 33 36 40 44 47 51 56 61 66 70 75 79 83 88 92 96 99 102 105 108 111 114 117 119 120 121 122 123 123 123 123 123 122 121 119 118 117 117 117 117 117 117 117 117 117 117 117 117 117 117 117 117 117 117 117 117 117 117 117 117 117 117 117 117 117 117 117 117 117 117 117 117 117 117 117 117 117 117 117 117 117 117 117 117 117 117 117 117 117 117 117 117 117 118 118 119 119 119 119 119 119 119 120 120 120 121 122 123 124 126 127 127 125 121 116 109 100 91 82 73 64 55 47 39 33 30 28 26 25 24 23 22 21 20 20 20 20 20 20 20 20 20 21 22 23 24 25 26 27 28 29 30 31 32 33 34 35 37 39 41 43 44 45 46 47 49 50 51 52 54 55 56 58 60 61 63 64 65 65 65 64 63 61 58 56 54 53 52 51 50 49 48 47 45 43 41 40 39 38 37 36 35 35 35 35 35 35 36 38 39 
61 46 38 33 29 25 22 21 20 19 18 18 18 18 18 18 18 17 16 16 16 16 16 16 16 16 15 15 15 15 15 15 15 15 15 15 15 15 15 15 15 15 15 15 15 15 15 15 16 18 20 21 20 18 15 14 14 14 14 14 14 14 14 14 14 14 15 16 18 19 21 23 26 28 31 34 38 42 46 50 54 58 63 68 73 78 83 88 92 97 101 105 108 110 112 115 117 119 121 122 122 123 123 124 124 124 125 125 125 124 122 121 120 120 120 120 120 120 120 120 120 120 120 120 120 120 120 119 119 119 119 119 119 119 119 119 119 119 119 119 119 119 119 119 119 118 118 118 118 118 118 118 118 118 118 118 118 118 118 118 118 118 118 118 118 118 118 118 118 118 119 119 119 119 119 119 119 120 120 121 121 122 123 124 125 127 128 128 126 122 117 110 101 92 83 74 65 56 47 39 33 30 28 26 25 24 23 22 21 20 20 20 20 20 20 20 20 20 21 22 23 24 25 26 27 28 29 30 31 32 33 34 35 37 40 42 44 46 47 48 49 51 52 53 54 56 57 58 60 62 64 66 67 67 67 66 65 63 61 58 56 54 53 52 51 50 49 48 47 45 43 41 40 39 38 37 36 36 36 36 36 36 37 40 48 69 
65 53 43 36 31 26 23 21 20 19 18 18 18 18 18 18 18 17 16 16 16 16 16 16 16 16 15 15 15 15 15 15 15 15 15 15 15 15 15 15 15 15 15 15 15 15 15 15 16 18 19 20 20 18 15 14 14 14 14 14 14 14 14 14 15 15 16 18 20 22 24 27 30 33 36 40 44 48 52 56 61 66 71 76 81 86 91 96 101 106 110 113 115 116 118 120 121 122 123 123 123 123 123 124 124 124 125 126 127 126 125 124 123 123 123 123 123 123 123 123 123 123 123 123 123 122 122 121 121 121 121 121 121 121 121 121 121 121 121 121 121 121 121 121 120 119 119 119 119 119 119 119 119 119 119 119 119 119 119 119 119 119 119 119 119 119 119 119 119 119 119 119 119 119 119 119 120 120 121 121 122 123 123 124 125 127 129 129 127 123 118 111 102 93 84 75 66 57 48 40 34 30 28 26 25 24 23 22 21 20 20 20 20 20 20 20 20 20 20 21 22 23 24 25 26 27 28 29 30 31 32 34 36 38 41 44 46 48 50 51 52 53 54 55 56 58 59 60 62 64 66 68 69 69 68 67 65 62 60 58 56 54 53 52 51 50 49 48 47 45 43 41 40 39 38 37 37 37 37 37 37 37 38 41 47 55 
78 58 47 39 33 28 24 21 20 19 18 18 18 18 18 18 18 17 16 16 16 16 16 16 16 16 15 15 15 15 15 15 15 15 15 15 15 15 15 15 15 15 15 15 15 15 15 15 16 17 18 19 19 18 16 14 14 14 14 14 14 14 14 15 16 17 18 20 23 26 28 31 34 38 42 46 50 54 59 63 68 73 79 84 89 95 100 105 110 114 117 119 120 121 122 123 123 123 123 123 123 123 123 124 124 124 125 126 128 128 127 126 125 125 125 125 125 125 125 125 125 125 125 125 125 124 124 123 123 123 123 123 123 123 123 123 123 123 123 123 123 123 123 122 121 121 121 120 120 120 120 120 120 120 120 120 120 120 120 120 120 120 120 120 120 120 120 120 120 120 120 120 120 120 120 120 120 121 121 122 123 123 123 124 125 127 129 129 127 124 119 112 103 94 85 76 67 58 50 42 35 31 28 26 25 24 23 22 21 20 20 20 20 20 20 20 20 20 20 21 22 23 24 25 26 27 28 29 30 31 32 34 36 38 42 45 48 51 53 54 55 56 57 57 58 60 61 62 64 66 68 69 69 69 68 66 64 62 60 58 56 54 53 52 51 50 49 48 47 45 43 42 41 40 39 38 38 38 38 38 38 38 39 41 45 52 
66 57 48 40 34 29 25 22 20 19 18 18 18 18 18 18 18 17 16 16 16 16 16 16 16 16 15 15 15 15 15 15 15 15 15 15 15 15 15 15 15 15 15 15 15 15 15 15 15 16 17 18 18 17 16 14 14 14 14 14 14 15 15 16 17 19 21 23 26 29 32 35 39 43 47 52 56 61 66 71 76 81 87 92 97 103 108 113 117 120 122 123 123 124 124 124 123 123 123 123 123 123 123 124 124 124 125 126 128 129 129 128 127 127 127 127 127 127 127 127 127 127 127 127 127 126 126 125 125 125 125 125 125 125 125 125 125 125 125 125 125 125 124 123 123 123 122 122 121 121 121 121 121 121 121 121 121 121 121 121 121 121 121 121 121 121 121 121 121 121 121 121 121 121 121 121 121 121 122 123 123 123 124 124 125 127 128 128 127 124 119 113 104 95 86 77 69 60 52 44 37 32 29 26 25 24 23 22 21 20 20 20 20 20 20 20 20 20 20 21 22 23 24 25 26 27 28 29 30 31 32 34 36 39 42 46 50 53 56 57 58 59 59 59 60 62 63 64 66 67 69 69 69 68 66 64 62 61 59 58 56 54 53 52 51 50 49 48 47 45 43 42 41 40 39 39 39 39 39 39 39 39 39 40 40 37 
65 56 48 40 34 29 25 22 20 19 18 18 18 18 18 18 18 17 16 16 16 16 16 16 16 16 15 15 15 15 15 15 15 15 15 15 15 15 15 15 15 15 15 15 15 15 15 15 15 15 16 16 16 16 15 14 14 14 14 15 15 16 17 18 19 21 24 27 30 33 37 40 44 49 54 59 63 68 73 79 84 89 95 100 105 110 115 119 122 124 125 125 125 125 124 124 123 123 123 123 123 123 123 124 124 124 125 126 128 129 130 130 129 129 129 129 129 129 129 129 129 129 129 129 129 128 128 127 127 127 127 127 127 127 127 127 127 127 127 127 127 126 125 125 125 124 124 123 123 122 122 122 122 122 122 122 122 122 122 122 122 122 122 122 122 122 122 122 122 122 122 122 122 122 122 122 122 122 123 123 123 124 124 125 125 126 127 127 126 124 120 114 106 97 88 80 72 64 56 48 40 34 30 27 25 24 23 22 21 20 20 20 20 20 20 20 20 20 20 21 22 23 24 25 26 27 28 29 30 31 32 34 36 39 42 46 51 55 58 60 61 61 61 61 62 64 65 66 67 68 69 68 67 66 65 63 61 60 59 58 56 54 53 52 51 50 49 48 47 45 44 43 42 41 40 40 40 40 40 40 40 40 40 40 39 34 
63 56 48 40 34 29 25 22 20 19 18 18 18 18 18 18 18 17 16 16 16 16 16 16 16 16 15 15 15 15 15 15 15 15 15 15 15 15 15 15 15 15 15 15 15 15 15 15 15 15 15 15 15 15 15 14 14 15 15 16 16 17 18 20 22 24 27 31 35 38 42 46 50 55 60 65 70 75 80 86 91 96 102 107 112 117 121 124 126 127 127 126 125 125 124 124 123 123 123 123 123 123 123 124 124 124 125 126 128 130 131 131 131 131 131 131 131 131 131 131 131 131 131 131 131 130 130 129 129 129 129 129 129 129 129 129 129 129 129 129 128 127 127 127 126 126 125 125 124 124 123 123 123 123 123 123 123 123 123 123 123 123 123 123 123 123 123 123 123 123 123 123 123 123 123 123 123 123 123 123 124 124 125 125 125 126 126 126 126 124 120 115 108 100 92 84 76 68 60 52 44 37 32 29 26 24 23 22 21 20 20 20 20 20 20 20 20 20 20 20 21 22 23 24 25 26 27 28 29 31 32 34 36 39 42 46 51 55 58 61 62 63 63 63 64 65 66 67 68 68 68 67 66 65 64 62 60 59 58 57 56 54 53 52 51 50 49 48 47 45 44 43 42 41 41 41 41 41 41 41 41 41 41 41 42 49 
80 59 48 40 34 29 25 22 20 19 18 18 18 18 18 18 18 17 16 16 16 16 16 16 16 16 15 15 15 15 15 15 15 15 15 15 15 15 15 15 15 15 15 15 15 15 15 15 15 15 15 15 15 15 15 15 15 16 16 17 18 19 20 22 25 28 31 35 39 43 47 52 57 62 67 72 77 82 87 93 98 103 109 114 118 122 125 127 128 128 127 126 125 125 124 124 123 123 123 123 123 123 123 124 124 124 125 126 128 130 132 133 133 133 133 133 133 133 133 133 133 133 133 133 133 132 132 131 131 131 131 131 131 131 131 131 131 131 131 130 129 129 129 128 128 127 127 126 126 125 125 124 124 124 124 124 124 124 124 124 124 124 124 124 124 124 124 124 124 124 124 124 124 124 124 124 124 124 124 124 124 125 125 125 125 125 125 125 125 124 121 117 111 103 95 87 79 71 63 55 48 41 35 31 27 25 23 22 21 20 20 20 20 20 20 20 20 20 20 20 21 22 23 24 25 26 27 28 29 31 32 33 35 38 41 45 50 54 58 61 63 64 65 65 65 66 66 67 67 67 66 65 64 63 62 61 59 58 57 56 55 54 53 52 51 50 49 48 47 45 44 43 42 42 42 42 42 42 42 42 42 42 43 43 42 37 
62 53 46 39 34 29 25 22 20 19 18 18 18 18 18 18 18 17 16 16 16 16 16 16 16 16 16 16 16 15 15 15 15 15 15 15 15 15 15 15 15 15 15 15 15 15 15 15 15 15 15 15 15 15 15 16 16 17 17 18 19 21 23 25 28 32 36 40 44 49 53 58 63 69 74 79 84 89 94 100 105 110 115 119 122 125 127 128 128 127 126 126 125 125 124 124 123 123 123 123 123 123 123 124 124 124 125 126 128 130 133 135 135 135 135 135 135 135 135 135 135 135 135 135 135 134 134 133 133 133 133 133 133 133 133 133 133 133 132 131 131 131 130 130 129 129 128 128 127 127 126 125 125 125 125 125 125 125 125 125 125 125 125 125 125 125 125 125 125 125 125 125 125 125 125 125 125 125 125 125 125 125 125 125 125 125 125 125 125 124 122 119 114 107 99 91 83 75 67 60 53 46 39 33 29 26 24 22 21 20 20 20 20 20 20 20 20 20 20 20 21 22 23 24 26 27 28 28 29 30 31 32 34 37 40 44 48 52 56 59 62 64 65 65 65 66 66 66 65 65 64 63 62 61 60 59 58 57 56 55 54 53 52 51 50 49 48 47 47 46 45 44 43 43 43 43 43 43 43 43 43 44 46 47 46 38 
36 46 44 39 34 29 25 22 20 19 18 18 18 18 18 18 18 17 16 16 16 16 16 16 16 16 16 16 16 15 15 15 15 15 15 15 15 15 15 15 15 15 15 15 15 15 15 15 15 15 15 15 15 15 16 17 17 18 19 20 21 23 26 29 32 36 41 46 50 55 60 65 70 76 81 86 91 96 101 107 112 116 120 123 125 126 127 127 126 126 126 126 125 125 124 124 123 123 123 123 123 123 123 123 124 124 125 126 128 130 133 136 137 137 137 137 137 137 137 137 137 137 137 137 137 136 136 135 135 135 135 135 135 135 135 135 135 134 133 133 133 132 132 131 131 130 130 129 129 128 127 126 126 126 126 126 126 126 126 126 126 126 126 126 126 126 126 126 126 126 126 126 126 126 126 126 126 126 126 126 126 126 126 126 126 126 126 126 125 124 123 121 117 111 104 96 88 80 72 65 58 51 44 37 32 28 25 23 21 20 20 20 20 20 20 20 20 20 20 20 21 22 23 24 26 27 28 28 29 30 31 32 34 36 39 43 46 50 53 57 60 62 63 63 63 64 64 63 63 63 62 62 61 60 59 58 57 57 56 55 54 53 52 51 50 49 48 48 47 46 46 45 44 44 44 44 44 44 44 44 45 47 50 53 59 74 
65 54 46 40 34 29 25 22 20 18 18 18 18 18 18 18 18 17 17 17 17 17 17 17 17 17 17 17 16 16 15 15 15 15 15 15 15 15 15 15 15 15 15 15 15 15 15 15 15 15 15 15 15 15 16 17 18 19 20 22 24 26 29 33 37 41 46 51 56 61 67 72 77 83 88 93 98 103 108 113 117 120 123 125 126 126 126 126 126 126 126 126 125 125 124 124 123 123 123 123 123 123 123 123 124 124 125 126 127 129 132 136 138 139 139 139 139 139 139 139 139 139 139 139 139 138 138 137 137 137 137 137 137 137 137 137 136 135 135 135 134 134 133 133 132 132 131 131 130 129 128 128 128 127 127 127 127 127 127 127 127 127 127 127 127 127 127 127 127 127 127 127 127 127 127 127 127 127 127 127 127 127 127 127 127 127 127 126 125 124 123 122 119 115 109 101 93 85 77 70 63 56 49 42 36 31 27 24 22 20 20 20 20 20 20 20 20 20 20 20 21 22 23 24 26 27 27 28 29 30 31 32 33 35 38 41 44 47 50 54 57 59 60 60 60 60 60 60 60 60 60 60 60 59 59 58 57 57 56 55 54 53 52 51 51 50 50 49 48 48 47 46 45 45 45 45 45 45 45 45 47 50 54 59 64 60 
73 59 49 41 34 29 25 22 19 18 18 18 18 18 18 18 18 17 17 18 18 19 19 19 19 19 19 18 17 17 16 16 15 15 15 15 15 15 15 15 15 15 15 15 15 15 15 15 15 15 15 15 15 16 17 18 19 21 22 24 27 30 33 37 42 47 52 57 63 68 74 79 84 90 95 100 105 110 114 118 121 123 124 125 125 125 125 125 125 125 125 125 125 125 124 124 123 123 123 123 123 123 123 123 124 124 125 126 127 129 132 135 138 140 141 142 142 142 142 142 142 142 142 142 141 140 140 139 139 139 139 139 139 139 139 138 137 137 137 136 136 135 135 134 134 133 133 132 131 130 130 130 129 129 128 128 128 128 128 128 128 128 128 128 128 128 128 128 128 128 128 128 128 128 128 128 128 128 128 128 128 128 128 128 128 128 128 127 126 125 124 123 122 119 114 107 99 91 83 76 68 61 54 47 40 34 29 26 23 21 20 20 20 20 20 20 20 20 20 20 21 22 23 24 25 26 27 28 29 30 31 32 33 35 37 39 42 44 47 50 52 54 55 56 57 57 57 58 58 58 58 58 58 58 58 58 57 57 57 56 55 54 53 53 52 52 51 50 50 49 48 47 46 46 46 46 46 46 46 47 49 52 57 65 78 107 
80 62 50 41 34 29 25 21 19 18 18 18 18 18 18 18 18 18 18 19 20 21 22 22 22 22 21 20 19 19 18 17 16 16 15 15 15 15 15 15 15 15 15 15 15 15 15 15 15 15 15 15 16 17 18 20 21 23 25 27 30 34 38 42 47 52 58 63 69 75 81 86 91 96 102 107 112 116 119 121 123 124 124 124 124 124 124 124 124 124 124 124 124 124 124 124 123 123 123 123 123 123 123 123 124 124 125 125 126 128 131 134 137 140 142 144 145 145 145 145 145 145 144 144 143 142 142 141 141 141 141 141 141 141 140 139 139 139 138 138 137 137 136 136 135 135 134 133 132 132 132 131 131 130 129 129 129 129 129 129 129 129 129 129 129 129 129 129 129 129 129 129 129 129 129 129 129 129 129 129 129 129 129 129 129 129 129 129 128 127 126 125 124 122 118 113 106 98 90 83 75 67 59 52 45 39 33 28 25 22 21 20 20 20 20 20 20 20 20 20 21 22 23 24 25 26 27 28 29 30 31 32 33 34 36 38 40 42 44 46 48 49 51 52 53 54 54 55 56 56 57 57 57 57 57 57 57 57 57 57 57 56 55 55 54 54 53 52 52 51 50 49 48 47 47 47 47 47 47 48 50 53 58 66 79 109 
90 62 49 40 33 28 24 21 19 18 18 18 18 18 18 18 18 18 19 20 21 23 24 26 26 25 24 23 22 21 20 19 18 17 16 15 15 15 15 15 15 15 15 15 15 15 15 15 15 15 15 15 16 18 19 21 23 25 28 31 34 38 43 48 53 58 64 69 75 81 87 92 97 102 108 113 117 120 122 123 123 123 123 123 123 123 123 123 123 123 123 123 123 123 123 123 123 123 123 123 123 123 123 123 123 124 124 125 126 128 130 133 136 139 142 144 146 147 147 147 147 147 146 146 145 144 144 143 143 143 143 143 143 142 141 141 141 140 140 139 139 138 138 137 137 136 135 134 134 134 133 133 132 131 131 131 130 130 130 130 130 130 130 130 130 130 130 130 130 130 130 130 130 130 130 130 130 130 130 130 130 130 130 130 130 130 130 130 130 129 128 127 126 125 123 119 113 106 98 90 82 74 66 58 50 43 37 31 27 24 22 21 20 20 20 20 20 20 20 20 21 22 23 24 25 26 27 28 29 30 31 32 33 34 35 36 38 40 42 43 44 46 47 48 49 51 52 53 54 54 55 56 56 57 57 57 57 58 58 59 59 58 57 57 57 57 56 55 54 53 52 51 50 48 48 48 48 48 47 48 50 53 57 62 65 57 
44 49 44 38 32 27 23 20 18 18 18 18 18 18 18 18 18 19 20 21 22 24 26 29 30 29 28 27 25 24 22 21 20 18 17 16 15 15 15 15 15 15 15 15 15 15 15 15 15 15 15 16 17 19 21 23 25 28 31 35 39 43 48 53 59 64 70 75 81 87 93 98 103 108 113 117 120 122 123 123 123 123 123 123 123 123 123 123 123 123 123 123 123 123 123 123 123 123 123 123 123 123 123 123 123 123 124 124 125 127 129 132 134 137 140 143 145 147 148 148 149 149 148 148 147 146 146 145 145 145 145 145 145 144 143 143 143 142 141 141 140 140 139 139 138 137 136 136 136 135 135 134 133 133 133 132 132 132 131 131 131 131 131 131 131 131 131 131 131 131 131 131 131 131 131 131 131 131 131 131 131 131 131 131 131 131 131 131 131 131 130 130 129 128 127 124 120 114 106 98 89 81 72 64 56 49 42 35 30 26 24 22 20 20 20 20 20 20 20 20 21 22 23 24 25 26 27 28 29 30 31 32 33 34 35 36 37 38 40 41 42 43 44 45 47 48 49 50 51 52 53 54 55 56 57 57 57 58 59 61 61 60 59 59 59 59 59 58 57 56 55 53 51 49 49 49 49 48 48 48 50 52 56 60 62 55 
45 47 42 36 30 26 22 19 18 18 18 18 18 18 18 18 19 19 20 22 23 25 28 31 33 33 32 30 28 26 25 23 21 19 18 17 15 15 15 15 15 15 15 15 15 15 15 15 15 15 16 17 18 20 22 25 28 31 35 39 44 49 54 59 65 70 76 81 87 93 99 104 109 113 116 119 121 122 122 122 122 122 122 122 122 122 122 122 122 122 122 122 122 122 122 122 122 122 122 122 122 122 122 122 122 123 123 124 125 126 128 130 132 135 138 141 143 145 147 148 149 149 149 149 149 148 148 147 147 147 147 147 147 146 145 145 145 144 143 143 142 142 141 140 139 138 138 138 137 137 136 135 135 135 134 134 134 133 133 133 132 132 132 132 132 132 132 132 132 132 132 132 132 132 132 132 132 132 132 132 132 132 132 132 132 132 132 132 132 132 132 132 132 131 130 129 126 121 114 105 96 88 79 71 62 54 47 40 34 29 26 23 21 20 20 20 20 20 20 20 21 22 23 24 25 26 27 28 29 30 31 32 33 34 35 36 37 38 39 40 41 42 43 44 45 46 47 48 50 51 52 53 54 55 56 57 57 58 60 62 62 62 61 61 61 61 61 61 61 60 58 56 53 51 50 50 49 49 48 48 50 52 56 61 70 95 
73 52 42 35 29 25 21 19 18 18 18 18 18 18 18 19 19 19 20 22 24 26 29 32 35 36 35 33 31 29 27 25 23 21 19 17 15 15 15 15 15 15 15 15 15 15 15 15 15 15 16 18 20 22 24 27 31 35 39 44 49 54 60 65 71 76 82 87 93 99 105 110 114 117 119 120 121 121 121 121 121 121 121 121 121 121 121 121 121 121 121 121 121 121 121 121 121 121 121 121 121 121 121 121 122 122 123 123 124 125 127 129 131 133 135 138 140 142 144 146 147 148 148 149 149 149 149 149 148 148 148 148 148 148 147 147 147 147 146 146 145 144 143 142 141 140 140 140 139 138 137 137 137 136 136 136 135 135 135 134 134 134 133 133 133 133 133 133 133 133 133 133 133 133 133 133 133 133 133 133 133 134 134 134 134 134 134 134 134 134 134 134 134 134 134 133 131 127 121 113 104 95 86 77 69 60 52 45 39 33 28 25 22 21 20 20 20 20 20 20 21 22 23 24 25 26 27 28 29 30 31 32 33 34 35 36 37 38 39 40 41 42 43 44 45 46 47 48 49 50 51 52 53 54 55 56 57 58 60 62 63 63 63 63 64 64 64 64 64 63 61 58 54 52 51 50 50 49 48 48 49 51 54 58 63 65 
61 47 39 33 28 24 21 19 18 18 18 18 18 18 19 19 19 19 20 22 24 27 30 33 36 38 38 37 35 33 30 27 25 22 20 18 16 15 15 15 15 15 15 15 15 15 15 15 15 16 17 19 21 24 27 30 34 39 44 49 54 59 65 71 77 82 88 93 99 105 110 114 117 119 120 120 120 120 120 120 120 120 120 120 120 120 120 120 120 120 120 120 120 120 120 120 120 120 120 120 120 120 120 121 121 122 122 122 123 124 126 127 129 131 133 135 137 139 141 143 144 145 146 147 147 148 148 149 149 149 149 149 149 149 149 149 149 149 149 149 148 147 146 145 144 143 143 142 141 140 139 139 138 138 138 137 137 137 136 136 136 135 135 135 135 135 135 135 135 135 135 135 135 135 135 135 135 135 135 135 135 136 136 136 136 136 136 136 137 137 137 137 137 138 138 137 135 132 127 120 112 103 94 84 75 67 58 51 44 37 32 27 24 22 20 20 20 20 20 20 21 22 23 24 25 26 27 28 29 30 31 32 33 34 35 36 37 38 39 40 41 42 43 44 45 46 47 48 49 50 51 52 53 54 55 56 57 58 60 62 63 63 64 65 66 67 67 67 66 64 62 59 55 53 52 51 50 49 49 48 49 50 52 56 62 74 
44 39 34 30 26 22 20 18 18 18 18 18 18 19 19 19 19 19 20 22 24 27 31 34 37 39 40 39 38 36 33 29 26 23 21 19 16 15 15 15 15 15 15 15 15 15 15 15 16 17 18 20 23 26 30 34 38 43 48 54 59 65 71 77 83 88 94 99 105 110 114 117 119 120 120 120 120 120 120 120 120 120 120 120 120 120 120 120 120 120 120 120 120 120 120 120 120 120 120 120 120 120 120 120 121 121 121 121 122 123 124 126 127 129 131 133 134 136 138 139 140 141 142 143 144 145 146 147 148 148 149 149 150 150 150 151 151 151 151 151 151 151 150 149 148 147 146 145 144 143 142 141 140 140 139 139 139 138 138 138 137 137 137 137 137 137 137 137 137 137 137 137 137 137 137 137 137 137 137 137 137 138 138 138 138 138 138 138 139 139 140 140 140 141 141 141 140 137 132 126 119 110 101 91 82 73 65 57 49 42 36 30 26 23 21 20 20 20 20 20 21 22 23 24 25 26 27 28 29 30 31 32 33 34 35 36 37 38 39 40 41 42 43 44 45 46 47 48 49 50 51 52 53 54 55 56 56 57 59 61 62 63 65 66 68 69 69 68 67 65 63 60 56 54 53 52 51 50 49 48 48 48 49 51 54 60 
29 32 30 27 24 21 19 18 18 18 18 18 19 19 19 19 19 19 20 22 24 27 31 35 38 41 42 41 40 38 35 31 27 24 22 19 16 15 15 15 15 15 15 15 15 15 15 16 17 18 19 22 25 28 32 37 42 47 53 59 64 70 76 82 88 94 99 105 110 114 117 119 120 120 120 120 120 120 120 120 120 120 120 120 120 120 120 120 120 120 120 120 120 120 120 120 120 120 120 120 120 120 120 120 120 120 120 120 121 122 123 124 125 127 129 130 131 133 134 135 137 138 139 140 141 142 143 144 145 146 147 148 149 149 150 151 151 152 152 152 153 153 152 152 151 150 149 148 147 146 145 144 143 142 141 141 140 140 140 139 139 139 139 139 139 139 139 139 139 139 139 139 139 139 139 139 139 139 139 139 139 140 140 140 140 140 140 140 141 141 142 143 143 144 145 145 144 141 137 131 125 117 108 98 89 80 71 62 54 47 40 34 28 24 22 20 20 20 20 20 21 22 23 24 25 26 27 28 29 30 31 32 33 34 35 36 37 38 39 40 41 42 43 44 45 46 47 48 49 50 51 52 53 54 55 55 56 57 58 60 61 63 65 67 69 70 70 69 67 65 62 60 57 55 54 53 52 51 50 48 47 47 47 46 46 46 
41 31 27 24 22 20 18 18 18 18 18 19 19 19 19 19 19 19 20 22 24 27 31 35 39 42 43 42 41 39 36 32 28 25 22 19 16 15 15 15 15 15 15 15 15 15 15 16 17 19 21 24 27 31 35 40 46 51 57 63 69 75 81 87 93 99 104 109 113 116 118 119 119 119 119 119 119 119 119 119 119 119 119 119 119 119 119 119 119 119 119 119 119 119 119 119 119 119 119 119 119 119 119 119 119 119 119 119 120 121 122 123 124 125 126 127 129 130 131 132 133 134 135 136 138 139 140 141 142 143 144 145 146 147 148 149 150 151 151 152 153 153 153 153 153 152 152 151 150 149 148 147 146 145 144 143 142 142 141 141 141 141 141 141 141 141 141 141 141 141 140 140 140 140 140 140 140 140 140 141 141 142 142 142 142 142 142 142 143 143 144 145 146 147 148 148 147 145 141 136 130 123 115 105 96 87 78 68 60 52 44 37 31 26 23 21 20 20 20 20 21 22 23 24 25 26 27 28 29 30 31 32 33 34 35 36 37 38 39 40 41 42 43 44 45 46 47 48 49 50 51 52 53 54 54 55 55 56 57 59 60 62 64 66 68 69 69 68 66 64 61 59 57 55 54 53 52 51 50 48 47 46 45 42 38 27 
29 25 23 21 20 19 18 18 18 18 19 19 19 19 19 19 19 19 20 22 24 27 31 35 39 42 43 42 40 38 35 31 28 25 22 19 16 15 15 15 15 15 15 15 15 15 16 17 18 20 22 26 29 34 39 44 50 56 62 68 74 80 87 93 99 104 108 112 115 117 118 118 118 118 118 118 118 118 118 118 118 118 118 118 118 118 118 118 118 118 118 118 118 118 118 118 118 118 118 118 118 118 118 118 118 118 118 119 119 120 121 122 123 124 125 126 127 128 129 130 131 132 133 134 135 136 137 138 139 140 141 142 143 144 145 146 147 148 149 150 151 151 152 152 153 153 153 152 152 151 151 150 149 148 147 146 145 144 144 143 143 143 143 143 143 143 143 143 142 142 141 141 141 141 141 141 141 142 142 143 143 144 144 144 144 144 144 144 145 145 146 147 149 150 151 151 150 148 144 140 134 128 121 112 103 94 84 74 65 57 49 41 35 29 25 22 21 20 20 20 21 22 23 24 25 26 27 28 29 30 31 32 33 34 35 36 37 38 40 41 42 43 44 45 46 47 48 49 50 51 52 52 53 53 54 54 55 55 56 58 59 61 63 65 66 66 66 65 64 62 60 59 57 55 54 53 52 52 50 48 46 45 44 41 37 27 
21 20 19 18 18 18 18 18 18 19 19 19 19 19 19 19 19 20 21 22 24 27 31 35 39 41 42 41 39 36 33 30 27 24 21 19 16 15 15 15 15 15 15 15 15 16 17 18 19 21 24 28 32 37 42 48 54 60 67 73 79 85 92 99 104 109 112 114 116 117 117 117 117 117 117 117 117 117 117 117 117 117 117 117 117 117 117 117 117 117 117 117 117 117 117 117 117 117 117 117 117 117 117 117 117 117 118 118 118 119 120 121 122 123 124 125 125 126 127 128 129 130 131 132 133 134 135 136 137 138 139 139 140 141 142 143 144 145 146 147 148 148 149 150 151 151 152 152 152 152 152 152 151 151 150 149 148 147 146 145 145 145 145 145 145 144 144 144 143 143 142 142 142 142 142 143 143 144 144 145 145 146 146 146 146 146 146 146 147 147 148 149 151 152 153 153 152 150 147 143 138 132 126 118 109 100 90 80 71 62 54 46 39 33 28 24 22 21 20 20 21 22 23 24 25 26 27 28 29 30 31 32 33 34 36 37 38 40 41 42 43 44 45 47 48 49 50 51 52 52 53 53 53 53 53 54 54 54 55 57 58 59 61 62 63 63 63 63 62 61 59 58 57 55 54 53 52 52 50 48 46 45 44 43 42 38 
17 17 17 17 17 18 18 18 19 19 19 19 19 19 19 19 20 20 21 22 24 27 31 35 38 40 40 39 37 34 31 28 26 23 20 18 16 15 15 15 15 15 15 15 16 17 18 19 20 23 26 30 35 40 46 52 59 65 72 78 84 90 97 104 109 113 115 116 116 116 116 116 116 116 116 116 116 116 116 116 116 116 116 116 116 116 116 116 116 116 116 116 116 116 116 116 116 116 116 116 116 116 116 116 116 117 117 117 118 118 119 120 121 122 123 123 124 124 125 126 127 128 129 130 131 132 133 134 135 136 136 137 138 138 139 140 141 142 143 144 145 145 146 147 148 148 149 149 150 151 151 152 152 152 151 151 150 149 148 147 147 147 147 146 146 145 145 145 144 144 143 143 143 143 143 144 145 146 146 147 147 148 148 148 148 148 148 148 149 149 150 151 152 153 153 153 152 150 148 145 141 136 130 123 115 106 96 86 77 68 59 51 44 37 31 26 23 22 21 20 21 22 23 24 25 26 27 28 29 30 31 32 34 35 37 39 40 42 43 44 45 46 48 49 50 51 52 53 54 54 54 54 53 53 53 53 53 54 54 55 56 58 59 60 60 60 60 60 60 59 58 57 56 55 54 53 52 51 50 48 46 45 45 46 50 63 
17 16 16 17 18 18 18 19 19 19 19 19 19 19 19 20 20 20 21 22 24 27 31 34 37 38 38 36 34 32 29 26 24 22 19 17 16 15 15 15 15 15 15 16 17 18 19 20 22 25 28 33 38 44 50 57 64 70 77 83 89 95 102 108 113 116 117 117 116 116 116 116 116 116 116 116 116 116 116 116 116 116 116 116 116 116 116 116 116 116 116 116 116 116 116 116 116 116 116 116 116 116 116 116 116 116 116 117 117 117 118 119 120 121 121 122 122 123 123 124 125 126 127 128 129 130 131 132 133 133 134 135 135 136 137 137 138 139 140 141 142 142 143 144 145 145 146 146 147 148 149 150 150 151 151 151 150 150 149 149 148 148 148 147 147 146 146 146 145 145 144 144 144 144 144 145 146 147 148 149 149 150 150 150 150 150 150 150 151 151 152 152 152 152 152 151 151 150 148 146 143 139 134 128 121 112 102 93 83 74 65 57 49 41 35 29 25 23 22 21 21 22 23 24 25 26 27 28 29 30 31 33 35 36 38 40 42 44 45 47 48 49 51 52 53 54 55 56 56 56 55 54 53 53 53 53 53 53 54 54 55 56 57 58 58 58 58 58 58 58 57 57 56 55 54 53 52 51 50 48 46 45 45 47 52 65 
21 17 17 18 18 18 19 19 19 19 19 19 19 19 20 20 20 20 21 22 24 27 30 33 35 36 35 33 31 29 27 24 22 20 18 16 15 15 15 15 15 15 15 16 17 18 19 21 23 27 31 36 42 48 55 62 69 75 82 88 94 100 106 112 116 118 118 117 116 116 116 116 116 116 116 116 116 116 116 116 116 116 116 116 116 116 116 116 116 116 116 116 116 116 116 116 116 116 116 116 116 116 116 116 116 116 116 116 116 117 117 118 119 119 120 120 121 121 121 122 123 124 125 126 127 128 129 130 130 131 132 132 133 134 134 135 136 137 137 138 139 139 140 141 142 142 143 143 144 145 146 147 147 148 148 149 149 149 149 149 149 149 149 148 148 147 147 147 146 146 145 145 145 145 145 146 147 148 149 150 151 152 152 152 152 152 152 152 153 153 153 152 151 150 149 149 149 148 147 146 144 141 137 132 126 118 109 99 89 80 71 62 54 46 39 33 28 25 23 22 21 22 23 24 25 26 27 28 29 30 32 34 36 38 40 42 44 46 47 49 51 52 54 55 56 57 58 59 59 58 57 55 53 53 53 53 53 53 53 54 54 55 56 56 56 56 56 56 56 56 56 56 56 55 55 54 53 51 50 48 46 45 44 45 48 56 
11 16 18 19 19 19 19 19 19 19 19 19 19 20 20 20 20 20 21 22 24 26 29 31 33 33 32 30 28 26 24 22 20 19 17 16 15 15 15 15 15 15 16 17 18 19 20 22 25 29 34 40 46 53 60 67 74 80 86 92 98 104 110 115 118 119 118 117 116 116 116 116 116 116 116 116 116 116 116 116 116 116 116 116 116 116 116 116 116 116 116 116 116 116 116 116 116 116 116 116 116 116 116 116 116 116 116 116 116 116 116 117 117 118 118 119 119 119 120 121 121 122 123 124 125 126 127 127 128 129 129 130 131 131 132 133 134 134 134 135 136 136 137 138 139 139 140 140 141 142 143 144 144 145 145 146 146 146 147 147 148 148 149 149 149 148 148 148 147 147 146 146 146 146 146 147 148 149 150 151 152 153 154 154 154 154 154 154 154 153 152 150 148 147 147 147 147 146 145 144 143 141 138 135 130 123 115 105 95 86 77 68 59 51 43 37 31 27 24 23 22 22 23 24 25 26 27 28 29 31 33 35 37 40 42 44 46 48 49 51 53 55 57 58 59 60 60 60 60 59 57 55 53 53 53 53 53 53 53 53 54 55 55 55 55 55 55 55 55 55 55 55 55 55 55 55 54 52 50 48 46 44 42 41 39 30 
20 21 21 21 21 21 21 21 21 21 21 21 20 20 20 20 20 21 21 22 23 25 27 29 30 29 28 27 25 24 22 21 19 18 16 15 15 15 15 15 15 16 17 18 19 20 21 24 27 32 38 44 51 58 65 72 78 84 90 96 102 108 113 117 119 119 118 117 116 116 116 116 116 116 116 116 116 116 116 116 116 116 116 116 116 116 116 116 116 116 116 116 116 116 116 116 116 116 116 116 116 116 116 116 116 116 116 116 116 116 116 116 116 117 117 117 117 118 119 119 120 121 121 122 123 124 124 125 126 126 127 128 128 129 130 131 131 131 132 132 133 134 135 135 136 136 137 137 138 139 140 141 141 142 142 143 143 143 144 144 145 146 147 147 148 148 148 148 148 148 147 147 147 147 147 148 149 150 151 152 153 154 155 155 155 155 155 155 154 152 149 147 145 145 145 145 145 144 143 142 141 140 139 137 133 127 120 111 101 92 83 74 65 56 48 41 35 30 26 24 22 22 23 24 25 26 27 28 29 31 34 37 40 42 44 46 48 50 51 53 55 57 59 61 62 62 61 60 59 58 57 55 53 53 53 53 53 53 53 53 54 55 55 55 55 55 55 55 55 55 55 55 55 55 55 55 55 53 51 49 46 44 42 39 36 32 
37 27 24 23 23 23 23 23 23 23 23 22 21 21 21 21 21 21 21 22 22 23 24 26 26 25 24 24 23 22 20 19 18 17 15 15 15 15 15 15 15 16 17 18 19 21 23 26 30 36 42 48 55 62 69 76 82 88 94 100 106 111 115 118 119 119 118 117 116 116 116 116 116 116 116 116 116 116 116 116 116 116 116 116 116 116 116 116 116 116 116 116 116 116 116 116 116 116 116 116 116 116 116 116 116 116 116 116 116 116 116 116 116 116 116 116 116 117 117 118 119 119 119 120 121 121 122 123 123 124 125 125 126 127 128 128 128 129 129 130 131 132 132 132 133 134 134 135 135 136 137 138 138 139 139 140 140 141 141 141 142 143 144 144 145 145 146 146 146 147 147 147 147 148 148 149 150 151 152 153 154 155 156 156 156 155 155 154 152 149 146 144 143 143 143 143 143 142 141 140 140 139 139 138 135 130 124 116 107 98 89 80 70 61 53 45 39 33 28 25 23 22 23 24 25 26 27 28 29 32 35 38 42 45 47 49 50 52 54 56 58 60 62 63 63 63 61 60 59 58 57 55 53 53 53 53 53 53 53 53 54 55 55 55 55 55 55 55 55 55 55 55 56 56 56 56 56 54 52 49 47 44 42 39 37 39 
30 27 26 25 25 25 25 25 25 25 24 23 22 22 22 22 21 21 21 21 22 22 23 23 23 22 22 21 20 19 18 17 16 16 15 15 15 15 15 15 16 17 18 19 20 22 25 29 34 40 46 53 60 67 74 81 87 93 99 104 109 113 116 118 118 118 118 117 116 116 116 116 116 116 116 116 116 116 116 116 116 116 116 116 116 116 116 116 116 116 116 116 116 116 116 116 116 116 116 116 116 116 116 116 116 116 116 116 116 116 116 116 116 116 116 116 116 116 116 117 117 117 118 118 119 119 120 120 121 122 122 123 124 125 125 125 126 126 127 128 129 129 129 130 131 131 132 132 132 133 134 135 135 136 136 137 138 138 138 138 139 140 141 141 142 142 143 143 143 144 144 145 146 147 148 149 150 151 152 153 154 155 156 156 155 154 153 151 149 146 143 141 141 141 141 141 141 140 139 139 139 138 138 138 136 132 127 120 112 103 94 85 75 66 58 50 43 36 30 26 24 23 23 24 25 26 27 28 30 32 36 40 44 47 49 51 52 54 56 58 61 63 64 64 64 63 61 60 59 58 57 55 53 53 53 53 53 53 53 53 54 55 55 55 55 55 55 55 55 55 55 55 56 57 57 58 58 56 53 50 48 45 43 40 35 26 
18 26 28 28 27 27 27 27 26 26 25 24 24 23 23 22 21 21 21 21 21 21 22 22 21 21 20 19 18 18 17 16 16 15 15 15 15 15 15 16 17 18 19 20 21 24 27 32 38 44 50 57 64 71 78 85 92 98 103 108 112 114 116 117 117 117 117 117 116 116 116 116 116 116 116 116 116 116 116 116 116 116 116 116 116 116 116 116 116 116 116 116 116 116 116 116 116 116 116 116 116 116 116 116 116 116 116 116 116 116 116 116 116 116 116 116 116 116 116 116 116 116 117 117 117 117 118 118 119 119 120 121 122 122 122 123 123 124 125 126 126 126 127 128 128 129 129 129 129 130 131 132 132 133 134 135 135 135 135 136 136 137 138 138 139 139 140 140 140 141 141 142 143 144 145 146 147 149 150 151 152 153 154 154 153 151 149 147 145 143 140 139 139 139 139 139 139 138 137 137 137 137 137 137 136 134 130 124 117 109 100 90 80 71 62 54 47 40 33 28 25 23 23 24 25 26 27 28 30 33 36 40 45 48 51 53 54 55 57 59 62 64 65 65 64 62 60 59 58 57 56 55 53 53 53 53 53 53 53 53 54 55 55 55 55 55 55 55 55 55 55 55 56 57 58 60 60 58 55 52 50 47 46 44 38 15 
28 34 33 32 30 29 29 28 27 27 26 26 25 24 23 22 21 21 21 21 21 21 21 21 21 20 19 18 18 17 17 16 16 15 15 15 15 15 15 16 17 18 19 21 23 26 30 36 42 48 55 62 69 76 83 90 96 102 107 111 114 115 116 116 116 116 116 116 116 116 116 116 116 116 116 116 116 116 116 116 116 116 116 116 116 116 116 116 116 116 116 116 116 116 116 116 116 116 116 116 116 116 116 116 116 116 116 116 116 116 116 116 116 116 116 116 116 116 116 116 116 116 116 116 116 116 116 116 117 117 118 119 119 119 120 120 121 122 123 123 123 124 125 125 126 126 126 126 127 128 129 129 130 131 132 132 132 132 133 133 134 134 135 135 136 136 137 137 137 138 138 139 140 141 141 142 143 145 146 147 148 149 150 150 149 147 145 143 141 139 137 137 137 137 137 137 137 136 136 136 136 136 136 136 136 135 132 127 121 114 105 95 85 76 67 59 51 43 36 31 26 24 24 24 25 26 27 28 30 33 36 40 45 48 51 53 54 55 57 59 61 63 64 64 63 61 60 59 58 57 56 55 53 53 53 53 53 53 53 53 54 55 55 55 55 55 55 55 55 55 55 55 56 57 59 61 61 59 57 54 52 50 50 51 57 77 
67 49 41 37 34 32 31 29 28 28 28 27 26 25 24 23 22 21 21 21 21 21 21 21 21 20 19 18 18 17 17 16 16 15 15 15 15 15 16 17 18 19 21 23 26 29 34 40 46 53 60 67 74 81 88 94 100 106 110 113 115 115 115 115 115 115 115 115 115 115 115 115 115 115 115 115 115 115 115 115 115 115 115 115 115 115 115 115 115 115 115 115 115 115 115 115 115 115 115 115 115 115 115 115 115 115 115 115 115 115 115 115 115 115 115 115 115 115 115 115 115 115 115 115 115 115 115 115 116 116 116 117 117 117 117 118 119 120 120 120 121 122 122 123 123 123 123 124 125 126 126 127 128 129 129 129 129 130 130 131 131 131 132 132 133 133 134 134 134 135 135 136 137 137 137 138 139 140 141 142 143 143 144 144 143 142 140 139 137 136 135 134 134 134 134 134 134 134 135 135 135 135 135 135 135 135 133 129 124 118 110 100 90 81 72 63 55 47 40 34 28 25 25 25 25 26 27 28 30 33 36 40 44 47 50 52 53 54 56 58 60 62 63 63 62 60 59 58 57 56 55 54 54 54 54 54 54 54 54 54 54 55 55 55 55 55 55 55 55 55 55 55 56 57 59 61 62 61 58 55 53 52 52 55 65 91 
62 54 46 41 37 34 32 30 29 29 29 29 28 27 25 23 22 21 21 21 21 21 21 21 21 20 19 18 18 17 17 16 16 15 15 15 15 15 16 17 18 20 22 25 29 33 38 44 50 57 64 71 78 85 92 98 104 109 112 114 115 115 115 115 115 115 115 115 115 115 115 115 115 115 115 115 115 115 115 115 115 115 115 115 115 115 115 115 115 115 115 115 115 115 115 115 115 115 115 115 115 115 115 115 115 115 115 115 115 115 115 115 115 115 115 115 115 115 115 115 115 115 115 115 115 115 115 115 115 115 115 115 115 115 115 116 117 117 117 118 119 119 120 120 120 120 121 122 123 123 124 125 126 126 126 126 127 127 128 128 128 128 129 129 130 130 131 131 131 132 132 133 133 133 133 134 135 136 136 137 137 137 137 137 137 136 135 134 133 132 132 131 131 131 131 131 132 133 134 134 134 134 134 134 134 134 133 131 127 121 114 105 95 86 77 68 59 51 44 37 31 27 26 26 26 26 27 28 30 33 36 39 43 46 49 50 52 53 55 56 58 60 61 61 60 59 58 57 56 56 55 55 55 55 55 55 55 55 55 55 55 55 55 55 55 55 55 55 55 55 54 54 55 57 59 62 63 62 59 56 54 52 52 54 57 58 
67 59 51 45 40 36 33 31 30 30 30 30 29 28 25 23 22 21 21 21 21 21 21 21 21 20 19 18 18 17 17 16 16 15 15 15 15 16 17 18 19 22 24 28 32 37 42 48 54 61 68 75 82 89 96 102 107 111 113 114 114 114 114 114 114 114 114 114 114 114 114 114 114 114 114 114 114 114 114 114 114 114 114 114 114 114 114 114 114 114 114 114 114 114 114 114 114 114 114 114 114 114 114 114 114 114 114 114 114 114 114 114 114 114 114 114 114 114 114 114 114 114 114 114 114 114 114 114 114 114 114 114 114 114 114 115 115 115 115 116 117 117 117 117 117 118 119 120 120 121 122 123 123 123 123 124 124 125 125 125 125 125 126 126 127 127 128 128 128 128 129 129 129 129 130 130 131 131 131 131 131 131 131 131 131 131 131 130 130 129 129 128 128 128 129 130 131 132 133 133 133 133 133 133 133 133 133 132 129 124 118 110 100 91 82 73 64 55 48 41 34 29 27 27 27 26 27 28 30 32 35 38 41 44 47 48 50 52 53 54 56 57 58 58 58 58 57 57 56 56 55 55 55 55 55 55 55 55 55 55 55 55 55 55 55 55 55 55 55 54 53 53 54 56 59 62 63 62 59 56 54 52 51 51 52 55 
75 64 55 47 42 38 35 33 32 31 31 31 30 28 25 23 22 21 21 21 21 21 20 20 20 20 19 18 18 17 17 16 16 15 15 15 16 17 18 19 21 24 27 31 35 40 46 52 59 66 73 80 87 93 100 105 109 112 114 114 114 114 114 114 114 114 114 114 114 114 114 114 114 114 114 114 114 114 114 114 114 114 114 114 114 114 114 114 114 114 114 114 114 114 114 114 114 114 114 114 114 114 114 114 114 114 114 114 114 114 114 114 114 114 114 114 114 114 114 114 114 114 114 114 114 114 114 114 114 114 114 114 114 114 114 114 114 114 114 115 115 115 115 115 115 116 117 117 118 119 120 120 120 120 121 121 122 122 122 122 122 122 123 123 123 124 124 124 124 125 125 125 125 126 126 126 126 126 126 126 126 126 126 126 126 126 126 126 126 126 126 126 126 127 128 129 130 131 132 132 132 132 132 132 132 132 132 132 130 126 121 114 105 96 87 78 69 60 52 45 38 32 29 28 27 27 27 28 30 32 34 37 40 42 44 46 48 50 51 52 53 54 55 56 56 56 56 56 56 56 55 55 55 55 55 55 55 55 55 55 55 55 55 55 55 55 55 55 54 53 52 52 53 55 58 61 62 61 58 55 53 52 51 49 47 43 
89 68 57 49 43 39 36 34 33 32 32 31 30 27 24 22 22 21 21 21 21 20 20 20 20 20 19 18 18 17 17 16 16 15 15 15 16 17 19 21 23 26 30 34 39 44 50 56 63 70 77 84 91 97 103 108 111 113 114 114 114 114 114 114 114 114 114 114 114 114 114 114 114 114 114 114 114 114 114 114 114 114 114 114 114 114 114 114 114 114 114 114 114 114 114 114 114 114 114 114 114 114 114 114 114 114 114 114 114 114 114 114 114 114 114 114 114 114 114 114 114 114 114 114 114 114 114 114 114 114 114 114 114 114 114 114 114 114 114 114 114 114 114 114 114 115 115 115 116 117 117 117 117 118 118 119 119 119 119 119 119 120 120 120 120 120 120 120 121 121 121 121 122 122 122 122 122 122 122 122 122 122 122 122 122 122 122 122 122 123 123 124 125 126 127 128 129 130 131 131 131 131 131 131 131 131 131 132 131 128 123 117 109 100 91 82 73 64 56 49 42 36 32 30 28 28 28 28 30 32 34 36 38 40 42 44 46 48 49 50 51 52 53 54 55 55 55 55 55 55 55 55 55 55 55 55 56 56 56 56 56 56 56 56 56 56 55 54 53 52 51 51 52 54 56 59 60 59 57 54 53 52 51 49 44 26 
72 64 56 49 44 40 37 35 33 32 32 31 29 26 23 22 22 21 21 21 20 20 20 20 20 20 19 18 18 17 17 16 16 15 15 16 17 18 20 22 25 29 33 37 43 48 54 60 67 74 81 88 95 101 107 111 113 114 114 114 114 114 114 114 114 114 114 114 114 114 114 114 114 114 114 114 114 114 114 114 114 114 114 114 114 114 114 114 114 114 114 114 114 114 114 114 114 114 114 114 114 114 114 114 114 114 114 114 114 114 114 114 114 114 114 114 114 114 114 114 114 114 114 114 114 114 114 114 114 114 114 114 114 114 114 114 114 114 114 114 114 114 114 114 114 114 114 114 115 115 115 115 115 116 116 117 117 117 117 117 117 117 117 117 117 117 117 117 118 118 118 118 119 119 119 119 119 119 119 119 119 119 119 119 119 119 119 119 120 121 122 123 124 125 126 127 128 129 130 130 130 130 130 130 130 130 130 131 131 129 125 120 113 105 96 87 78 68 60 52 45 39 35 32 30 29 28 28 30 32 34 36 38 40 42 44 46 47 48 49 50 51 52 53 54 55 55 55 55 55 55 56 56 56 56 57 57 57 57 57 57 57 57 57 57 56 55 54 53 51 50 50 51 53 54 56 57 57 55 53 52 52 52 54 57 68 
57 60 55 49 43 39 36 34 32 31 31 30 28 25 23 22 21 21 21 20 20 20 20 20 20 20 19 18 18 17 17 16 16 15 15 16 18 19 21 24 27 31 36 41 46 52 58 64 71 78 85 92 99 105 110 113 114 114 114 114 114 114 114 114 114 114 114 114 114 114 114 114 114 114 114 114 114 114 114 114 114 114 114 114 114 114 114 114 114 114 114 114 114 114 114 114 114 114 114 114 114 114 114 114 114 114 114 114 114 114 114 114 114 114 114 114 114 114 114 114 114 114 114 114 114 114 114 114 114 114 114 114 114 114 114 114 114 114 114 114 114 114 114 114 114 114 114 114 114 114 114 114 114 115 115 115 115 115 115 115 115 115 115 115 115 115 115 115 116 116 116 116 117 117 117 117 117 117 117 117 117 117 117 117 117 117 117 118 119 120 121 122 123 124 125 126 127 128 129 129 129 129 129 129 129 129 129 130 131 130 127 123 117 109 100 91 82 72 64 56 49 43 38 34 31 30 29 29 30 32 34 36 38 40 42 44 46 47 48 49 50 51 52 53 54 55 55 56 56 56 56 57 57 57 57 58 59 59 59 59 59 59 59 59 58 57 55 54 52 51 50 50 50 51 52 53 54 54 53 52 51 52 54 57 63 73 
82 65 55 47 42 38 35 33 31 30 29 28 26 24 22 21 20 20 20 20 20 20 20 20 20 20 19 18 18 17 17 16 16 15 16 17 19 20 23 26 30 34 39 44 50 56 62 68 75 82 89 96 103 109 113 115 115 114 114 114 114 114 114 114 114 114 114 114 114 114 114 114 114 114 114 114 114 114 114 114 114 114 114 114 114 114 114 114 114 114 114 114 114 114 114 114 114 114 114 114 114 114 114 114 114 114 114 114 114 114 114 114 114 114 114 114 114 114 114 114 114 114 114 114 114 114 114 114 114 114 114 114 114 114 114 114 114 114 114 114 114 114 114 114 114 114 114 114 114 114 114 114 114 114 114 114 114 114 114 114 114 114 114 114 114 114 114 114 115 115 115 115 115 115 115 115 115 115 115 115 115 115 115 115 115 115 116 117 118 119 120 121 122 123 124 125 126 127 128 128 128 128 128 128 128 128 128 129 131 131 129 126 121 114 105 96 86 76 68 60 52 46 40 36 33 31 30 30 30 32 34 36 38 40 42 44 46 47 48 50 51 52 53 54 55 56 56 57 57 57 57 58 58 58 59 60 61 61 62 62 62 62 62 61 59 57 55 53 52 51 50 49 49 50 50 51 51 51 51 51 51 52 54 59 68 85 
92 65 52 44 39 36 33 31 30 29 28 26 24 23 21 20 20 20 20 20 20 20 20 20 20 20 19 18 18 17 17 16 16 16 17 18 20 22 25 28 32 37 42 47 53 60 66 72 79 86 93 100 107 112 115 116 115 114 114 114 114 114 114 114 114 114 114 114 114 114 114 114 114 114 114 114 114 114 114 114 114 114 114 114 114 114 114 114 114 114 114 114 114 115 115 114 114 114 114 114 114 114 114 114 114 114 114 114 114 114 114 114 114 114 114 114 114 114 114 114 114 114 114 114 114 114 114 114 114 114 114 114 114 114 114 114 114 114 114 114 114 114 114 114 114 114 114 114 114 114 114 114 114 114 114 114 114 114 114 114 114 114 114 114 114 114 114 114 114 114 114 114 114 114 114 114 114 114 114 114 114 114 114 114 114 114 115 116 117 118 119 120 121 122 123 124 125 126 127 127 127 127 127 127 127 127 127 128 130 131 130 128 124 118 110 100 90 81 72 63 55 49 43 38 35 32 31 30 30 32 34 36 38 40 42 44 46 47 48 50 52 53 54 56 57 58 58 58 58 58 58 59 59 59 60 61 62 63 64 65 65 65 64 62 59 57 55 53 52 51 50 49 48 48 49 49 49 49 49 49 49 50 52 57 67 91 
57 51 45 40 36 33 31 29 28 27 26 25 23 22 20 20 20 20 20 20 20 20 20 20 20 20 19 18 18 17 17 16 16 16 17 19 21 23 27 30 35 40 45 51 57 64 70 76 83 90 97 104 110 114 116 116 115 114 114 114 114 114 114 114 114 114 114 114 114 114 114 114 114 114 114 114 114 114 114 114 114 114 114 114 114 114 114 114 114 114 114 114 114 115 115 114 114 114 114 114 114 114 114 114 114 114 114 114 114 114 114 114 114 114 114 114 114 114 114 114 114 114 114 114 114 114 114 114 114 114 114 114 114 114 114 114 114 114 114 114 114 114 114 114 114 114 114 114 114 114 114 114 114 114 114 114 114 114 114 114 114 114 114 114 114 114 114 114 114 114 114 114 114 114 114 114 114 114 114 114 114 114 114 114 114 114 114 115 116 117 118 119 120 121 122 123 124 125 126 126 126 126 126 126 126 126 126 127 129 130 130 129 126 121 114 105 95 85 76 67 59 52 46 41 37 34 32 31 31 32 34 36 38 40 42 44 46 47 48 50 52 54 55 57 59 60 60 60 59 59 59 60 60 60 61 62 64 65 66 67 67 66 64 61 58 56 54 53 52 51 50 49 48 47 47 47 47 47 47 47 48 48 50 52 52 42 
30 37 37 35 33 31 29 28 27 26 25 24 22 21 20 20 20 20 20 20 20 20 20 20 20 20 19 18 18 17 17 16 16 17 18 20 22 25 29 33 38 43 48 54 61 68 74 80 87 94 101 107 112 115 116 116 115 114 114 114 114 114 114 114 114 114 114 114 114 114 114 114 114 114 114 114 114 114 114 114 114 114 114 114 114 114 114 114 114 114 114 114 114 115 115 114 114 114 114 114 114 114 114 114 114 114 114 114 114 114 114 114 114 114 114 114 114 114 114 114 114 114 114 114 114 114 114 114 114 114 114 114 114 114 114 114 114 114 114 114 114 114 114 114 114 114 114 114 114 114 114 114 114 114 114 114 114 114 114 114 114 114 114 114 114 114 114 114 114 114 114 114 114 114 114 114 114 114 114 114 114 114 114 114 114 114 114 114 115 116 117 118 119 120 121 122 123 124 125 125 125 125 125 125 125 125 125 126 127 128 129 129 127 123 117 109 99 89 79 70 62 55 48 43 38 35 33 32 32 32 34 36 38 40 42 44 46 47 48 50 52 54 56 58 60 61 61 61 60 60 60 61 61 61 62 63 65 67 68 68 67 65 63 60 57 55 54 53 52 51 50 49 48 47 46 46 46 46 46 46 46 47 48 49 49 50 
24 30 32 32 30 29 28 27 26 25 24 23 21 20 20 20 20 20 20 20 20 20 20 20 20 20 19 18 18 17 17 16 16 18 19 21 23 27 31 35 40 45 51 57 64 71 78 84 91 98 104 109 113 115 115 115 115 114 114 114 114 114 114 114 114 114 114 114 114 114 114 114 114 114 114 114 114 114 114 114 114 114 114 114 114 114 114 114 114 114 114 114 114 114 114 114 114 114 114 114 114 114 114 114 114 114 114 114 114 114 114 114 114 114 114 114 114 114 114 114 114 114 114 114 114 114 114 114 114 114 114 114 114 114 114 114 114 114 114 114 114 114 114 114 114 114 114 114 114 114 114 114 114 114 114 114 114 114 114 114 114 114 114 114 114 114 114 114 114 114 114 114 114 114 114 114 114 114 114 114 114 114 114 114 114 114 114 114 115 115 116 117 118 119 120 121 122 123 124 124 124 124 124 124 124 124 124 125 126 127 128 128 127 124 119 112 103 93 83 73 65 58 51 45 40 36 33 32 32 32 34 36 38 40 42 44 46 47 48 50 53 55 57 59 61 62 62 62 61 61 61 62 62 62 63 64 66 68 68 68 66 64 62 59 56 55 54 53 52 51 50 49 48 47 46 45 45 45 45 45 45 46 47 47 45 38 
20 28 30 30 29 28 27 26 25 24 23 22 20 20 20 20 20 20 20 20 20 20 20 20 20 20 19 18 18 17 17 16 17 19 20 22 25 29 33 37 43 48 54 61 68 75 82 88 95 101 107 111 114 115 115 115 115 114 114 114 114 114 114 114 114 114 114 114 114 114 114 114 114 114 114 114 114 114 114 114 114 114 114 114 114 114 114 114 114 114 114 114 114 114 114 114 114 114 114 114 114 114 114 114 114 114 114 114 114 114 114 114 114 114 114 114 114 114 114 114 114 114 114 114 114 114 114 114 114 114 114 114 114 114 114 114 114 114 114 114 114 114 114 114 114 114 114 114 114 114 114 114 114 114 114 114 114 114 114 114 114 114 114 114 114 114 114 114 114 114 114 114 114 114 114 114 114 114 114 114 114 114 114 114 114 114 114 114 114 115 116 117 118 119 120 121 122 123 123 123 123 123 123 123 123 123 123 124 125 126 127 127 126 124 120 114 106 96 86 76 68 60 53 47 41 37 34 32 32 32 34 36 38 40 42 44 46 47 48 51 53 56 58 60 62 63 63 63 62 62 62 63 63 63 64 65 67 68 68 67 65 63 61 58 56 55 54 53 52 51 50 49 48 47 46 45 45 45 45 45 45 46 47 48 48 44 
40 33 30 29 28 27 26 25 24 23 22 21 20 20 20 20 20 20 20 20 20 20 20 20 20 20 19 18 18 17 17 17 18 20 21 23 26 30 35 40 45 51 57 64 71 78 85 92 99 104 109 112 114 114 114 114 114 114 114 114 114 114 114 114 114 114 114 114 114 114 114 114 114 114 114 114 114 114 114 114 114 114 114 114 114 114 114 114 114 114 114 114 114 114 114 114 114 114 114 114 114 114 114 114 114 114 114 114 114 114 114 114 114 114 114 114 114 114 114 114 114 114 114 114 114 114 114 114 114 114 114 114 114 114 114 114 114 114 114 114 114 114 114 114 114 114 114 114 114 114 114 114 114 114 114 114 114 114 114 114 114 114 114 114 114 114 114 114 114 114 114 114 114 114 114 114 114 114 114 114 114 114 114 114 114 114 114 114 114 115 116 117 118 119 120 121 122 122 122 122 122 122 122 122 122 122 122 123 124 125 125 125 125 123 120 115 108 99 89 79 71 63 56 49 43 38 35 33 32 32 34 36 38 40 42 44 46 47 49 51 54 56 58 60 62 64 64 64 63 63 63 63 63 63 64 65 66 67 67 65 63 61 59 57 55 54 53 52 51 50 49 48 47 46 45 45 45 45 45 45 45 46 47 50 55 62 
40 34 30 28 27 26 25 24 23 22 21 20 20 20 20 20 20 20 20 20 20 20 20 20 20 20 19 18 18 17 17 17 19 21 22 24 28 32 37 42 48 54 60 67 74 82 89 96 102 106 110 112 113 113 113 113 113 113 113 113 113 113 113 113 113 113 113 113 113 113 113 113 113 113 113 113 113 113 113 113 113 113 113 113 113 113 113 113 113 113 113 113 113 113 113 113 113 113 113 113 113 113 113 113 113 113 113 113 113 113 113 113 113 113 113 113 113 113 113 113 113 113 113 113 113 113 113 113 113 113 113 113 113 113 113 113 113 113 113 113 113 113 113 113 113 113 113 113 113 113 113 113 113 113 113 113 113 113 113 113 113 113 113 113 113 113 113 113 113 113 113 113 113 113 113 113 113 113 113 113 113 113 113 113 113 113 113 113 114 115 116 117 118 119 120 121 121 121 121 121 121 121 121 121 121 121 121 122 123 124 124 124 124 123 120 115 109 101 92 82 74 66 58 51 45 39 35 33 32 32 34 36 38 40 42 44 46 48 50 52 54 56 59 61 63 65 65 65 64 64 64 63 63 63 64 64 65 65 65 63 61 59 58 56 54 53 52 51 50 49 48 47 46 45 45 45 45 45 45 45 45 46 48 52 61 85 
37 33 29 27 26 25 24 23 22 21 20 19 19 19 19 19 19 19 19 19 19 19 19 19 19 19 19 18 18 17 17 18 20 22 23 26 29 34 39 44 50 57 63 70 77 85 92 99 104 107 110 112 112 112 112 112 112 112 112 112 112 112 112 112 112 112 112 112 112 112 112 112 112 112 112 112 112 112 112 112 112 112 112 112 112 112 112 112 112 112 112 112 112 112 112 112 112 112 112 112 112 112 112 112 112 112 112 112 112 112 112 112 112 112 112 112 112 112 112 112 112 112 112 112 112 112 112 112 112 112 112 112 112 112 112 112 112 112 112 112 112 112 112 112 112 112 112 112 112 112 112 112 112 112 112 112 112 112 112 112 112 112 112 112 112 112 112 112 112 112 112 112 112 112 112 112 112 112 112 112 112 112 112 112 112 112 112 113 114 115 116 117 118 119 120 120 120 120 120 120 120 120 120 120 120 120 120 121 122 122 122 122 122 122 120 116 110 103 94 85 77 69 60 53 47 41 36 33 32 33 35 37 39 41 43 45 47 49 51 53 54 56 59 62 64 66 67 66 65 65 64 63 63 63 63 63 63 63 62 61 59 58 57 55 53 52 51 50 49 48 47 46 45 45 45 45 45 45 45 45 45 46 47 50 52 49 
38 33 29 26 25 24 23 22 21 20 19 19 19 19 19 19 19 19 19 19 19 19 19 19 19 19 19 18 18 17 17 19 21 23 25 27 31 36 41 47 53 60 66 73 80 88 95 101 105 108 110 112 112 112 112 112 112 112 112 112 112 112 112 112 112 112 112 112 112 112 112 112 112 112 112 112 112 112 112 112 112 112 112 112 112 112 112 112 112 112 112 112 112 112 112 112 112 112 112 112 112 112 112 112 112 112 112 112 112 112 112 112 112 112 112 112 112 112 112 112 112 112 112 112 112 112 112 112 112 112 112 112 112 112 112 112 112 112 112 112 112 112 112 112 112 112 112 112 112 112 112 112 112 112 112 112 112 112 112 112 112 112 112 112 112 112 112 112 112 112 112 112 112 112 112 112 112 112 112 112 112 112 112 112 112 112 112 113 114 115 116 117 118 119 119 119 119 119 119 119 119 119 119 119 119 119 119 120 121 121 121 121 121 121 120 117 112 105 97 88 80 71 62 55 49 43 38 34 33 34 36 38 40 42 44 46 48 50 52 53 54 56 59 62 65 67 68 67 66 65 64 63 63 63 62 62 61 60 59 58 57 56 55 54 53 52 51 50 49 48 47 46 46 46 46 46 46 46 46 46 46 46 47 49 50 50 
38 33 29 26 24 23 22 21 20 19 19 19 19 19 19 19 19 19 19 19 19 19 19 19 19 19 19 18 18 17 18 20 22 24 26 29 33 38 43 49 56 63 69 76 83 91 98 103 106 108 110 111 111 111 111 111 111 111 111 111 111 111 111 111 111 111 111 111 111 111 111 111 111 111 111 111 111 111 111 111 111 111 111 111 111 111 111 111 111 111 111 111 111 111 111 111 111 111 111 111 111 111 111 111 111 111 111 111 111 111 111 111 111 111 111 111 111 111 111 111 111 111 111 111 111 111 111 111 111 111 111 111 111 111 111 111 111 111 111 111 111 111 111 111 111 111 111 111 111 111 111 111 111 111 111 111 111 111 111 111 111 111 111 111 111 111 111 111 111 111 111 111 111 111 111 111 111 111 111 111 111 111 111 111 111 111 112 113 114 115 116 117 118 118 118 118 118 118 118 118 118 118 118 118 118 118 118 119 120 120 120 120 120 121 120 117 113 107 99 91 82 73 65 57 51 45 40 36 34 35 37 39 41 43 45 47 49 51 52 53 54 56 59 62 65 68 69 68 67 65 64 63 63 62 61 60 59 58 57 56 55 55 54 53 52 51 50 49 49 48 48 48 47 47 47 47 47 47 47 47 47 47 48 49 49 47 
41 33 28 25 23 22 21 20 19 19 19 19 19 19 19 19 19 19 19 19 19 19 19 19 19 19 19 18 18 18 19 21 23 25 27 30 35 40 45 52 59 66 72 79 86 94 100 104 106 108 109 110 110 110 110 110 110 110 110 110 110 110 110 110 110 110 110 110 110 110 110 110 110 110 110 110 110 110 110 110 110 110 110 110 110 110 110 110 110 110 110 110 110 110 110 110 110 110 110 110 110 110 110 110 110 110 110 110 110 110 110 110 110 110 110 110 110 110 110 110 110 110 110 110 110 110 110 110 110 110 110 110 110 110 110 110 110 110 110 110 110 110 110 110 110 110 110 110 110 110 110 110 110 110 110 110 110 110 110 111 111 111 111 111 111 111 111 111 111 111 111 111 111 111 111 111 111 111 111 111 111 111 111 111 111 111 112 113 114 115 116 117 117 117 117 117 117 117 117 117 117 117 117 117 117 117 117 118 119 119 119 119 119 120 120 118 114 109 102 93 84 76 67 59 53 47 42 38 36 36 38 40 42 44 45 47 49 51 52 53 54 56 59 63 66 69 70 69 67 65 64 63 62 61 60 59 58 57 56 55 55 54 53 52 52 51 50 50 50 49 49 49 48 48 48 48 48 48 48 48 48 48 49 50 52 57 
47 33 27 24 22 21 20 19 19 19 19 19 19 19 19 19 19 19 19 19 19 19 19 19 19 19 19 18 18 18 20 22 24 26 28 32 36 42 48 54 61 68 75 82 89 96 101 104 106 107 108 109 109 109 109 109 109 109 109 109 109 109 109 109 109 109 109 109 109 109 109 109 109 109 109 109 109 109 109 109 109 109 109 109 109 109 109 109 109 109 109 109 109 109 109 109 109 109 109 109 109 109 109 109 109 109 109 109 109 109 109 109 109 109 109 109 109 109 109 109 109 109 109 109 109 109 109 109 109 109 109 109 109 109 109 109 109 109 109 109 109 109 109 109 109 109 109 109 109 109 109 109 109 109 109 109 109 110 110 110 110 110 110 110 110 110 110 110 110 110 110 110 110 110 110 111 111 111 111 110 110 110 110 110 110 111 112 113 114 115 116 116 116 116 116 116 116 116 116 116 116 116 116 116 116 116 116 117 118 118 118 118 118 119 119 118 115 110 104 96 87 78 69 61 55 49 44 40 37 37 39 41 43 44 46 48 50 51 52 53 54 56 59 63 67 70 71 70 67 65 64 63 62 61 60 59 58 57 56 55 55 54 53 53 52 52 51 51 51 50 50 50 49 49 49 49 49 49 49 49 49 49 50 51 54 65 
21 25 24 22 21 20 19 19 18 18 18 18 18 18 18 18 18 18 18 18 18 18 18 18 18 18 18 18 18 19 20 22 24 26 29 33 38 44 50 56 63 70 77 84 91 97 101 104 106 107 108 108 108 108 108 108 108 108 108 108 108 108 108 108 108 108 108 108 108 108 108 108 108 108 108 108 108 108 108 108 108 108 108 108 108 108 108 108 108 108 108 108 108 108 108 108 108 108 108 108 108 108 108 108 108 108 108 108 108 108 108 108 108 108 108 108 108 108 108 108 108 108 108 108 108 108 108 108 108 108 108 108 108 108 108 108 108 108 108 108 108 108 108 108 108 108 108 108 108 108 108 108 108 108 108 109 109 109 109 109 109 109 109 109 109 109 109 109 109 109 109 109 109 109 109 109 109 109 109 109 109 109 109 109 110 111 112 113 114 115 115 115 115 115 115 115 115 115 115 115 115 115 115 115 115 115 115 116 117 117 117 117 117 117 117 117 115 111 105 98 89 80 71 63 57 51 46 42 39 38 40 42 43 45 46 48 50 51 52 53 54 56 59 63 67 70 71 70 67 65 64 63 62 61 60 59 58 57 56 55 55 54 53 53 53 53 52 52 52 52 52 51 50 50 50 50 50 50 50 51 51 52 52 51 50 47 
19 22 22 21 20 19 19 18 18 18 18 18 18 18 18 18 18 18 18 18 18 18 18 18 18 18 18 18 18 19 21 23 25 27 30 35 40 46 52 58 65 72 79 86 93 98 102 104 106 107 107 107 107 107 107 107 107 107 107 107 107 107 107 107 107 107 107 107 107 107 107 107 107 107 107 107 107 107 107 107 107 107 107 107 107 107 107 107 107 107 107 107 107 107 107 107 107 107 107 107 107 107 107 107 107 107 107 107 107 107 107 107 107 107 107 107 107 107 107 107 107 107 107 107 107 107 107 107 107 107 107 107 107 107 107 107 107 107 107 107 107 107 107 107 107 107 107 107 107 107 107 107 107 108 108 108 108 108 108 108 108 108 108 108 108 108 108 108 108 108 108 108 108 108 108 108 108 108 108 108 108 108 108 109 110 111 112 113 114 114 114 114 114 114 114 114 114 114 114 114 114 114 114 114 114 114 114 115 115 115 115 115 115 115 115 115 114 111 106 99 91 82 73 65 59 53 48 44 41 40 41 42 44 45 46 48 50 51 52 53 54 56 59 63 66 69 70 69 67 65 64 63 62 61 60 59 58 57 56 55 55 54 53 53 53 53 53 53 53 53 53 52 51 51 51 51 52 52 53 54 55 55 55 54 50 41 
30 24 21 20 19 19 18 18 18 18 18 18 18 18 18 18 18 18 18 18 18 18 18 18 18 18 18 18 18 19 21 23 26 28 32 37 42 48 54 60 67 74 82 89 95 100 103 105 106 107 107 107 107 107 107 107 107 107 107 107 107 107 107 107 107 107 107 107 107 107 107 107 107 107 107 107 107 107 107 107 107 107 107 107 107 107 107 107 107 107 107 107 107 107 107 107 107 107 107 107 107 107 107 107 107 107 107 107 107 107 107 107 107 107 107 107 107 107 107 107 107 107 107 107 107 107 107 107 107 107 107 107 107 107 107 107 107 107 107 107 107 107 107 107 107 107 107 107 107 107 107 107 107 107 107 107 107 107 107 107 107 107 107 107 107 107 107 107 107 107 107 107 107 107 107 107 107 107 107 107 107 107 108 109 110 111 112 113 113 113 113 113 113 113 113 113 113 113 113 113 113 113 113 113 113 113 113 113 113 113 113 113 113 113 113 113 113 111 107 101 93 84 75 67 61 55 50 46 44 43 43 43 44 45 47 49 50 51 52 53 54 56 59 62 65 67 68 67 66 65 64 63 62 61 60 59 58 57 56 55 55 54 54 54 54 54 54 54 54 54 54 53 52 52 52 52 53 54 55 57 59 60 61 60 55 43 
28 24 21 19 19 18 18 18 18 18 18 18 18 18 18 18 18 18 18 18 18 18 18 18 18 18 18 18 18 20 22 24 27 30 34 39 44 50 56 62 69 76 84 91 97 101 104 105 106 107 107 107 107 107 107 107 107 107 107 107 107 107 107 107 107 107 107 107 107 107 107 107 107 107 107 107 107 107 107 107 107 107 107 107 107 107 107 107 107 107 107 107 107 107 107 107 107 107 107 107 107 107 107 107 107 107 107 107 107 107 107 107 107 107 107 107 107 107 107 107 107 107 107 107 107 107 107 107 107 107 107 107 107 107 107 107 107 107 107 107 107 107 107 107 107 107 107 107 107 108 108 107 107 107 107 107 107 107 107 107 107 107 107 107 107 107 107 107 107 107 107 107 107 107 107 107 107 107 107 107 107 107 108 109 110 111 112 112 112 112 112 112 112 112 112 112 112 112 112 112 112 112 112 112 112 112 112 112 112 112 112 112 112 112 112 112 112 111 107 102 95 86 77 69 63 57 52 48 46 44 44 44 45 46 47 49 50 51 52 53 54 56 59 61 63 65 66 65 65 64 64 63 62 61 60 59 58 57 56 55 55 54 54 54 55 55 56 56 56 56 55 54 53 53 53 53 55 56 58 60 63 66 69 71 67 48 
31 24 21 19 18 18 18 18 18 18 18 18 18 18 18 18 18 18 18 18 18 18 18 18 18 18 18 18 19 20 22 25 28 31 36 41 46 52 58 64 71 78 86 93 98 102 104 105 106 107 107 107 107 107 107 107 107 107 107 107 107 107 107 107 107 107 107 107 107 107 107 107 107 107 107 107 107 107 107 107 107 107 107 107 107 107 107 107 107 107 107 107 107 107 107 107 107 107 107 107 107 107 107 107 107 107 107 107 107 107 107 107 107 107 107 107 107 107 107 107 107 107 107 107 107 107 107 107 107 107 107 107 107 107 107 107 107 107 107 107 107 107 107 107 107 107 107 107 107 108 108 107 107 107 107 107 107 107 107 107 107 107 107 107 107 107 107 107 107 107 107 107 107 107 107 107 107 107 107 107 107 107 108 109 110 111 111 111 111 111 111 111 111 111 111 111 111 111 111 111 111 111 111 111 111 111 111 111 111 111 111 111 111 111 111 111 111 111 108 103 96 88 79 71 65 59 54 50 48 46 45 45 46 46 47 49 50 51 52 53 54 56 58 60 61 62 63 63 63 63 63 63 62 61 60 59 58 57 56 55 55 54 54 55 56 57 58 58 58 58 57 56 54 54 54 55 56 58 60 63 67 73 80 88 97 104 
23 22 20 18 18 18 18 18 18 18 18 18 18 18 18 18 18 18 18 18 18 18 18 18 18 18 18 18 19 21 23 26 29 33 37 42 48 54 60 66 73 80 88 95 100 103 105 106 107 107 107 107 107 107 107 107 107 107 107 107 107 107 107 107 107 107 107 107 107 107 107 107 107 107 107 107 107 107 107 107 107 107 107 107 107 107 107 107 107 107 107 107 107 107 107 107 107 107 107 107 107 107 107 107 107 107 107 107 107 107 107 107 107 107 107 107 107 107 107 107 107 107 107 107 107 107 107 107 107 107 107 107 107 107 107 107 107 107 107 107 107 107 107 107 107 107 107 107 107 107 107 107 107 107 107 107 107 107 107 107 107 107 107 107 107 107 107 107 107 107 107 107 107 107 107 107 107 107 107 107 107 107 108 109 110 111 111 111 111 111 111 111 111 111 111 111 111 111 111 111 111 111 111 111 111 111 111 111 111 111 111 111 111 111 111 111 111 111 108 104 98 90 81 73 67 61 56 52 49 47 46 46 46 46 47 49 50 51 52 53 54 56 57 58 59 60 61 62 62 62 62 62 62 61 60 59 58 57 56 55 55 54 54 55 57 58 59 60 60 60 59 57 55 54 54 55 57 59 62 66 72 79 90 105 129 179 
29 22 19 18 18 18 18 18 18 18 18 18 18 18 18 18 18 18 18 18 18 18 18 18 18 18 18 18 20 22 24 27 30 34 39 44 50 56 62 68 75 82 90 96 101 104 106 107 107 107 107 107 107 107 107 107 107 107 107 107 107 107 107 107 107 107 107 107 107 107 107 107 107 107 107 107 107 107 107 107 107 107 107 107 107 107 107 107 107 107 107 107 107 107 107 107 107 107 107 107 107 107 107 107 107 107 107 107 107 107 107 107 107 107 107 107 107 107 107 107 107 107 107 107 107 107 107 107 107 107 107 107 107 107 107 107 107 107 107 107 107 107 107 107 107 107 107 107 107 107 107 107 107 107 107 107 107 107 107 107 107 107 107 107 107 107 107 107 107 107 107 107 107 107 107 107 107 107 107 107 107 107 108 109 110 111 111 111 111 111 111 111 111 111 111 111 111 111 111 111 111 111 111 111 111 111 111 111 111 111 111 111 111 111 111 111 111 111 109 105 99 91 83 75 68 62 57 53 50 48 47 47 46 46 47 49 50 51 52 53 54 55 56 57 58 59 60 61 61 61 61 61 61 61 60 59 58 57 56 55 55 54 54 55 57 59 61 62 62 61 59 57 55 54 54 55 57 60 64 69 75 84 96 113 136 165 
16 19 18 18 18 18 18 18 18 18 18 18 18 18 18 18 18 18 18 18 18 18 18 18 18 18 18 19 20 23 25 28 31 35 40 46 52 58 64 70 77 84 91 97 101 104 107 108 108 108 108 108 107 107 107 107 107 107 107 107 107 107 107 107 107 107 108 108 108 108 108 107 107 107 107 107 107 107 107 107 107 107 107 107 107 107 107 107 107 107 107 107 107 107 107 107 107 107 107 107 107 107 107 107 107 107 107 107 107 107 107 107 107 107 107 107 107 107 107 107 107 107 107 107 107 107 107 107 107 107 107 107 107 107 107 107 107 107 107 107 107 107 107 107 107 107 107 107 107 107 107 107 107 107 107 107 107 107 107 107 107 107 107 107 107 107 107 107 108 108 108 108 108 107 107 107 107 107 107 107 107 107 108 109 110 111 111 111 111 111 111 111 111 111 111 111 111 111 111 111 111 111 111 111 111 111 111 111 111 111 111 111 111 111 111 111 111 111 109 105 100 92 84 76 69 63 58 54 51 49 48 47 46 46 47 49 50 51 52 53 54 55 56 57 58 59 60 61 61 61 61 61 61 61 61 60 59 58 56 55 55 54 54 55 57 59 61 62 62 61 59 57 55 54 54 55 57 60 64 70 76 85 98 115 139 180 
23 21 19 18 18 18 18 18 18 18 18 18 18 18 18 18 18 18 18 18 18 18 18 18 18 18 18 19 21 24 26 29 32 36 41 47 53 59 66 73 80 86 92 98 102 105 108 110 110 109 109 108 107 107 107 107 107 107 107 107 107 107 107 107 107 107 108 109 109 109 108 107 107 107 107 107 107 107 107 107 107 107 107 107 107 107 107 107 107 107 107 107 107 107 107 107 107 107 107 107 107 107 107 107 107 107 107 107 107 107 107 107 107 107 107 107 107 107 107 107 107 107 107 107 107 107 107 107 107 107 107 107 107 107 107 107 107 107 107 107 107 107 107 107 107 107 107 107 107 107 107 107 107 107 107 107 107 107 107 107 107 107 107 107 107 107 107 107 108 109 109 109 108 107 107 107 107 107 107 107 107 107 108 109 110 111 111 111 111 111 111 111 111 111 111 111 111 111 111 111 111 111 111 111 111 111 111 111 111 111 112 112 112 112 112 112 112 112 110 106 101 94 85 77 70 64 59 55 52 50 49 47 46 46 47 49 50 51 52 53 54 55 56 57 58 59 60 61 62 62 62 62 62 62 62 61 60 58 56 55 55 54 54 55 57 58 60 61 61 60 58 57 55 54 54 55 57 60 64 69 76 84 95 109 128 150 
29 23 20 19 18 18 18 18 18 18 18 18 18 18 18 18 18 18 18 18 18 18 18 18 18 18 18 20 22 25 27 30 33 37 43 49 55 61 68 75 82 88 94 99 103 107 110 112 112 110 109 108 107 107 107 107 107 107 107 107 107 107 107 107 107 107 108 109 109 109 108 107 107 107 107 107 107 107 107 107 107 107 107 107 107 107 107 107 107 107 107 107 107 107 107 107 107 107 107 107 107 107 107 107 107 107 107 107 107 107 107 107 107 107 107 107 107 107 107 107 107 107 107 107 107 107 107 107 107 107 107 107 107 107 107 107 107 107 107 107 107 107 107 107 107 107 107 107 107 107 107 107 107 107 107 107 107 107 107 107 107 107 107 107 107 107 107 107 108 109 110 109 108 107 107 107 107 107 107 107 107 107 108 109 110 111 111 111 111 111 111 111 111 111 111 111 111 111 111 111 111 111 111 111 111 111 111 111 111 111 112 113 113 113 113 113 113 113 111 107 102 95 86 78 71 65 60 56 53 51 49 47 46 46 47 49 51 52 53 54 55 56 57 58 59 60 61 62 63 64 64 64 64 63 62 61 60 58 56 55 55 54 54 55 56 57 58 59 59 58 57 56 55 54 54 55 57 60 64 69 74 81 90 101 115 136 
27 23 21 20 19 18 18 18 18 18 18 18 18 18 18 18 18 18 18 18 18 18 18 18 18 18 19 21 23 26 28 31 34 39 44 51 57 63 70 77 84 90 96 101 105 109 112 113 113 111 109 108 107 107 107 107 107 107 107 107 107 107 107 107 107 107 108 108 108 108 108 107 107 107 107 107 107 107 107 107 107 107 107 107 107 107 107 107 107 107 107 107 107 107 107 107 107 107 107 107 107 107 107 107 107 107 107 107 107 107 107 107 107 107 107 107 107 107 107 107 107 107 107 107 107 107 107 107 107 107 107 107 107 107 107 107 107 107 107 107 107 107 107 107 107 107 107 107 107 107 107 107 107 107 107 107 107 107 107 107 107 107 107 107 107 107 107 107 108 109 110 110 108 107 107 107 107 107 107 107 107 107 108 109 110 111 111 111 111 111 111 111 111 111 111 111 111 111 111 111 111 111 111 111 111 111 111 111 111 111 112 113 114 114 114 114 114 113 111 108 103 96 87 79 72 66 61 57 54 51 49 47 46 46 47 49 51 53 54 55 56 57 58 59 61 62 63 64 65 66 67 67 66 64 63 61 60 58 56 55 55 54 54 55 55 56 56 56 56 56 56 56 55 54 54 55 57 60 63 67 72 77 83 89 95 100 
23 24 23 21 20 19 18 18 18 18 18 18 18 18 18 18 18 18 18 18 18 18 18 18 18 18 19 21 24 26 29 32 36 40 46 52 59 65 73 80 87 93 99 104 108 111 113 114 113 111 109 108 107 107 107 107 107 107 107 107 107 107 107 107 107 107 107 107 107 107 107 107 107 107 107 107 107 107 107 107 107 107 107 107 107 107 107 107 107 107 107 107 107 107 107 107 107 107 107 107 107 107 107 107 107 107 107 107 107 107 107 107 107 107 107 107 107 107 107 107 107 107 107 107 107 107 107 107 107 107 107 107 107 107 107 107 107 107 107 107 107 107 107 107 107 107 107 107 107 107 107 107 107 107 107 107 107 107 107 107 107 107 107 107 107 107 107 107 108 109 110 110 108 107 107 107 107 107 107 107 107 107 108 109 110 111 111 111 111 111 111 111 111 111 111 111 111 111 111 111 111 111 111 111 111 111 111 111 111 111 112 113 114 114 114 115 114 113 112 109 104 97 88 80 73 67 62 58 54 51 49 47 46 46 47 49 51 53 55 56 57 58 59 60 62 63 64 66 67 68 68 68 67 65 63 61 60 58 56 55 55 54 54 54 54 55 55 55 55 55 55 55 55 54 54 55 57 59 62 65 69 73 77 80 78 58 
22 27 26 24 22 20 18 18 18 18 18 18 18 18 18 18 18 18 18 18 18 18 18 18 18 18 19 21 24 26 29 33 37 42 47 53 60 67 75 83 90 97 103 107 111 113 115 115 113 111 109 108 107 107 107 107 107 107 107 107 107 107 107 107 107 107 107 107 107 107 107 107 107 107 107 107 107 107 107 107 107 107 107 107 107 107 107 107 107 107 107 107 107 107 107 107 107 107 107 107 107 107 107 107 107 107 107 107 107 107 107 107 107 107 107 107 107 107 107 107 107 107 107 107 107 107 107 107 107 107 107 107 107 107 107 107 107 107 107 107 107 107 107 107 107 107 107 107 107 107 107 107 107 107 107 107 107 107 107 107 107 107 107 107 107 107 107 107 108 109 109 109 108 107 107 107 107 107 107 107 107 107 108 109 110 111 111 111 111 111 111 111 111 111 111 111 111 111 111 111 111 111 111 111 111 111 111 111 111 111 112 113 114 114 114 115 114 114 113 110 105 98 89 81 74 68 63 58 54 51 49 47 46 46 47 49 51 53 55 57 58 59 60 61 63 64 65 67 68 69 69 68 66 64 62 61 60 58 56 55 55 54 54 54 54 54 54 54 54 54 54 54 54 54 54 55 57 58 60 63 66 69 73 76 80 87 
37 38 33 28 24 21 19 18 18 18 18 18 18 18 18 18 18 18 18 18 18 18 18 18 18 18 19 21 24 26 29 33 38 43 48 54 61 69 77 85 93 100 106 110 113 115 116 115 113 111 109 108 107 107 107 107 107 107 107 107 107 107 107 107 107 107 107 107 107 107 107 107 107 107 107 107 107 107 107 107 107 107 107 107 107 107 107 107 107 107 107 107 107 107 107 107 107 107 107 107 107 107 107 107 107 107 107 107 107 107 107 107 107 107 107 107 107 107 107 107 107 107 107 107 107 107 107 107 107 107 107 107 107 107 107 107 107 107 107 107 107 107 107 107 107 107 107 107 107 107 107 107 107 107 107 107 107 107 107 107 107 107 107 107 107 107 107 107 108 108 108 108 108 107 107 107 107 107 107 107 107 107 108 109 110 111 111 111 111 111 111 111 111 111 111 111 111 111 111 111 111 111 111 111 111 111 111 111 111 111 112 113 114 114 114 115 114 114 113 110 105 98 90 82 75 69 63 58 54 51 49 47 46 46 47 49 51 53 55 57 59 60 61 62 64 65 66 68 69 69 68 67 65 63 61 60 59 58 56 55 55 54 54 54 54 54 54 54 54 54 54 54 54 54 54 55 56 57 59 61 64 66 69 73 79 90 
79 55 40 31 25 21 19 18 18 18 18 18 18 18 18 18 18 18 18 18 18 18 18 18 18 18 19 21 24 26 29 33 38 44 49 55 62 70 79 87 96 103 108 112 115 116 116 115 113 111 109 108 107 107 107 107 107 107 107 107 107 107 107 107 107 107 107 107 107 107 107 107 107 107 107 107 107 107 107 107 107 107 107 107 107 107 107 107 107 107 107 107 107 107 107 107 107 107 107 107 107 107 107 107 107 107 107 107 107 107 107 107 107 107 107 107 107 107 107 107 107 107 107 107 107 107 107 107 107 107 107 107 107 107 107 107 107 107 107 107 107 107 107 107 107 107 107 107 107 107 107 107 107 107 107 107 107 107 107 107 107 107 107 107 107 107 107 107 107 107 107 107 107 107 107 107 107 107 107 107 107 107 108 109 110 111 111 111 111 111 111 111 111 111 111 111 111 111 111 111 111 111 111 111 111 111 111 111 111 111 112 113 114 114 114 114 114 114 113 110 105 98 91 83 76 69 63 58 54 51 49 47 46 46 47 49 51 53 55 57 59 61 62 63 65 66 67 68 68 67 66 65 64 62 60 59 58 57 56 55 55 54 54 54 54 54 54 54 54 54 54 54 54 54 54 54 55 56 57 59 61 64 67 70 73 74 
112 64 42 31 25 21 19 18 18 18 18 18 18 18 18 18 18 18 18 18 18 18 18 18 18 18 19 21 24 26 29 33 38 44 50 56 63 71 80 89 98 105 110 113 116 117 116 115 113 111 109 108 107 107 107 107 107 107 107 107 107 107 107 107 107 107 107 107 107 107 107 107 107 107 107 107 107 107 107 107 107 107 107 107 107 107 107 107 107 107 107 107 107 107 107 107 107 107 107 107 107 107 107 107 107 107 107 107 107 107 107 107 107 107 107 107 107 107 107 107 107 107 107 107 107 107 107 107 107 107 107 107 107 107 107 107 107 107 107 107 107 107 107 107 107 107 107 107 107 107 107 107 107 107 107 107 107 107 107 107 107 107 107 107 107 107 107 107 107 107 107 107 107 107 107 107 107 107 107 107 107 107 108 109 110 111 111 111 111 111 111 111 111 111 111 111 111 111 111 111 111 111 111 111 111 111 111 111 111 111 112 113 114 114 114 114 114 114 113 110 105 99 92 84 76 69 63 58 54 51 49 47 46 46 47 49 52 54 56 58 60 62 63 64 66 67 68 68 67 66 65 64 63 61 60 59 58 57 56 55 55 54 54 54 54 54 54 54 54 54 54 54 54 54 53 53 54 55 56 57 59 62 65 68 70 75 
71 49 36 28 23 20 18 18 18 18 18 18 18 18 18 18 18 18 18 18 18 18 18 18 18 18 19 21 24 26 29 33 38 44 51 57 64 72 81 91 99 106 111 114 116 117 116 115 113 111 109 108 107 107 107 107 107 107 107 107 107 107 107 107 107 107 107 107 107 107 107 107 107 107 107 107 107 107 107 107 107 107 107 107 107 107 107 107 107 107 107 107 107 107 107 107 107 107 107 107 107 107 107 107 107 107 107 107 107 107 107 107 107 107 107 107 107 107 107 107 107 107 107 107 107 107 107 107 107 107 107 107 107 107 107 107 107 107 107 107 107 107 107 107 107 107 107 107 107 107 107 107 107 107 107 107 107 107 107 107 107 107 107 107 107 107 107 107 107 107 107 107 107 107 107 107 107 107 107 107 107 107 108 109 110 111 111 111 111 111 111 111 111 111 111 111 111 111 111 111 111 111 111 111 111 111 111 111 111 111 112 113 114 115 115 115 115 115 114 111 106 99 92 84 76 69 63 58 54 51 49 47 46 46 47 49 52 55 57 59 61 63 64 65 67 68 68 67 66 65 64 63 62 60 60 59 58 57 56 55 55 54 54 54 54 54 54 54 54 54 54 54 54 53 53 53 53 53 54 55 57 60 63 66 67 54 
19 29 27 24 21 19 18 18 18 18 18 18 18 18 18 18 18 18 18 18 18 18 18 18 18 18 19 21 24 26 29 33 38 44 51 58 65 73 82 92 100 106 111 114 116 116 115 114 113 111 109 108 107 107 107 107 107 107 107 107 107 107 107 107 107 107 107 107 107 107 107 107 107 107 107 107 107 107 107 107 107 107 107 107 107 107 107 107 107 107 107 107 107 107 107 107 107 107 107 107 107 107 107 107 107 107 107 107 107 107 107 107 107 107 107 107 107 107 107 107 107 107 107 107 107 107 107 107 107 107 107 107 107 107 107 107 107 107 107 107 107 107 107 107 107 107 107 107 107 107 107 107 107 107 107 107 107 107 107 107 107 107 107 107 107 107 107 107 107 107 107 107 107 107 107 107 107 107 107 107 107 107 108 109 110 111 111 111 111 111 111 111 111 111 111 111 111 111 111 111 111 111 111 111 111 111 111 111 111 111 112 113 114 115 116 116 116 116 115 112 107 100 92 84 76 69 63 58 54 51 49 47 46 46 47 49 52 56 58 60 62 63 65 66 67 67 66 65 64 63 62 61 60 60 60 59 58 57 56 55 55 55 55 55 55 55 55 55 55 54 54 54 53 53 52 52 52 52 52 53 55 58 62 68 80 113 
22 23 22 21 19 18 18 18 18 18 18 18 18 18 18 18 18 18 18 18 18 18 18 18 18 18 19 21 24 26 29 33 38 44 51 58 66 74 83 92 100 106 110 113 115 115 114 113 112 111 109 108 107 107 107 107 107 107 107 107 107 107 107 107 107 107 107 107 107 107 107 107 107 107 107 107 107 107 107 107 107 107 107 107 107 107 107 107 107 107 107 107 107 107 107 107 107 107 107 107 107 107 107 107 107 107 107 107 107 107 107 107 107 107 107 107 108 108 108 108 108 108 108 108 108 108 108 108 108 108 108 108 108 108 108 108 108 108 108 108 108 108 108 108 108 108 108 108 108 108 108 108 108 108 108 108 108 107 107 107 107 107 107 107 107 107 107 107 107 107 107 107 107 107 107 107 107 107 107 107 107 107 108 109 110 111 111 111 111 111 111 111 111 111 111 111 111 111 111 111 111 111 111 111 111 111 111 111 111 111 112 114 115 116 117 117 117 116 115 112 107 101 93 84 76 69 63 58 54 51 49 47 46 46 47 49 52 56 58 60 62 63 65 66 66 65 64 63 62 61 61 60 59 59 59 59 58 57 56 55 55 55 55 55 55 55 55 55 55 54 54 53 53 52 51 51 51 50 50 51 53 55 59 64 74 91 
26 21 20 19 18 18 18 18 18 18 18 18 18 18 18 18 18 18 18 18 18 18 18 18 18 18 19 21 24 26 29 33 38 44 51 58 66 74 83 92 99 105 109 112 113 113 113 112 111 110 109 108 107 107 107 107 107 107 107 107 107 107 107 107 107 107 107 107 107 107 107 107 107 107 107 107 107 107 107 107 107 107 107 107 107 107 107 107 107 107 107 107 107 107 107 107 107 107 107 107 107 107 107 107 107 107 107 107 107 107 107 107 107 107 107 107 108 109 109 109 110 110 110 110 110 110 110 110 110 110 110 110 110 110 110 110 110 110 110 110 110 110 110 110 110 109 109 109 109 109 109 109 109 109 109 109 108 108 107 107 107 107 107 107 107 107 107 107 107 107 107 107 107 107 107 108 108 108 108 107 107 107 108 109 110 111 112 112 112 112 111 111 111 111 111 111 111 111 111 111 111 111 111 111 111 111 111 111 111 111 112 114 116 117 118 118 117 116 115 112 107 101 93 84 76 69 63 58 54 51 49 47 46 46 47 49 52 55 58 60 62 63 64 64 64 63 62 62 61 60 60 59 59 59 59 59 58 57 56 55 55 55 55 55 55 55 55 55 55 54 53 53 52 51 50 50 49 48 48 49 50 52 55 58 61 65 
11 17 18 18 18 18 18 18 18 18 18 18 18 18 18 18 18 18 18 18 18 18 18 18 18 18 19 21 24 26 29 33 38 44 51 58 66 74 82 91 98 103 107 110 111 111 111 111 111 110 109 108 107 107 107 107 107 107 107 107 107 107 107 107 107 107 107 107 107 107 107 107 107 107 107 107 107 107 107 107 107 107 107 107 107 107 107 107 107 107 107 107 107 107 107 107 107 107 107 107 107 107 107 107 107 107 107 107 107 107 107 107 107 107 107 107 108 109 110 110 111 112 112 112 112 112 112 112 112 112 112 112 112 112 112 112 112 112 112 112 112 112 112 112 111 110 110 110 110 110 110 110 110 110 110 109 109 108 107 107 107 107 107 107 107 107 107 107 107 107 107 107 107 107 107 108 109 109 108 107 107 107 108 109 110 111 112 113 113 112 111 111 111 111 111 111 111 111 111 111 111 111 111 111 111 111 111 111 111 111 112 114 116 117 118 117 116 115 114 111 107 101 93 84 76 69 63 58 54 51 49 47 46 46 47 49 52 54 56 58 60 61 62 62 62 61 60 60 60 59 59 58 58 58 58 58 58 57 56 55 55 55 55 55 55 55 55 55 55 54 53 53 52 51 50 49 48 47 46 47 47 49 51 52 50 39 
20 19 18 18 18 18 18 18 18 18 18 18 18 18 18 18 18 18 18 18 18 18 18 18 18 18 19 21 24 26 29 33 38 44 51 58 66 74 81 89 96 101 104 107 108 109 110 110 110 110 109 108 107 107 107 107 107 107 107 107 107 107 107 107 107 107 107 107 107 107 107 107 107 107 107 107 107 107 107 107 107 107 107 107 107 107 107 107 107 107 107 107 107 107 107 107 107 107 107 107 107 107 107 107 107 107 107 107 107 107 106 106 106 106 107 107 108 109 110 111 112 113 114 115 115 115 115 115 115 115 115 115 115 115 115 115 114 114 114 114 114 114 114 113 112 112 111 111 111 111 111 111 111 111 110 110 109 108 107 107 107 107 107 107 107 107 107 107 107 107 107 107 107 107 107 108 109 109 108 107 107 107 108 109 110 111 112 112 112 112 111 111 111 111 111 111 111 111 111 111 111 111 111 111 111 111 111 111 111 111 112 114 116 117 117 116 115 114 112 110 106 100 92 84 76 69 63 58 54 51 49 47 46 46 47 49 51 53 55 56 57 58 59 59 59 59 58 58 58 58 58 57 57 57 57 57 57 57 56 55 55 55 55 55 55 55 55 55 55 55 54 54 53 51 49 48 46 45 44 44 44 46 48 49 49 49 
23 21 20 19 18 18 18 18 18 18 18 18 18 18 18 18 18 18 18 18 18 18 18 18 18 18 19 21 24 26 29 33 38 44 51 58 66 73 80 87 94 98 101 104 106 108 109 109 109 109 109 108 107 107 107 107 107 107 107 107 107 107 107 107 107 107 107 107 107 107 107 107 107 107 107 107 107 107 107 107 107 107 107 107 107 107 107 107 107 107 107 107 107 107 107 107 107 107 107 107 107 107 107 107 107 107 107 106 106 106 105 105 105 105 106 107 108 109 111 112 114 115 117 118 119 119 119 119 118 118 118 118 118 118 118 117 117 116 116 116 116 116 115 114 114 113 112 112 112 112 112 112 112 111 111 110 109 108 108 107 107 107 107 107 107 107 107 107 107 107 107 107 107 107 107 108 108 108 108 107 107 107 108 109 110 111 111 111 111 111 111 111 111 111 111 111 111 111 111 111 111 111 111 111 111 111 111 111 111 111 112 114 115 116 115 114 113 112 110 108 104 98 91 84 76 69 63 58 54 51 49 47 46 46 47 49 51 52 53 54 55 56 56 56 56 56 56 56 56 56 56 56 56 56 56 56 56 56 56 55 55 55 56 56 56 56 56 56 56 56 56 55 54 52 49 47 45 43 42 42 42 44 46 49 51 46 
28 24 22 20 19 18 18 18 18 18 18 18 18 18 18 18 18 18 18 18 18 18 18 18 18 18 19 21 24 26 29 33 38 44 51 58 65 72 79 86 92 96 99 102 104 106 108 108 108 108 108 108 107 107 107 107 107 107 107 107 107 107 107 107 107 107 107 107 107 107 107 107 107 107 107 107 107 107 107 107 107 107 107 107 107 107 107 107 107 107 107 107 107 107 107 107 107 107 107 107 107 106 106 106 106 106 106 105 105 105 104 104 104 104 105 106 108 109 111 113 115 117 119 121 122 122 122 122 121 121 121 121 121 121 120 120 119 118 118 118 118 117 116 116 115 114 113 113 113 113 113 113 112 112 111 110 109 109 108 107 107 107 107 107 107 107 107 107 107 107 107 107 107 107 107 107 107 107 107 107 107 107 108 109 110 111 111 111 111 111 111 111 111 111 111 111 111 111 111 111 111 111 111 111 111 111 111 111 111 111 112 113 114 114 113 112 111 110 108 106 102 96 90 83 76 69 63 58 54 51 49 47 46 46 47 49 50 51 52 53 54 54 54 54 54 54 55 55 55 55 55 55 55 55 55 55 55 55 55 55 55 55 56 57 57 57 57 57 57 57 57 56 54 51 48 45 43 41 40 40 40 42 45 50 61 90 
25 28 25 22 20 18 18 18 18 18 18 18 18 18 18 18 18 18 18 18 18 18 18 18 18 18 19 21 23 26 29 33 38 44 51 58 65 72 79 85 91 95 98 101 103 105 107 107 107 107 107 107 107 107 107 107 107 107 107 107 107 107 107 107 107 107 107 107 107 107 107 107 107 107 107 107 107 107 107 107 107 107 107 107 107 107 107 107 107 107 107 107 107 107 107 107 107 107 106 106 106 105 105 105 105 105 105 104 104 104 103 103 103 103 104 105 107 109 111 114 116 118 120 122 123 123 124 124 124 123 123 123 123 123 123 122 121 121 120 120 119 118 118 117 116 115 115 114 114 114 114 113 113 112 111 110 110 109 108 108 107 107 107 107 107 107 107 107 107 107 107 107 107 107 108 107 107 107 107 107 107 107 108 109 110 111 111 111 111 111 111 111 111 111 111 111 111 111 111 111 111 111 111 111 111 111 111 111 111 111 112 112 112 112 111 110 109 108 106 104 101 95 89 83 76 69 63 58 54 51 49 47 46 46 47 48 49 50 51 52 53 53 53 53 53 53 54 54 54 54 55 55 55 55 55 55 55 55 55 55 55 55 56 57 57 58 58 58 58 57 56 55 53 50 46 43 41 39 38 37 37 39 41 46 55 71 
56 38 29 24 21 19 18 18 18 18 18 18 18 18 18 18 18 18 18 18 18 18 18 18 18 18 19 20 22 25 29 33 38 44 51 58 65 72 79 85 91 95 98 100 102 104 106 107 107 107 107 107 107 107 107 107 107 107 107 107 107 107 107 107 107 107 107 107 107 107 107 107 107 107 107 107 107 107 107 107 107 107 107 107 107 107 107 107 107 107 107 107 107 107 107 107 107 106 105 105 105 104 104 104 104 104 104 103 103 103 102 102 102 102 103 104 106 108 110 113 115 117 119 121 122 123 124 125 125 125 125 125 125 125 125 124 124 123 122 121 120 120 119 118 117 117 116 115 115 115 114 114 113 112 111 111 110 109 109 108 107 107 107 107 107 107 107 107 107 107 107 107 107 107 108 107 107 107 107 107 107 107 108 109 110 111 111 111 111 111 111 111 111 111 111 111 111 111 111 111 111 111 111 111 111 111 111 111 111 111 111 111 111 111 110 109 108 107 105 103 100 94 88 82 76 69 63 58 54 51 49 47 46 46 47 48 49 50 50 51 52 52 52 52 52 52 53 53 53 53 54 55 56 56 56 56 56 56 56 56 55 55 56 57 57 58 58 58 57 56 54 52 50 47 43 41 39 37 36 35 34 35 36 39 43 53 
55 39 30 24 21 19 18 18 18 18 18 18 18 18 18 18 18 18 18 18 18 18 18 18 18 18 18 19 21 24 28 33 38 44 51 58 65 72 79 86 92 96 98 100 102 104 106 107 107 107 107 107 107 107 107 107 107 107 107 107 107 107 107 107 107 107 107 107 107 107 107 107 107 107 107 107 107 107 107 107 107 107 107 107 107 107 107 107 107 107 107 107 107 107 107 107 106 105 104 104 104 103 103 103 103 103 103 102 102 102 101 101 101 101 101 102 104 106 108 110 112 114 116 118 119 121 122 124 125 125 126 127 127 127 127 127 126 125 124 123 122 122 121 120 119 118 117 116 116 115 115 114 113 112 112 111 110 110 109 108 107 107 107 107 107 107 107 107 107 107 107 107 107 107 107 107 107 107 107 107 107 107 108 109 110 110 110 110 110 110 110 110 110 110 110 110 110 110 110 110 110 110 110 110 110 110 110 110 110 110 110 110 110 110 110 109 108 106 104 102 99 93 87 81 75 69 63 58 54 51 49 47 46 46 47 48 49 49 49 50 51 51 51 51 51 51 52 52 52 52 53 55 56 57 57 57 57 57 57 56 55 55 56 57 57 57 57 56 55 53 51 49 46 43 40 38 36 35 34 33 32 32 31 31 28 14 
44 34 28 23 20 19 18 18 18 18 18 18 18 18 18 18 18 18 18 18 18 18 18 18 18 18 18 19 21 24 28 33 38 44 51 59 66 73 80 87 93 97 99 101 103 104 106 106 106 106 106 106 106 106 106 106 106 106 106 106 106 106 106 106 106 106 106 106 106 106 106 106 106 106 106 106 106 106 106 106 106 106 106 106 106 106 106 106 106 106 106 106 106 106 106 106 105 104 103 103 103 102 102 102 102 102 102 101 101 100 99 98 98 98 98 98 99 101 103 105 107 109 111 113 115 117 119 121 123 124 125 127 128 129 130 130 129 128 127 126 125 124 123 122 121 120 119 118 117 116 115 114 113 113 112 111 111 110 109 108 107 107 107 107 107 107 107 107 107 107 107 107 107 107 107 107 107 107 107 107 107 107 108 109 110 110 110 110 110 110 110 110 110 110 110 110 110 110 110 110 110 110 110 110 110 110 110 110 110 110 110 110 110 110 110 109 108 106 104 102 98 93 87 81 75 69 63 58 54 51 49 47 46 46 47 48 48 48 48 49 50 50 50 50 50 50 51 51 51 51 52 54 56 58 59 59 58 58 57 56 55 55 56 56 56 55 54 52 51 49 47 45 42 40 37 35 34 33 32 31 30 29 28 27 26 25 
26 27 25 22 20 19 18 18 18 18 18 18 18 18 18 18 18 18 18 18 18 18 18 18 18 18 18 19 21 24 28 33 38 44 51 59 67 74 82 89 95 99 101 102 103 104 105 105 105 105 105 105 105 105 105 105 105 105 105 105 105 105 105 105 105 105 105 105 105 105 105 105 105 105 105 105 105 105 105 105 105 105 105 105 105 105 105 105 105 105 105 105 105 105 105 105 104 103 102 102 102 101 101 101 101 101 100 99 98 96 95 94 93 92 92 92 92 93 95 97 99 101 103 105 108 110 113 116 119 121 123 126 128 130 132 133 133 132 131 129 128 127 126 124 123 122 121 119 118 117 116 115 114 113 112 112 111 110 109 108 108 107 107 107 107 107 107 107 107 107 107 107 107 107 107 107 107 107 107 107 107 107 108 109 109 109 109 109 109 109 109 109 109 109 109 109 109 109 109 109 109 109 109 109 109 109 109 109 109 109 109 109 109 109 109 108 107 106 105 102 98 92 87 81 75 69 63 58 54 51 49 47 46 46 47 47 47 47 47 48 49 49 49 49 49 49 50 50 50 50 51 53 55 58 59 59 59 58 57 56 55 55 55 55 53 52 50 48 46 44 42 41 39 37 35 33 32 31 30 29 28 27 26 25 24 25 
23 24 23 21 20 19 18 18 18 18 18 18 18 18 18 18 18 18 18 18 18 18 18 18 18 18 18 19 21 24 28 33 38 44 51 59 67 75 83 90 96 100 102 103 104 104 104 104 104 104 104 104 104 104 104 104 104 104 104 104 104 104 104 104 104 104 104 104 104 104 104 104 104 104 104 104 104 104 104 104 104 104 104 104 104 104 104 104 104 104 104 104 104 104 104 104 103 102 101 101 101 100 100 100 99 98 97 95 93 91 89 87 86 85 85 84 84 85 87 88 90 92 94 96 99 102 105 109 113 116 119 123 126 129 132 134 135 135 134 132 131 130 128 127 125 124 122 120 119 118 117 116 115 114 113 112 111 110 109 109 108 107 107 107 107 107 107 107 107 107 107 107 107 107 107 107 107 107 107 107 107 107 108 108 108 108 108 108 108 108 108 108 108 108 108 108 108 108 108 108 108 108 108 108 108 108 108 108 108 108 108 108 108 108 108 108 107 106 105 102 98 92 86 80 74 69 63 58 54 51 49 47 46 46 46 46 46 46 46 47 47 48 48 48 48 48 49 49 49 49 50 52 54 57 58 59 59 58 57 56 55 55 54 53 50 48 46 44 42 40 39 37 35 34 32 31 30 29 28 27 26 25 24 23 20 12 
25 25 24 22 20 19 18 18 18 18 18 18 18 18 18 18 18 18 18 18 18 18 18 18 18 18 18 19 21 24 28 33 38 44 51 59 68 76 84 92 98 102 104 104 104 104 104 104 104 104 104 104 104 104 104 104 104 104 104 104 104 104 104 104 104 104 104 104 104 104 104 104 104 104 104 104 104 104 104 104 104 104 104 104 104 104 104 104 104 104 104 104 104 104 104 103 102 101 100 100 100 99 99 98 96 94 92 89 86 84 82 80 79 78 77 76 76 77 78 80 81 83 85 87 90 93 96 100 105 109 113 118 122 126 130 133 135 136 136 135 134 132 131 129 127 125 123 122 120 119 118 117 116 115 114 113 112 111 110 109 108 108 107 107 107 107 107 107 107 107 107 107 107 107 107 107 107 107 107 107 107 107 108 108 108 108 108 108 108 108 108 108 108 108 108 108 108 108 108 108 108 108 108 108 108 108 108 108 108 108 108 108 108 108 108 108 107 106 105 102 98 92 86 79 73 68 63 58 54 51 49 47 46 46 46 46 46 46 46 46 46 47 47 47 47 47 48 48 48 48 49 50 52 55 57 58 58 57 56 55 54 53 52 50 47 45 43 41 39 38 36 34 33 32 30 29 28 27 26 25 24 23 23 23 23 24 
32 29 26 23 21 19 18 18 18 18 18 18 18 18 18 18 18 18 18 18 18 18 18 18 18 18 18 19 21 24 28 33 38 44 51 59 68 77 85 93 99 103 105 105 105 104 104 104 104 104 104 104 104 104 104 104 104 104 104 104 104 104 104 104 104 104 104 104 104 104 104 104 104 104 104 104 104 104 104 104 104 104 104 104 104 104 104 104 104 104 104 104 104 104 103 102 101 100 99 99 99 98 96 94 91 88 85 82 79 77 75 73 72 71 70 69 69 69 70 71 72 74 76 78 81 84 87 91 96 100 105 111 116 121 126 130 133 135 136 136 136 135 133 131 129 127 125 123 121 120 119 118 117 116 115 114 113 112 111 110 109 108 107 107 107 107 107 107 107 107 107 107 107 107 107 107 107 107 107 107 107 107 108 108 108 108 108 108 108 108 108 108 108 108 108 108 109 109 109 109 109 109 109 109 109 109 109 109 109 109 109 109 109 109 109 109 108 107 106 103 98 92 85 78 72 67 63 58 54 51 49 47 46 46 46 46 46 46 46 46 46 46 46 46 46 46 47 47 47 47 48 49 50 52 54 55 55 55 54 53 52 50 48 46 44 42 40 38 36 35 34 32 31 30 28 27 26 25 24 23 23 23 23 24 26 32 
35 33 29 25 22 19 18 18 18 18 18 18 18 18 18 18 18 18 18 18 18 18 18 18 18 18 18 19 21 24 28 33 38 44 51 59 68 77 86 94 100 104 106 106 105 104 104 104 104 104 104 104 104 104 104 104 104 104 104 104 104 104 104 104 104 104 104 104 105 105 104 104 104 104 104 104 104 104 104 104 104 104 104 104 104 104 104 104 104 104 104 104 104 103 102 101 100 99 98 98 97 95 92 88 85 81 78 75 72 70 68 66 65 64 63 62 61 61 62 62 63 65 67 69 72 75 78 82 87 91 96 102 108 114 120 125 129 132 134 135 136 136 135 133 131 129 127 124 122 121 120 118 117 116 115 114 113 112 111 110 109 108 107 107 107 107 107 107 107 107 107 107 107 107 107 107 107 107 107 107 107 107 108 108 108 108 108 108 108 108 108 108 108 108 108 108 109 109 109 109 109 109 109 109 109 109 109 109 109 109 109 109 109 109 109 109 109 108 106 103 97 91 84 77 71 66 62 58 54 51 49 47 46 46 46 46 46 46 46 46 46 46 46 45 45 45 45 45 45 46 46 47 48 49 50 51 51 51 50 49 48 46 44 42 40 39 37 35 33 32 31 30 29 28 26 25 24 23 23 23 23 23 23 24 27 35 
53 39 32 27 23 20 18 18 18 18 18 18 18 18 18 18 18 18 18 18 18 18 18 18 18 18 18 19 21 24 28 32 37 43 50 58 67 77 86 94 100 104 106 106 105 104 104 104 104 104 104 104 104 104 104 104 104 104 104 104 104 104 104 104 104 104 104 104 104 104 104 104 104 104 104 104 104 104 104 104 104 104 104 104 104 104 104 104 104 104 104 104 103 102 101 100 99 98 97 95 93 90 86 82 78 74 71 68 65 63 61 59 58 57 56 55 54 53 53 54 55 56 58 60 63 66 69 73 78 82 87 93 99 105 112 118 123 127 130 133 135 136 136 135 133 131 128 125 123 122 120 118 117 116 115 114 113 112 111 110 109 108 107 107 107 107 107 108 108 108 108 108 108 108 108 108 108 108 108 108 108 107 108 108 108 108 108 108 108 108 108 108 108 108 108 108 109 109 109 109 109 109 109 109 109 109 109 109 109 109 109 109 109 109 109 109 109 108 106 103 97 90 83 76 70 65 61 58 54 51 49 47 46 46 46 46 46 46 46 46 46 46 45 45 44 44 44 44 44 44 44 45 45 46 46 46 46 46 45 44 43 41 40 38 36 35 34 32 31 30 29 28 27 26 25 24 23 23 23 23 23 23 23 23 23 19 
45 39 33 28 24 21 19 18 18 18 18 18 18 18 18 18 18 18 18 18 18 18 18 18 18 18 18 19 21 24 27 31 36 42 49 57 66 76 85 93 99 103 105 106 105 104 104 104 104 104 104 104 104 104 104 104 104 104 104 104 104 104 104 104 104 104 104 104 104 104 104 104 104 104 104 104 104 104 104 104 104 104 104 104 104 104 104 104 104 104 104 103 102 101 100 99 98 97 95 92 88 84 80 76 72 68 64 61 58 56 54 52 51 50 49 48 47 46 45 46 47 48 50 52 54 57 60 64 69 73 78 84 90 96 103 109 115 120 125 129 132 134 135 135 134 132 129 126 124 122 120 118 117 116 115 114 113 112 111 110 109 108 107 107 107 107 107 108 109 109 110 110 110 110 110 110 109 109 109 109 108 107 107 107 107 107 107 107 107 107 108 108 108 108 108 108 109 109 109 109 109 109 109 109 109 109 109 109 109 109 109 109 109 109 109 109 109 109 107 103 97 90 82 75 69 64 60 57 54 51 49 47 46 46 46 46 46 46 46 46 46 45 45 44 43 43 43 43 43 42 42 42 42 42 42 42 41 40 39 38 37 36 35 34 33 32 31 29 28 27 26 26 25 24 24 23 23 23 23 23 23 24 24 25 23 13 
56 42 34 28 24 21 19 18 18 18 18 18 18 18 18 18 18 18 18 18 18 18 18 18 18 18 18 19 20 23 26 30 35 41 48 56 65 74 83 91 97 101 104 105 105 104 104 104 104 104 104 104 104 104 104 104 104 104 104 104 104 104 104 104 104 104 104 104 104 104 104 104 104 104 104 104 104 104 104 104 104 104 104 104 104 104 104 104 104 104 103 102 101 100 99 98 97 94 91 87 82 78 74 70 66 62 58 54 51 49 47 45 44 43 42 41 40 39 38 38 39 40 42 44 46 49 52 56 60 65 70 75 81 87 94 101 107 113 119 124 128 131 133 134 134 133 130 127 125 123 120 118 117 116 115 114 113 112 111 110 109 108 107 107 107 107 107 108 109 110 111 112 112 111 111 111 110 110 110 109 108 107 107 107 107 107 107 107 107 107 108 108 108 108 108 108 109 109 109 109 109 109 109 109 109 109 109 109 109 109 109 109 109 110 110 110 110 109 107 103 97 89 81 74 68 63 59 57 54 51 49 47 46 46 46 46 46 46 46 46 45 45 44 43 42 42 42 42 41 40 40 40 39 39 38 37 36 35 34 33 32 31 31 30 29 28 28 27 26 25 25 24 24 24 24 23 23 23 23 23 23 25 27 30 34 38 
51 41 34 28 24 21 19 18 18 18 18 18 18 18 18 18 18 18 18 18 18 18 18 18 18 18 18 18 19 22 25 29 34 40 47 55 63 71 80 88 95 100 103 105 105 104 104 104 104 104 104 104 104 104 104 104 104 104 104 104 104 104 104 104 104 104 104 104 104 104 104 104 104 104 104 104 104 104 104 104 104 104 104 104 104 104 104 104 104 104 103 102 101 100 99 97 95 91 86 81 77 72 68 64 60 56 52 48 45 43 41 39 37 36 35 34 33 32 31 31 31 32 34 36 38 41 44 48 52 57 62 67 73 79 86 93 99 105 111 117 122 126 129 132 133 133 131 128 126 123 120 118 117 116 115 114 113 112 111 110 109 108 107 107 107 107 107 108 109 110 112 113 113 112 112 112 111 111 110 109 108 107 107 107 107 107 107 107 107 107 108 108 108 108 108 108 109 109 109 109 109 109 109 109 109 109 109 109 109 109 109 109 109 110 110 110 110 109 106 102 96 88 80 73 67 62 59 57 54 51 49 47 46 46 46 46 46 46 46 45 45 44 43 42 41 41 41 40 39 38 38 37 36 35 34 33 32 31 30 29 28 28 28 27 26 26 26 25 25 25 24 24 24 24 24 23 23 23 23 23 24 26 30 36 45 57 
41 39 33 28 24 21 19 18 18 18 18 18 18 18 18 18 18 18 18 18 18 18 18 18 18 18 18 18 19 21 24 28 33 39 46 53 60 68 77 85 92 98 102 104 105 104 104 104 104 104 104 104 104 104 104 104 104 104 104 104 104 104 104 104 104 104 104 104 104 104 104 104 104 104 104 104 104 104 104 104 104 104 104 104 104 104 104 104 104 103 102 101 100 99 98 95 92 87 81 76 71 66 62 58 54 50 46 42 39 37 35 33 31 30 29 28 27 26 25 25 26 27 29 30 31 33 36 40 44 49 54 59 65 71 78 85 91 97 103 109 115 120 125 129 131 132 131 129 126 123 120 118 117 116 115 114 113 112 111 110 109 108 107 107 107 107 107 108 109 110 112 113 113 113 113 113 112 111 110 109 108 107 107 107 107 107 107 107 107 107 108 108 108 108 108 108 109 109 109 109 109 109 109 109 109 109 109 109 109 109 109 109 109 110 110 111 111 109 106 101 95 87 79 72 66 62 59 57 54 51 49 47 46 46 46 46 46 46 45 45 44 43 42 41 40 40 39 38 37 36 35 34 33 32 31 30 29 28 27 26 26 26 26 25 25 25 25 25 25 24 24 24 24 24 24 23 23 23 23 23 24 27 32 40 55 94 
58 41 33 28 24 21 19 18 18 18 18 18 18 18 18 18 18 18 18 18 18 18 18 18 18 18 18 18 19 21 24 28 32 38 44 51 58 66 74 82 90 96 100 103 104 104 104 104 104 104 104 104 104 104 104 104 104 104 104 104 104 104 104 104 104 104 104 104 104 104 104 104 104 104 104 104 104 104 104 104 104 104 104 104 104 104 104 104 103 102 101 100 99 98 96 92 88 82 76 71 66 61 56 52 48 44 40 36 33 31 29 27 26 25 24 24 23 22 22 22 23 24 25 26 27 28 30 33 37 41 46 51 57 63 70 77 83 89 95 102 108 114 120 125 128 130 130 129 126 123 120 118 117 116 115 114 113 112 111 110 109 108 107 107 107 107 107 108 109 110 112 113 114 114 114 114 113 112 111 110 108 107 107 107 107 107 107 107 107 107 108 108 108 108 108 108 109 109 109 109 109 109 109 109 109 109 109 109 109 109 109 109 109 110 110 111 111 109 105 100 93 86 78 71 66 62 59 57 54 51 49 47 46 46 46 46 46 46 45 44 43 42 41 40 39 39 38 37 36 35 34 33 32 31 30 29 28 27 26 25 25 25 25 25 25 25 25 25 24 24 24 24 24 24 24 23 23 23 23 23 24 27 31 37 44 46 
29 34 31 27 23 20 18 18 18 18 18 18 18 18 18 18 18 18 18 18 18 18 18 18 18 18 18 18 18 20 23 26 30 36 42 48 55 63 71 79 87 94 99 102 104 104 104 104 104 104 104 104 104 104 104 104 104 104 104 104 104 104 104 104 104 104 104 104 104 104 104 104 104 104 104 104 104 104 104 104 104 104 104 104 104 104 104 103 102 101 100 99 98 97 94 89 83 77 71 66 61 56 51 46 42 38 34 30 27 25 23 22 21 21 21 21 20 20 20 20 20 21 22 23 24 25 26 28 31 34 38 43 49 55 62 69 75 81 87 94 101 107 114 120 124 127 128 128 126 123 120 118 117 116 115 114 113 112 111 110 109 108 107 107 107 107 107 108 109 110 112 114 115 116 116 115 114 113 112 110 108 107 107 107 107 107 107 107 107 107 108 108 108 108 108 108 109 109 109 109 109 109 109 109 109 109 109 109 109 109 109 109 109 110 110 111 110 108 104 98 91 84 77 71 66 62 59 56 54 51 49 47 46 46 46 46 46 46 45 44 43 42 41 40 39 38 37 36 35 34 33 32 31 30 29 28 27 26 25 25 25 25 25 25 25 25 25 24 24 24 24 24 24 24 24 23 23 23 23 23 24 26 29 33 38 48 
36 35 30 26 22 19 18 18 18 18 18 18 18 18 18 18 18 18 18 18 18 18 18 18 18 18 18 18 18 19 22 25 29 34 40 46 53 60 68 76 84 91 97 101 103 104 104 104 104 104 104 104 104 104 104 104 104 104 104 104 104 104 104 104 104 104 104 104 104 104 104 104 104 104 104 104 104 104 104 104 104 104 104 104 104 104 103 102 101 100 99 98 97 95 91 85 79 73 66 61 56 51 46 41 36 32 28 25 23 21 20 19 19 19 19 19 19 19 19 19 19 19 20 21 22 23 24 25 27 29 32 36 41 47 54 61 67 73 80 87 94 100 107 114 119 123 126 127 126 123 120 118 117 116 115 114 113 112 111 110 109 108 107 107 107 107 107 108 109 110 112 114 116 117 117 117 116 114 112 110 108 107 107 107 107 107 107 107 107 107 108 108 108 108 108 108 109 109 109 109 109 109 109 109 109 109 109 109 109 109 109 109 109 110 110 111 110 107 102 96 89 82 76 70 65 61 58 56 54 51 49 47 46 46 46 46 46 46 45 44 43 42 41 40 39 38 37 36 35 34 33 32 31 30 29 28 27 26 25 25 25 25 25 25 25 25 24 24 24 24 24 24 24 24 24 23 23 23 23 23 23 25 27 29 30 29 
57 40 31 25 21 19 18 18 18 18 18 18 18 18 18 18 18 18 18 18 18 18 18 18 18 18 18 18 18 19 21 24 27 32 38 43 50 57 65 73 80 87 94 99 102 104 104 104 104 104 104 104 104 104 104 104 104 104 104 104 104 104 104 104 104 104 104 104 104 104 104 104 104 104 104 104 104 104 104 104 104 104 104 104 104 104 103 102 101 100 99 98 96 92 87 81 75 68 62 56 51 46 41 36 31 27 24 22 20 19 18 18 18 18 18 18 18 18 18 18 18 18 18 19 20 21 22 23 24 26 28 31 35 40 46 53 59 66 73 80 87 93 100 107 113 119 123 125 125 123 120 118 117 116 115 114 113 112 111 110 109 108 107 107 107 107 107 108 109 110 112 114 116 117 118 118 117 115 112 110 108 107 107 107 107 107 107 107 107 107 108 108 108 108 108 108 109 109 109 109 109 109 109 109 109 109 109 109 109 109 109 109 109 110 110 110 109 105 100 94 87 80 74 69 64 60 57 55 53 51 49 47 46 46 46 46 46 46 45 44 43 42 41 40 39 38 37 36 36 35 34 33 32 31 30 29 28 27 26 25 25 25 25 25 25 24 24 24 24 24 24 24 24 24 23 23 23 23 23 23 23 24 25 26 26 25 
59 38 29 24 21 19 18 18 18 18 18 18 18 18 18 18 18 18 18 18 18 18 18 18 18 18 18 18 18 18 20 23 26 30 35 40 47 54 62 70 77 84 91 97 101 104 105 105 105 104 104 104 104 104 104 104 104 104 104 104 104 104 104 104 104 104 104 104 104 104 104 104 104 104 104 104 104 104 104 104 104 104 104 104 104 103 102 101 100 99 98 97 94 89 83 77 70 64 58 52 46 41 36 31 27 24 22 20 19 18 18 18 18 18 18 18 18 18 18 18 18 18 18 18 19 20 21 22 23 24 26 28 31 35 40 45 52 59 66 73 80 87 94 101 107 114 119 122 123 122 120 118 117 116 115 114 113 112 111 110 109 108 107 107 107 107 107 108 109 110 112 113 115 117 118 118 117 115 112 110 108 107 107 107 107 107 107 107 107 107 108 108 108 108 108 108 109 109 109 109 109 109 109 109 109 109 109 109 109 109 109 109 109 110 110 110 108 104 98 92 85 78 72 68 63 59 57 55 53 51 49 47 46 46 46 46 46 46 45 44 43 42 41 41 40 39 38 37 37 36 35 34 33 32 31 30 29 28 27 26 26 26 26 26 25 24 24 24 24 24 24 24 24 23 23 23 23 23 23 23 23 23 23 24 25 27 
26 27 24 22 20 18 18 18 18 18 18 18 18 18 18 18 18 18 18 18 18 18 18 18 18 18 18 18 18 18 19 22 25 28 33 38 44 51 59 67 74 81 88 95 100 103 105 105 105 104 104 104 104 104 104 104 104 104 104 104 104 104 104 104 104 104 104 104 104 104 104 104 104 104 104 104 104 104 104 104 104 104 104 104 104 103 102 101 100 99 98 95 91 85 79 72 66 60 54 48 42 36 31 27 24 22 20 19 18 18 18 18 18 18 18 18 18 18 18 18 18 18 18 18 18 19 20 21 22 23 25 27 29 32 35 39 45 52 59 66 73 80 87 94 101 108 114 118 120 121 120 118 117 116 115 114 113 112 111 110 109 108 107 107 107 107 107 108 109 110 111 112 114 115 116 116 115 113 111 110 108 107 107 107 107 107 107 107 107 107 108 108 108 108 108 108 109 109 109 109 109 109 109 109 109 109 109 109 109 109 109 109 109 110 110 109 106 102 96 90 83 76 71 67 62 59 56 55 53 51 49 47 46 46 46 46 46 45 44 43 42 42 42 42 41 40 39 38 38 38 37 36 35 34 33 32 31 30 29 28 28 28 28 27 26 25 25 25 24 24 24 24 23 23 23 23 23 23 23 23 23 23 23 23 23 22 
16 21 21 20 19 18 18 18 18 18 18 18 18 18 18 18 18 18 18 18 18 18 18 18 18 18 18 18 18 18 19 21 23 26 31 36 42 49 56 64 71 78 85 92 98 102 104 104 104 104 104 104 104 104 104 104 104 104 104 104 104 104 104 104 104 104 104 104 104 104 104 104 104 104 104 104 104 104 104 104 104 104 104 104 104 103 102 101 100 99 97 93 87 81 75 68 62 56 50 44 38 32 27 24 22 20 19 18 18 18 18 18 18 18 18 18 18 18 18 18 18 18 18 18 18 19 20 21 22 23 24 26 28 30 32 35 40 45 52 59 67 74 81 88 95 102 109 114 117 119 119 118 117 116 115 114 113 112 111 110 109 108 107 107 107 107 107 108 109 110 110 111 112 113 113 113 112 111 110 109 108 107 107 107 107 107 107 107 107 107 108 108 108 108 108 108 109 109 109 109 109 109 109 109 109 109 109 109 109 109 109 109 109 110 110 108 105 100 94 88 81 75 70 65 61 58 56 55 53 51 49 47 46 46 46 46 45 45 44 43 43 43 43 43 42 41 40 39 39 39 39 38 38 37 36 35 34 33 32 31 31 31 30 29 28 27 27 26 25 25 24 24 23 23 23 23 23 23 23 23 23 23 23 23 22 18 
21 21 20 19 18 18 18 18 18 18 18 18 18 18 18 18 18 18 18 18 18 18 18 18 18 18 18 18 18 18 18 20 22 25 29 34 39 46 53 61 69 76 83 90 96 101 103 103 103 103 103 103 103 103 103 103 104 104 104 104 104 104 104 104 104 104 104 104 104 104 104 104 104 104 104 104 104 104 104 104 104 104 104 104 104 104 103 102 101 99 96 91 85 78 71 64 58 52 46 40 34 29 25 22 20 19 18 18 18 18 18 18 18 18 18 18 18 18 18 18 18 18 18 18 18 19 20 21 22 23 24 25 27 29 31 33 36 40 46 53 61 68 75 82 90 97 104 110 115 118 119 118 117 116 115 114 113 112 111 110 109 108 107 107 107 107 107 108 109 109 109 110 110 110 110 110 110 110 109 109 108 107 107 107 107 107 107 107 107 107 108 108 108 108 108 108 109 109 109 109 109 109 109 109 110 110 110 110 109 109 109 109 109 110 109 107 103 97 91 85 79 73 68 64 60 57 55 54 53 51 49 47 46 46 46 46 45 45 44 44 44 44 44 44 43 42 41 40 40 40 40 40 40 40 39 39 38 37 36 35 35 34 33 32 31 30 30 29 28 27 26 25 24 24 24 24 24 24 24 24 24 24 24 25 25 28 
27 22 19 18 18 18 18 18 18 18 18 18 18 18 18 18 18 18 18 18 18 18 18 18 18 18 18 18 18 18 18 19 21 23 27 31 36 43 51 59 67 74 81 88 95 100 102 103 103 103 103 103 103 103 103 103 104 104 104 104 104 104 104 104 104 104 104 104 104 104 104 104 104 104 104 104 104 104 104 104 104 104 104 104 104 104 104 103 102 99 95 89 82 75 68 61 54 48 42 36 31 26 23 21 20 19 18 18 18 18 18 18 18 18 18 18 18 18 18 18 18 18 18 18 18 19 20 21 22 23 24 25 26 28 30 32 34 37 41 47 55 63 70 78 85 92 99 106 112 116 118 118 117 116 115 114 113 112 111 110 109 108 107 107 107 107 107 108 108 108 108 108 108 108 108 108 108 108 108 108 108 107 107 107 107 107 107 107 107 107 108 108 108 108 108 108 109 109 109 109 109 109 109 109 110 110 110 110 109 109 109 109 109 109 108 105 100 94 88 82 77 71 66 62 59 56 55 54 53 51 49 47 46 46 46 46 45 45 45 45 45 45 45 45 44 43 42 41 41 42 42 42 42 42 42 42 42 41 40 40 39 38 37 36 35 34 33 32 31 29 28 26 25 25 25 25 25 24 24 24 25 26 27 28 27 15 
28 22 19 18 18 18 18 18 18 18 18 18 18 18 18 18 18 18 18 18 18 18 18 18 18 18 18 18 18 18 18 19 20 22 25 29 34 41 49 57 65 72 79 86 93 99 102 104 104 104 104 104 104 104 104 104 104 104 104 104 104 104 104 104 104 104 104 104 104 104 104 104 104 104 104 104 104 105 105 105 105 105 105 105 105 105 105 104 102 99 94 87 80 73 65 58 51 45 39 33 28 24 22 21 20 19 18 18 18 18 18 18 18 18 18 18 18 18 18 18 18 18 18 18 18 19 20 21 22 23 24 25 26 27 29 31 33 35 38 43 50 58 66 74 81 88 95 102 109 114 117 118 117 116 115 114 113 112 111 110 109 108 107 107 107 107 107 107 107 107 107 107 107 107 107 107 107 107 107 107 107 107 107 107 107 107 107 107 107 107 108 108 108 108 108 108 109 109 109 109 109 109 109 109 110 110 110 110 109 109 109 109 109 109 107 103 97 92 86 80 75 69 64 61 58 56 54 53 52 51 49 47 46 46 46 46 46 46 46 46 46 46 46 46 45 44 43 42 43 44 44 44 45 45 45 45 45 45 44 44 43 43 42 41 40 38 36 35 33 31 30 28 26 26 26 26 25 24 24 25 26 28 30 33 39 56 
15 19 19 18 18 18 18 18 18 18 18 18 18 18 18 18 18 18 18 18 18 18 18 18 18 18 18 18 18 18 18 19 20 21 23 27 32 39 47 55 63 70 77 84 91 98 102 104 105 105 105 105 105 105 105 105 105 105 105 105 105 105 105 105 105 105 105 105 105 105 105 104 104 104 104 104 104 105 105 106 106 106 106 106 106 106 106 105 103 99 93 85 78 70 63 56 49 42 36 30 26 23 22 21 20 19 18 18 18 18 18 18 18 18 18 18 18 18 18 18 18 18 18 18 18 19 20 21 22 23 24 25 26 27 29 31 33 35 37 41 47 55 63 71 78 85 92 99 106 112 116 118 118 117 116 115 114 113 112 111 110 108 107 107 107 107 107 107 107 107 107 107 107 107 107 107 107 107 107 107 107 107 107 107 107 107 107 107 107 107 108 108 108 108 108 108 109 109 109 109 109 109 109 109 110 110 110 110 109 109 109 109 109 108 105 100 95 90 84 78 73 67 63 60 57 55 54 53 52 51 49 47 46 46 46 46 46 46 46 46 46 46 46 46 46 45 44 44 44 45 46 46 47 48 48 48 48 48 48 48 47 47 46 44 43 41 39 37 36 34 32 29 27 27 26 26 25 24 24 25 27 30 33 37 42 49 
21 22 20 19 18 18 18 18 18 18 18 18 18 18 18 18 18 18 18 18 18 18 18 18 18 18 18 18 18 18 18 19 20 21 22 25 30 37 45 53 61 68 75 83 90 97 102 105 106 106 106 106 106 106 106 106 106 106 106 106 106 106 106 106 106 106 106 106 106 106 105 105 105 104 104 104 104 105 105 106 107 107 107 107 107 107 107 106 103 98 91 83 76 68 61 54 47 40 33 28 25 23 22 21 20 19 18 18 18 18 18 18 18 18 18 18 18 18 18 18 18 18 18 18 18 19 20 21 22 23 24 25 26 27 29 31 33 35 37 40 45 52 60 68 75 82 89 96 103 110 115 117 118 117 116 115 114 113 112 111 110 108 107 107 107 107 107 107 107 107 107 107 107 107 107 107 107 107 107 107 107 107 107 107 107 107 107 107 107 107 108 108 108 108 108 108 109 109 109 109 109 109 109 109 110 110 110 110 109 109 109 109 109 107 103 98 93 88 82 76 71 66 62 59 56 54 53 52 51 50 49 47 46 46 46 46 46 46 46 46 46 46 46 46 46 46 45 45 45 46 47 48 50 51 52 52 52 52 52 52 51 50 48 46 44 42 40 38 37 35 33 30 28 27 26 26 25 24 25 26 28 32 36 41 46 43 
43 29 23 20 18 18 18 18 18 18 18 18 18 18 18 18 18 18 18 18 18 18 18 18 18 18 18 18 18 18 18 19 20 21 22 24 29 35 43 51 59 66 73 81 89 96 101 105 107 107 107 107 107 107 107 107 107 107 107 107 107 107 107 107 107 107 107 107 107 106 106 106 105 105 104 104 104 105 105 106 107 108 108 108 108 108 108 106 103 97 90 82 74 66 59 52 45 38 31 27 24 23 22 21 20 19 18 18 18 18 18 18 18 18 18 18 18 18 18 18 18 18 18 18 18 19 20 21 22 23 24 25 26 27 29 31 33 35 37 40 44 50 58 66 73 80 87 94 101 108 114 117 118 118 117 116 115 114 113 112 110 108 107 107 107 107 107 107 107 107 107 107 107 107 107 107 107 107 107 107 107 107 107 107 107 107 107 107 107 107 108 108 108 108 108 108 109 109 110 109 109 109 109 109 109 109 109 109 109 109 109 109 108 106 102 96 91 86 80 74 69 64 61 58 55 53 52 51 50 49 48 47 46 46 46 46 46 46 46 46 46 46 46 46 46 46 46 46 46 47 49 50 52 54 55 56 57 57 56 55 53 51 48 45 43 41 39 37 36 34 32 30 28 27 26 26 25 25 26 27 30 34 39 46 58 88 
43 30 24 21 19 18 18 18 18 18 18 18 18 18 18 18 18 18 18 18 18 18 18 18 18 18 18 18 18 18 18 19 20 21 22 24 28 34 41 49 57 64 71 79 87 95 101 105 107 107 107 107 107 107 107 107 107 107 107 107 107 107 107 107 107 107 107 107 107 107 107 106 106 105 105 104 104 105 105 106 107 108 109 109 109 109 109 107 103 97 89 81 73 65 57 50 43 36 30 26 24 23 22 21 20 19 18 18 18 18 18 18 18 18 18 18 18 18 18 18 18 18 18 18 18 19 20 21 22 23 24 25 26 27 29 31 33 35 37 40 44 50 57 64 71 78 85 92 99 106 113 117 119 119 118 117 116 115 114 112 110 108 107 107 107 107 107 107 107 107 107 107 107 107 107 107 107 107 107 107 107 107 107 107 107 107 107 107 107 107 108 108 108 108 108 108 109 109 110 109 109 109 109 109 109 109 109 109 109 109 109 109 108 105 100 94 89 84 78 72 67 63 60 57 54 53 52 51 50 49 48 47 47 47 47 47 47 47 47 47 47 47 47 47 47 47 47 47 47 48 50 52 55 57 59 60 60 60 59 57 54 50 47 44 42 40 38 36 35 34 32 30 28 27 26 26 25 25 26 28 31 35 40 46 54 61 
28 26 23 21 19 18 18 18 18 18 18 18 18 18 18 18 18 18 18 18 18 18 18 18 18 18 18 18 18 18 18 19 20 21 22 24 28 33 40 47 55 62 69 77 85 93 100 104 107 108 108 108 108 108 108 108 108 108 108 108 108 108 108 108 108 108 108 108 108 108 107 107 106 106 105 104 104 105 105 106 107 108 109 110 110 110 110 108 103 97 89 81 73 65 56 49 42 35 29 25 24 23 22 21 20 19 18 18 18 18 18 18 18 18 18 18 18 18 18 18 18 18 18 18 18 19 20 21 22 23 24 25 26 27 29 31 33 35 37 40 44 50 56 63 70 77 84 91 98 105 112 116 119 120 119 118 117 116 114 112 110 108 107 107 107 107 107 107 107 107 107 107 107 107 107 107 107 107 107 107 107 107 107 107 107 107 107 107 107 107 108 108 108 108 108 108 109 109 109 109 109 109 109 109 109 109 109 109 109 109 109 109 107 103 98 92 87 82 76 70 65 62 59 56 54 52 51 51 50 49 48 47 47 47 47 47 47 47 47 47 47 47 47 47 47 48 48 48 48 49 51 54 57 60 62 63 63 62 60 57 53 49 46 43 41 39 37 35 34 33 32 30 28 27 26 26 25 26 27 29 32 36 40 46 52 53 
19 24 23 21 19 18 18 18 18 18 18 18 18 18 18 18 18 18 18 18 18 18 18 18 18 18 18 18 18 18 18 19 20 21 22 24 28 33 39 45 53 60 67 75 84 92 99 104 107 109 109 109 109 109 109 109 109 109 109 109 109 109 109 109 109 109 109 109 109 108 108 107 107 106 105 105 105 105 105 106 107 108 109 110 111 111 111 109 104 97 89 81 73 64 56 48 41 34 28 25 24 23 22 21 20 19 18 18 18 18 18 18 18 18 18 18 18 18 18 18 18 18 18 18 18 19 20 21 22 23 24 25 26 27 29 31 33 35 37 40 44 50 56 63 70 77 84 91 98 105 111 116 119 121 121 120 118 116 114 112 110 108 107 107 107 107 107 107 107 107 107 107 107 107 107 107 107 107 107 107 107 107 107 107 107 107 107 107 107 107 108 108 108 108 108 108 109 109 109 109 109 109 109 109 109 109 109 109 109 109 109 108 105 101 95 89 84 79 74 68 64 60 57 55 53 51 51 51 50 49 48 47 47 47 47 47 47 47 47 47 47 47 47 48 48 49 49 49 49 50 52 55 59 62 64 64 64 62 60 56 51 48 45 42 40 38 36 34 33 32 31 30 28 27 26 26 26 26 27 29 32 36 40 46 57 84 
32 29 26 23 20 18 18 18 18 18 18 18 18 18 18 18 18 18 18 18 18 18 18 18 18 18 18 18 18 18 18 19 20 21 22 24 28 32 38 44 51 58 65 73 82 90 98 104 108 110 111 111 111 111 111 110 110 110 110 110 110 110 110 110 110 110 110 110 109 109 108 108 107 106 106 105 105 105 105 106 107 108 109 110 111 112 112 110 105 97 89 81 72 64 56 48 40 33 28 25 24 23 22 21 20 19 18 18 18 18 18 18 18 18 18 18 18 18 18 18 18 18 18 18 18 19 20 21 22 23 24 25 26 27 29 31 33 35 37 40 44 50 57 63 70 77 84 91 98 104 110 115 119 121 122 121 119 117 115 112 110 108 107 107 107 107 107 107 107 107 107 107 107 107 107 107 107 107 107 107 107 107 107 107 107 107 107 107 107 107 108 108 108 108 108 108 109 109 109 109 109 109 109 109 109 109 109 109 109 109 109 107 104 99 92 86 81 76 71 66 62 59 56 54 52 51 50 50 50 49 48 47 47 47 47 47 47 47 47 47 47 47 48 49 49 50 50 50 50 51 53 56 60 63 65 65 64 62 59 54 50 46 44 41 39 37 35 33 32 31 30 29 28 27 26 26 26 27 27 29 32 36 40 44 48 44 
47 36 29 25 21 19 18 18 18 18 18 18 18 18 18 18 18 18 18 18 18 18 18 18 18 18 18 18 18 18 18 19 20 20 21 23 27 31 37 43 49 56 63 71 80 89 97 103 108 111 112 112 112 112 112 111 111 111 111 111 111 111 111 111 111 111 111 110 110 109 109 108 107 107 106 106 105 105 105 106 108 109 110 111 112 113 113 111 106 98 89 81 72 64 56 48 40 33 28 25 24 23 22 21 20 19 18 18 18 18 18 18 18 18 18 18 18 18 18 18 18 18 18 18 18 19 20 21 22 23 24 25 26 27 29 31 33 35 37 40 45 51 57 63 70 77 84 91 97 103 109 115 119 122 123 122 120 118 115 112 110 108 107 107 107 107 107 107 107 107 107 107 107 107 107 107 107 107 107 107 107 107 107 107 107 107 107 107 107 107 108 108 108 108 108 108 109 109 109 109 109 109 109 109 109 109 109 109 109 109 108 106 102 96 89 83 78 74 69 64 60 57 55 53 51 50 50 50 50 49 48 47 47 47 47 47 47 47 48 48 48 48 49 50 50 51 51 51 51 52 54 57 60 63 65 65 63 61 57 52 48 45 43 40 38 36 34 32 31 31 30 29 28 27 26 26 27 27 28 29 32 36 39 43 47 48 
50 39 32 27 23 20 18 18 18 18 18 18 18 18 18 18 18 18 18 18 18 18 18 18 18 18 18 18 18 18 18 19 19 20 21 23 26 30 36 42 48 54 61 69 78 87 96 103 108 111 113 114 114 114 113 112 112 112 112 112 112 112 112 112 112 112 111 111 110 110 109 108 108 107 107 106 106 106 106 107 108 110 111 112 113 114 114 112 107 99 90 81 72 64 56 48 40 33 29 26 24 23 22 21 20 19 18 18 18 18 18 18 18 18 18 18 18 18 18 18 18 18 18 18 18 19 20 21 22 23 24 25 26 27 29 31 33 35 37 41 46 52 58 64 70 77 84 90 96 102 108 114 119 122 123 122 120 118 115 112 110 108 107 107 107 107 107 107 107 107 107 107 107 107 107 107 107 107 107 107 107 107 107 107 107 107 107 107 107 107 108 108 108 108 108 108 108 108 108 108 108 108 108 108 108 108 108 108 108 108 107 104 99 93 86 80 76 72 67 62 59 56 54 52 50 49 49 49 49 49 48 48 48 48 48 48 48 48 49 49 49 49 50 51 51 52 52 52 52 53 55 57 60 62 64 64 62 59 55 50 46 43 41 39 37 35 33 32 31 31 30 29 28 27 26 27 27 28 29 30 32 36 39 44 49 58 
46 40 33 28 24 21 19 18 18 18 18 18 18 18 18 18 18 18 18 18 18 18 18 18 18 18 18 18 18 18 18 18 19 19 20 22 25 29 35 40 46 52 59 67 76 85 94 102 108 112 114 115 115 115 114 113 113 113 113 113 113 113 113 113 113 112 112 111 111 110 109 109 108 108 107 107 107 107 107 107 108 110 112 113 115 116 115 113 108 100 91 82 73 64 56 48 40 33 29 26 24 23 22 21 20 19 18 18 18 18 18 18 18 18 18 18 18 18 18 18 18 18 18 18 18 19 20 21 22 23 24 25 26 27 29 31 33 35 38 42 47 53 59 65 71 77 83 89 95 101 107 113 118 121 122 122 120 118 115 112 110 108 107 107 107 107 107 107 107 107 107 107 107 107 107 107 107 107 107 107 107 107 107 107 107 107 107 107 107 107 108 108 108 108 108 108 108 108 108 108 108 108 108 108 108 108 108 108 108 107 105 101 95 89 83 78 73 69 65 61 58 55 53 51 49 49 49 49 49 49 48 48 48 48 48 48 48 49 50 50 50 50 51 52 52 53 53 53 53 54 56 57 59 61 62 62 60 56 52 48 44 42 40 38 36 34 32 31 31 31 30 29 28 27 27 27 28 29 30 31 33 36 40 45 49 45 
54 42 34 28 24 21 19 18 17 17 17 17 17 17 17 17 17 17 17 17 17 17 17 17 17 17 17 17 17 17 17 18 18 19 20 22 25 29 34 38 44 50 57 65 74 82 91 100 107 112 115 116 116 116 115 114 114 114 114 114 114 114 114 114 113 113 112 112 111 110 110 109 109 108 108 108 108 108 108 108 109 111 113 114 116 117 116 114 109 101 92 83 74 65 57 49 41 34 29 26 24 23 22 21 20 19 18 18 18 18 18 18 18 18 18 18 18 18 18 18 18 18 18 18 18 19 20 21 22 23 24 25 26 27 29 31 33 35 39 43 48 54 60 66 72 78 84 90 96 101 107 112 117 120 122 122 120 118 115 112 110 108 107 107 107 107 107 107 107 107 107 107 107 107 107 107 107 107 107 107 107 107 107 107 107 107 107 107 107 107 107 107 107 107 107 107 107 107 107 107 107 107 107 107 107 107 107 107 107 106 103 98 92 86 80 75 71 67 63 59 56 54 52 50 49 48 48 48 48 48 48 48 48 48 48 48 49 50 51 51 51 51 52 53 53 54 54 54 54 55 56 57 58 60 61 60 57 53 50 46 43 41 39 37 35 33 31 30 30 30 30 29 28 27 27 28 29 30 30 31 33 36 40 47 59 86 
48 41 34 28 24 21 19 17 17 17 17 17 17 17 17 17 17 17 17 17 17 17 17 17 17 17 17 17 17 17 17 17 18 18 19 21 24 28 32 37 42 48 55 63 71 79 88 97 105 111 115 117 117 117 116 116 115 115 115 115 115 115 115 114 114 113 113 112 111 111 110 110 109 109 109 109 109 109 109 109 110 112 114 115 117 118 117 115 110 102 93 84 75 66 58 50 42 34 29 26 24 23 22 21 20 19 18 18 18 18 18 18 18 18 18 18 18 18 18 18 18 18 18 18 18 19 20 21 22 23 24 25 26 27 29 31 33 36 40 44 49 55 61 67 73 79 85 91 96 101 106 111 116 120 122 122 120 118 115 112 110 108 107 107 107 107 107 107 107 107 107 107 107 107 107 107 107 107 107 107 107 107 107 107 107 107 107 107 107 107 107 107 107 107 107 107 107 107 107 107 107 107 107 107 107 107 107 106 106 104 100 94 88 83 77 72 68 64 60 57 54 52 50 49 48 48 48 48 48 48 48 49 49 49 49 50 51 51 52 52 52 52 53 54 54 54 55 55 55 55 56 56 57 59 59 57 54 50 47 44 41 40 38 36 34 32 30 30 30 30 30 29 28 28 28 29 30 30 31 32 33 36 40 45 54 68 
51 41 34 28 24 21 18 17 17 17 17 17 17 17 17 17 17 17 17 17 17 17 17 17 17 17 17 17 17 17 17 17 17 17 18 20 23 27 31 35 40 46 53 61 68 76 85 94 102 109 114 117 118 118 118 117 116 116 116 116 116 116 115 115 114 114 113 112 112 111 111 110 110 110 110 110 110 110 110 110 111 113 115 116 118 119 118 116 111 104 95 86 77 68 59 51 43 35 29 26 24 23 22 21 20 19 18 18 18 18 18 18 18 18 18 18 18 18 18 18 18 18 18 18 18 19 20 21 22 23 24 25 26 27 29 31 34 37 41 45 50 56 62 68 74 80 86 91 96 101 106 111 116 120 123 123 121 118 115 112 110 108 107 107 107 107 107 107 107 107 107 107 107 107 107 107 107 107 107 107 107 107 107 107 107 107 107 107 107 107 107 107 107 107 107 107 107 107 107 107 107 107 107 107 107 107 106 105 104 101 96 90 84 79 74 69 65 62 58 55 53 51 49 48 48 48 48 48 48 48 49 50 50 51 51 52 52 52 53 53 53 53 54 54 54 55 55 55 55 55 55 55 56 57 56 53 50 47 44 42 40 39 37 35 33 31 30 30 30 30 30 29 28 28 29 30 30 31 32 33 34 35 38 41 47 59 
47 41 34 28 24 20 18 17 17 17 17 17 17 17 17 17 17 17 17 17 17 17 17 17 17 17 17 17 17 17 17 17 17 17 18 20 23 26 30 34 39 45 51 58 65 73 82 91 100 107 113 117 119 119 119 118 117 117 117 117 117 116 116 115 115 114 113 113 112 112 111 111 111 111 111 111 111 111 111 111 112 113 115 117 119 120 120 118 113 106 97 88 79 70 61 53 45 37 30 26 24 23 22 21 20 19 18 18 18 18 18 18 18 18 18 18 18 18 18 18 18 18 18 18 18 19 20 21 22 23 24 25 26 27 29 32 35 38 42 46 51 57 63 69 75 81 87 92 97 102 107 112 117 121 124 124 122 119 115 112 110 108 107 107 107 107 107 107 107 107 107 107 107 107 107 107 107 107 107 107 107 107 107 107 107 107 107 107 107 107 107 107 107 107 107 107 107 107 107 107 107 107 107 107 107 106 105 104 101 97 92 86 81 76 71 66 63 60 56 53 51 50 48 47 47 47 47 47 48 48 49 50 51 52 53 54 54 54 54 54 54 54 55 55 55 55 55 55 55 55 55 54 54 54 52 50 47 45 42 40 39 38 36 34 32 30 30 30 30 30 30 29 28 29 30 30 31 32 33 33 34 35 36 36 34 25 
57 42 33 27 23 20 18 17 17 17 17 17 17 17 17 17 17 17 17 17 17 17 17 17 17 17 17 17 17 17 17 17 17 17 17 19 22 25 28 32 37 43 49 55 62 70 79 88 97 105 111 116 119 120 120 119 118 118 118 118 117 117 116 116 115 114 114 113 113 112 112 112 112 112 112 112 112 112 112 112 112 113 115 118 120 122 122 120 115 109 100 91 82 73 64 56 48 40 32 27 24 23 22 21 20 19 18 18 18 18 18 18 18 18 18 18 18 18 18 18 18 18 18 18 19 20 21 22 23 24 25 26 27 28 30 33 36 39 43 47 52 58 64 70 76 82 88 94 99 104 109 114 119 123 125 125 122 119 115 112 110 108 107 107 107 107 107 107 107 107 107 107 107 107 107 107 107 107 107 107 107 107 107 107 107 107 107 107 107 107 107 108 108 108 108 108 107 107 107 107 107 107 107 107 106 105 104 102 98 93 88 82 77 72 68 64 60 57 54 51 50 49 47 46 46 47 47 47 48 48 49 51 52 53 55 56 56 56 56 56 56 56 56 56 56 56 56 56 56 55 54 53 52 51 49 47 45 43 40 39 38 37 35 33 31 30 30 30 30 30 30 29 29 30 31 31 32 33 33 34 35 35 35 34 30 20 
56 39 30 25 21 19 17 17 17 17 17 17 17 17 17 17 17 17 17 17 17 17 17 17 17 17 17 17 17 17 17 17 17 17 17 18 21 24 27 31 36 41 46 52 59 67 76 84 93 102 109 115 119 121 121 120 119 119 119 118 118 117 117 116 115 115 114 114 113 113 113 113 113 113 113 113 113 113 113 113 113 114 116 119 121 123 123 122 118 112 104 95 86 77 68 59 51 43 35 29 25 24 23 22 21 20 19 18 18 18 18 18 18 18 18 18 18 18 18 18 18 18 18 19 20 21 22 23 24 25 26 27 28 29 31 34 37 40 44 48 53 59 65 71 77 83 89 95 101 107 112 117 122 125 126 126 123 119 115 112 110 108 108 108 108 108 108 108 108 108 108 108 108 108 108 108 108 108 108 108 108 108 108 108 108 108 108 107 107 107 107 108 109 109 109 108 107 107 107 107 107 107 107 107 106 104 102 99 94 88 83 78 73 69 65 61 57 55 52 50 48 47 46 45 45 46 47 47 48 49 50 52 53 54 56 57 58 58 58 58 58 58 58 58 58 58 58 57 56 55 54 52 50 48 46 44 42 40 39 38 37 36 34 32 30 30 30 30 30 30 30 29 29 30 31 32 33 34 34 35 36 37 38 37 32 21 
29 29 25 22 19 18 17 17 17 17 17 17 17 17 17 17 17 17 17 17 17 17 17 17 17 17 17 17 17 17 17 17 17 17 17 18 20 23 26 29 34 39 44 50 57 64 72 80 89 98 106 113 118 121 122 121 120 120 119 119 118 118 117 116 116 115 115 114 114 114 114 114 114 114 114 114 114 114 114 114 114 115 117 119 122 124 125 124 120 115 108 99 90 81 72 63 55 47 39 32 27 25 24 23 22 21 20 19 18 18 18 18 18 18 18 18 18 18 18 18 18 18 19 20 21 22 23 24 25 26 27 28 29 30 32 35 38 41 45 49 54 60 66 72 79 85 91 98 104 110 115 120 125 127 128 127 124 119 115 112 110 109 108 108 108 108 108 108 108 108 109 109 109 108 108 108 108 108 108 108 108 108 108 108 108 108 108 107 107 107 107 108 109 109 109 108 107 107 107 107 107 107 107 106 105 102 99 95 89 84 79 74 69 65 61 58 55 53 50 48 47 46 45 44 44 45 46 47 48 49 51 52 53 54 56 57 59 60 60 60 60 60 60 60 60 59 59 58 57 55 53 50 48 46 44 42 40 39 38 37 36 35 33 31 30 30 30 30 30 30 30 29 30 31 32 33 34 35 35 37 38 40 42 44 43 39 
26 23 21 19 18 17 17 17 17 17 17 17 17 17 17 17 17 17 17 17 17 17 17 17 17 17 17 17 17 17 17 17 17 17 17 17 19 21 24 27 32 36 41 47 54 61 68 76 85 93 102 110 116 120 122 122 122 121 120 120 119 118 117 117 116 116 115 115 115 115 115 115 115 115 115 115 115 115 115 115 115 116 117 119 122 125 126 126 123 118 112 104 95 86 77 68 60 52 44 36 30 27 25 24 23 22 21 20 19 18 18 18 18 18 18 18 18 18 18 18 18 19 20 21 22 23 24 25 26 27 28 29 30 31 33 36 39 42 46 50 55 61 68 75 82 88 95 101 107 113 119 124 128 130 130 128 124 119 115 112 110 109 109 109 109 109 109 109 109 109 110 110 109 109 109 109 109 109 109 109 109 109 109 109 109 109 108 107 107 107 107 108 109 109 109 108 107 107 107 107 107 107 106 105 103 99 95 90 84 79 75 70 65 62 58 55 52 50 48 46 45 45 44 43 44 45 46 47 48 49 51 52 53 54 56 57 59 60 61 62 62 62 62 62 61 60 60 59 57 54 51 48 46 44 42 40 39 38 37 36 35 34 32 30 30 30 30 30 30 30 30 30 31 32 33 34 35 36 37 39 41 44 48 53 59 64 
11 17 18 17 17 17 17 17 17 17 17 17 17 17 17 17 17 17 17 17 17 17 17 17 17 17 17 17 17 17 17 17 17 17 17 17 18 20 23 26 30 34 39 44 51 57 64 72 80 88 97 106 113 118 121 122 123 123 122 121 120 119 118 117 117 116 116 116 116 116 116 116 116 116 116 116 116 116 116 116 116 116 117 119 122 126 128 128 126 122 116 109 100 91 82 73 65 57 49 41 34 29 26 25 24 23 22 21 20 19 18 18 18 18 18 18 18 18 18 18 19 20 21 22 23 24 25 26 27 28 29 30 31 32 34 37 40 43 47 51 57 64 71 78 85 92 99 105 111 117 123 128 131 132 131 128 124 119 115 112 110 110 110 110 110 110 110 110 110 110 110 110 110 110 110 110 110 110 110 110 110 110 110 110 110 109 108 107 107 107 107 108 108 108 108 108 107 107 107 107 107 107 105 103 100 95 90 85 79 74 70 66 62 58 55 52 50 48 46 45 44 44 43 43 43 44 45 46 48 49 51 52 53 54 56 57 59 60 61 63 64 64 64 63 62 61 60 58 55 52 49 46 44 42 40 38 37 36 35 34 33 32 31 30 30 30 30 30 30 30 30 30 31 32 33 34 35 36 38 40 44 48 55 64 76 93 
14 16 17 17 17 17 17 17 17 17 17 17 17 17 17 17 17 17 17 17 17 17 17 17 17 17 17 17 17 17 17 17 17 17 17 17 17 19 21 24 28 32 36 41 47 53 60 68 75 83 92 101 109 115 119 121 123 124 123 122 121 120 119 118 118 117 117 117 117 117 117 117 117 117 117 117 117 117 117 117 117 117 118 120 123 126 129 130 129 126 121 114 106 97 88 79 70 62 54 46 38 32 28 26 25 24 23 22 21 20 19 18 18 18 18 18 18 18 18 19 20 21 22 23 24 25 26 27 28 29 30 31 32 33 35 38 41 44 48 53 60 67 74 81 88 95 102 109 116 122 127 131 133 133 131 127 123 119 115 112 111 110 110 110 110 110 110 110 110 110 110 110 110 110 110 110 110 110 110 110 110 110 110 110 110 109 108 107 107 107 107 107 107 107 107 107 107 107 107 107 107 106 103 100 96 90 85 80 74 70 66 62 58 55 52 49 47 46 44 44 43 43 42 42 42 43 44 46 48 49 51 52 53 54 56 57 58 59 61 63 64 64 64 63 62 60 58 55 52 49 47 44 42 40 38 37 36 35 34 33 32 31 30 30 30 30 30 30 30 30 30 31 32 33 34 35 36 37 39 42 46 51 59 71 89 119 
20 19 18 17 17 17 17 17 17 17 17 17 17 17 17 17 17 17 17 17 17 17 17 17 17 17 17 17 17 16 16 16 16 16 16 16 16 18 20 22 26 29 33 38 44 50 56 63 70 78 87 95 104 111 116 119 122 124 124 124 123 122 121 120 119 118 118 118 118 118 118 118 118 118 118 118 118 118 118 118 118 118 119 121 123 126 130 132 132 130 126 120 112 103 94 85 76 68 60 52 44 37 32 29 27 26 24 23 22 21 20 19 18 18 18 18 18 18 19 20 21 22 23 24 25 26 27 28 29 30 31 32 33 34 36 39 42 46 50 56 64 71 78 85 92 99 106 113 120 126 130 133 134 133 130 127 123 119 115 113 111 111 111 111 111 111 111 111 111 111 111 111 111 111 111 111 111 111 111 111 111 111 111 111 110 109 108 107 107 107 107 107 107 107 107 107 107 107 107 107 106 104 100 96 91 85 80 75 70 66 62 58 54 51 49 47 45 44 43 43 42 42 41 41 41 42 43 45 47 49 51 52 53 54 55 56 57 58 59 61 62 62 62 61 60 58 55 52 49 46 44 42 40 38 36 35 34 33 32 31 30 30 30 30 30 30 30 30 30 30 31 32 33 34 35 36 37 38 40 43 47 52 61 73 92 126 
24 22 20 18 17 17 17 17 17 17 17 17 17 17 17 17 17 17 17 17 17 17 17 17 17 17 17 17 16 16 16 16 16 16 16 16 16 17 19 21 24 27 31 35 40 46 52 58 65 73 81 89 98 106 112 116 120 123 124 125 125 124 123 122 121 120 119 119 119 119 119 119 119 119 119 119 119 119 119 119 119 119 120 121 123 126 130 133 134 133 130 125 118 109 100 92 83 75 67 59 51 43 37 33 30 29 27 25 23 22 21 20 19 19 19 19 19 19 20 21 22 23 24 25 26 27 28 29 30 31 32 33 34 36 38 41 45 49 54 61 68 75 82 89 96 103 110 117 124 129 132 134 134 132 129 126 123 119 116 113 112 112 112 112 112 112 112 112 112 112 112 112 112 112 112 112 112 112 112 112 112 112 112 111 110 109 108 107 107 107 107 107 107 107 107 107 107 107 107 106 104 101 97 92 86 80 75 70 65 61 57 54 51 48 46 45 43 42 42 42 41 41 40 40 40 41 42 44 47 49 51 53 54 54 55 55 56 56 57 58 58 58 58 57 56 54 51 49 46 43 41 39 38 36 34 33 32 31 30 30 30 30 30 30 30 30 30 30 30 30 31 32 33 34 35 36 37 38 40 43 47 52 59 69 83 96 
33 26 22 19 17 17 17 17 17 17 17 17 17 17 17 17 17 17 17 17 17 17 17 17 17 17 17 16 16 16 16 16 16 16 16 16 16 16 17 19 22 25 28 32 37 42 48 54 61 68 76 84 92 100 107 113 118 122 124 125 126 126 125 124 123 122 121 120 120 120 120 120 120 120 120 120 120 120 120 120 120 120 120 121 123 126 130 133 135 135 133 129 123 116 107 99 91 83 75 67 59 51 44 39 35 33 30 28 26 24 22 21 20 20 20 20 20 20 21 22 23 24 25 26 27 28 29 30 31 32 33 35 37 39 41 45 49 54 60 67 74 81 88 94 101 108 115 122 128 132 134 135 134 131 128 125 122 119 116 114 113 112 112 112 112 112 112 112 112 112 112 112 112 112 112 112 112 112 112 112 112 112 112 111 110 109 108 107 107 107 107 107 107 107 107 107 107 107 106 105 102 98 93 87 81 75 70 65 61 57 53 50 48 46 44 43 42 41 41 41 40 40 39 39 39 40 41 43 46 49 52 54 54 54 54 54 54 54 54 54 54 54 53 52 51 49 47 45 43 41 39 37 36 34 33 32 31 30 30 30 30 30 30 30 30 30 30 30 30 31 32 33 34 35 36 37 38 39 40 42 45 50 56 64 75 93 
34 29 24 20 18 17 17 17 17 17 17 17 17 17 17 17 17 17 17 17 17 17 17 17 17 17 16 16 16 16 16 16 16 16 16 16 16 16 16 18 20 23 26 29 33 38 44 49 56 63 70 78 86 94 101 108 115 120 123 125 126 127 126 125 124 123 122 121 121 121 121 121 121 121 121 121 121 121 121 121 121 121 121 122 124 127 130 133 136 137 136 133 128 122 114 106 98 90 82 74 67 60 53 47 42 38 35 32 29 27 25 23 22 21 21 21 21 21 22 23 24 25 26 27 28 30 31 32 33 34 36 38 40 43 46 50 55 61 67 73 80 87 93 99 106 112 119 126 131 134 135 135 133 130 127 124 121 119 116 114 113 113 113 113 113 113 113 113 113 113 113 113 113 113 113 113 113 113 113 113 113 113 112 111 110 109 108 107 107 107 107 107 107 107 107 107 107 106 105 103 99 94 88 82 76 71 66 61 57 53 49 47 45 43 42 41 41 40 40 40 39 39 38 38 38 39 40 42 45 49 52 54 55 55 54 53 52 52 51 51 50 49 48 47 46 45 43 42 40 38 37 35 34 32 31 30 30 30 30 30 30 30 30 30 30 30 30 30 30 31 32 33 34 35 36 37 38 39 40 41 43 46 50 56 63 76 
34 32 26 22 19 17 17 17 17 17 17 17 17 17 17 17 17 17 17 17 17 17 17 17 17 16 16 16 16 16 16 16 16 16 16 16 16 16 16 17 18 21 23 26 30 35 40 45 51 58 65 72 80 88 95 103 111 117 121 124 126 127 127 126 125 124 123 122 122 122 122 122 122 122 122 122 122 122 122 122 122 122 122 123 124 127 130 133 136 138 138 136 132 127 121 113 105 98 90 83 76 69 62 56 50 45 41 37 34 31 29 27 25 23 22 22 22 22 23 24 25 26 28 29 31 33 34 36 37 38 40 42 45 48 52 57 63 68 74 80 86 92 98 104 110 116 123 129 133 135 135 134 132 129 126 124 121 119 116 114 114 114 114 114 114 114 114 114 114 114 114 114 114 114 114 114 114 114 114 114 114 113 112 111 110 109 108 107 107 107 107 107 107 107 107 107 106 105 103 100 95 89 83 77 72 67 62 57 53 49 46 44 42 41 41 40 40 39 39 39 38 38 37 37 37 38 39 41 44 48 51 53 54 54 53 51 50 49 48 47 46 45 44 43 42 41 40 39 38 36 35 33 32 31 30 30 30 30 30 30 30 30 30 30 30 30 30 30 30 31 32 33 34 35 36 37 38 39 39 40 41 43 45 47 47 34 
61 39 29 23 20 18 17 17 17 17 17 17 17 17 17 17 17 17 17 17 17 17 17 17 16 16 16 16 16 16 16 16 16 16 16 16 16 16 16 16 17 19 21 24 27 31 36 41 46 53 60 67 74 82 89 97 106 113 118 122 124 126 127 127 126 125 124 123 123 123 123 123 123 123 123 123 123 123 123 123 123 122 122 123 124 127 130 132 135 138 139 138 135 132 127 120 113 106 98 91 84 78 72 66 60 54 48 43 39 36 33 31 28 26 25 24 24 24 25 26 27 29 31 33 35 37 39 41 42 44 46 49 52 56 61 66 71 76 81 87 93 98 104 109 115 120 126 131 134 135 134 132 130 128 125 123 121 119 116 115 115 115 115 115 115 115 115 115 115 115 115 115 115 115 115 115 115 115 115 115 114 113 112 111 110 109 108 107 107 107 107 107 107 107 107 106 105 103 100 96 90 84 78 73 68 63 58 53 49 45 43 41 40 40 40 39 39 38 38 38 37 37 37 37 37 37 38 40 43 46 49 51 52 52 51 49 48 47 46 45 44 43 42 41 40 39 38 37 36 34 33 31 30 30 30 30 30 30 30 30 30 30 30 30 30 30 30 30 31 32 33 34 35 36 37 38 39 39 38 38 39 40 41 42 44 55 
45 34 27 23 20 18 17 17 17 17 17 17 17 17 17 17 17 17 17 17 17 17 17 16 16 16 16 16 16 16 16 16 16 16 16 16 16 16 16 16 16 17 19 22 25 28 32 37 42 48 55 62 68 76 83 91 100 108 114 119 122 124 126 127 127 126 125 124 124 124 124 124 124 124 124 124 124 124 124 124 123 123 123 123 124 127 129 132 134 137 139 139 138 136 132 126 120 113 106 100 93 87 81 75 69 63 57 52 47 43 39 36 33 31 29 28 27 27 27 28 30 32 35 38 40 43 45 47 49 51 54 58 62 66 70 75 80 84 89 94 99 104 109 114 119 124 129 132 134 134 132 130 128 126 124 122 120 118 116 115 115 115 115 115 115 115 115 115 115 115 115 115 115 115 115 115 115 115 115 115 114 113 112 111 110 109 108 107 107 107 107 107 107 107 106 105 103 100 96 91 85 79 74 69 64 59 54 49 45 42 40 39 39 39 39 38 38 37 37 37 37 37 37 37 37 37 38 39 42 44 46 48 49 49 48 46 45 44 43 42 41 40 39 38 37 36 35 34 33 32 31 30 30 30 30 30 30 30 30 30 30 30 30 30 30 30 30 30 31 32 33 34 35 36 37 38 39 38 37 37 37 37 37 36 34 29 
24 27 25 22 20 18 17 17 17 17 17 17 17 17 17 17 17 17 17 17 17 17 16 16 16 16 16 16 16 16 16 16 16 16 16 16 16 16 16 16 16 16 18 20 22 25 29 33 38 43 50 56 63 70 77 85 94 102 109 115 119 122 124 126 127 127 126 125 125 125 125 125 125 125 125 125 125 125 125 124 124 124 124 124 125 127 129 131 133 136 138 140 140 139 136 132 127 121 115 109 102 96 90 84 78 72 67 62 57 52 48 44 41 38 36 34 33 32 32 33 35 38 41 44 47 50 53 55 58 61 64 68 72 75 79 84 88 92 97 102 106 111 115 120 124 128 132 134 134 133 131 129 127 125 123 121 119 118 116 116 116 116 116 116 116 116 116 116 116 116 116 116 116 116 115 115 115 115 115 115 114 113 112 111 110 109 108 107 107 107 107 107 107 106 105 103 100 96 91 85 80 75 70 65 60 55 50 45 41 39 38 38 38 38 38 37 37 37 37 37 37 37 37 37 37 37 37 38 40 42 43 45 46 46 45 43 42 41 40 39 38 37 36 35 34 33 32 31 31 30 30 30 30 30 30 30 30 30 30 30 30 30 30 30 30 30 30 31 32 33 34 35 36 36 37 38 38 37 36 35 35 34 33 31 27 16 
26 27 25 22 20 18 17 17 17 17 17 17 17 17 17 17 17 17 17 17 17 16 16 16 16 16 16 16 16 16 16 16 16 16 16 16 16 16 16 16 16 16 17 18 20 22 26 30 34 39 45 51 58 64 71 79 87 95 103 110 115 119 122 124 126 127 127 126 126 126 126 126 126 126 126 126 126 126 125 125 125 125 125 125 125 127 129 131 133 135 137 140 141 141 139 136 133 128 123 117 111 105 99 94 88 82 77 72 67 63 59 55 51 48 45 43 41 40 40 41 43 46 49 53 56 59 62 65 68 71 74 78 81 84 88 92 96 100 105 109 113 117 121 125 129 132 134 135 134 132 130 128 127 125 123 121 119 118 117 117 117 117 117 117 117 117 117 117 117 117 117 117 117 116 115 115 115 115 115 115 114 113 112 111 110 109 108 107 107 107 107 107 106 105 103 100 96 91 86 80 75 70 65 60 55 50 46 41 38 37 37 37 37 37 37 37 37 37 37 37 37 37 37 37 37 37 37 37 38 39 40 41 42 42 41 40 39 38 37 36 35 34 33 32 31 31 30 30 30 30 30 30 30 30 30 30 30 30 30 30 30 30 30 30 30 30 30 31 32 33 34 35 36 36 37 37 37 36 35 34 33 33 32 31 29 23 
38 31 26 22 20 18 17 17 17 17 17 17 17 17 17 17 17 17 17 17 16 16 16 16 16 16 16 16 16 16 16 16 16 16 16 16 16 16 16 16 16 16 16 17 18 20 23 27 31 35 40 46 52 59 66 73 81 88 96 104 110 115 119 122 124 126 127 127 127 127 127 127 127 127 127 127 127 126 126 126 126 126 126 126 126 127 129 130 132 134 136 139 141 142 141 140 138 135 131 126 121 115 109 104 98 92 87 82 78 74 70 66 62 59 56 54 52 51 51 52 54 57 60 63 66 69 72 75 78 81 84 87 90 93 97 101 105 108 112 116 120 124 127 130 133 134 135 135 133 131 129 128 127 125 123 121 119 118 117 117 117 117 117 117 117 117 117 117 117 117 117 117 117 116 115 115 115 115 115 115 114 113 112 111 110 109 108 107 107 107 107 106 105 103 100 96 91 86 81 76 71 66 61 56 51 47 43 39 37 36 36 36 36 36 36 36 36 36 36 36 36 36 36 36 36 36 36 36 37 38 38 39 39 39 38 37 36 35 35 34 33 32 31 30 30 30 30 30 30 30 30 30 30 30 30 30 30 30 30 30 30 30 30 30 30 30 31 32 33 34 35 36 36 36 36 36 36 35 34 33 33 32 32 32 35 49 
45 34 27 23 20 18 17 17 17 17 17 17 17 17 16 16 16 16 16 16 16 16 16 16 16 16 16 16 16 16 16 16 16 16 16 16 16 16 16 16 16 16 16 16 17 18 21 24 28 32 36 42 47 53 60 67 74 82 89 97 104 110 115 119 122 124 126 127 127 127 127 127 127 127 127 127 127 127 127 127 127 127 127 127 127 127 128 130 132 133 135 138 140 142 143 143 142 140 137 134 130 125 119 114 108 102 97 92 88 84 80 77 73 70 68 66 64 64 64 64 66 69 71 74 77 80 83 85 88 91 94 97 100 103 106 110 113 116 120 124 128 131 133 135 136 136 135 134 132 130 128 127 126 125 123 121 119 118 118 118 118 118 118 118 118 118 118 118 118 118 118 118 117 116 115 115 115 115 115 115 114 113 112 111 110 109 108 107 107 107 106 105 103 100 96 91 86 81 76 71 66 61 56 52 48 44 41 38 36 35 35 35 35 35 35 35 35 35 35 35 35 35 35 35 35 35 35 35 36 36 36 36 36 36 36 35 34 34 33 32 32 31 30 30 30 30 30 30 30 30 30 30 30 30 30 30 30 30 30 30 30 30 30 30 30 31 32 33 34 35 36 36 36 36 36 36 36 35 34 33 33 32 32 31 32 34 
39 33 27 23 20 18 17 17 17 17 17 17 17 16 16 16 16 16 16 16 16 16 16 16 16 16 16 16 16 16 16 16 16 16 16 16 16 16 16 16 16 16 16 16 16 17 19 22 25 28 32 37 42 48 54 61 68 75 83 90 97 104 110 115 119 122 124 126 127 127 127 127 127 127 127 127 127 127 127 127 127 127 127 127 127 128 128 130 131 133 135 137 139 141 143 144 144 143 142 140 137 133 128 123 117 112 107 103 99 95 91 88 85 82 80 78 77 76 76 76 78 80 82 85 88 91 93 95 98 101 104 107 109 112 115 118 121 124 128 132 135 137 138 138 138 137 135 133 131 129 128 127 126 125 123 121 119 119 119 119 119 119 119 119 119 119 119 119 119 119 118 118 117 116 115 115 115 115 115 115 114 113 112 111 110 109 108 107 107 106 105 103 100 96 91 86 81 76 71 66 61 57 52 48 45 42 39 37 35 34 34 34 34 34 34 34 34 34 34 34 34 34 34 34 34 34 34 34 34 34 34 34 34 34 34 34 34 33 32 32 31 31 30 30 30 30 30 30 30 30 30 30 30 30 30 30 30 30 30 30 30 30 30 30 30 31 32 33 35 36 37 37 37 37 37 37 37 36 35 34 34 33 32 31 29 19 
41 33 27 23 20 18 17 17 17 17 17 17 16 16 16 16 16 16 16 16 16 16 16 16 16 16 16 16 16 16 16 16 16 16 16 16 16 16 16 16 16 16 16 16 16 16 18 20 22 25 29 33 38 43 49 55 62 69 76 83 90 97 104 110 115 119 122 125 127 128 128 128 128 128 128 128 128 128 128 128 128 128 128 128 128 128 129 130 131 132 134 136 138 140 142 144 145 145 145 144 142 139 135 131 126 122 117 113 109 105 102 99 96 94 92 90 89 88 88 88 90 92 93 96 99 101 103 105 108 111 113 116 118 121 124 126 129 132 135 138 140 141 141 140 139 137 134 132 130 128 127 126 125 124 123 121 120 120 120 120 120 120 120 120 120 120 120 120 119 119 118 118 117 116 115 115 115 115 115 115 114 113 112 111 110 109 108 107 106 105 103 100 96 91 86 81 76 71 66 62 57 53 49 45 42 40 38 36 34 34 34 33 33 33 33 33 33 33 33 33 33 33 33 33 33 33 33 33 33 33 33 33 33 33 33 33 33 33 32 32 31 31 30 30 30 30 30 30 30 30 30 30 30 30 30 30 30 30 30 30 30 30 30 30 31 32 33 35 36 37 38 39 39 39 39 39 39 38 37 36 35 34 33 33 34 45 
43 33 27 23 20 18 17 17 17 17 17 16 16 16 16 16 16 16 16 16 16 16 16 16 16 16 16 16 16 16 16 16 16 16 16 16 16 16 16 16 16 16 16 16 16 16 17 18 20 22 25 29 34 38 44 50 56 63 69 76 83 90 97 104 110 115 119 123 126 128 129 129 129 129 129 129 129 129 129 129 129 129 129 129 129 129 129 130 131 132 133 135 137 139 141 143 145 146 146 146 145 143 140 137 133 130 126 122 119 115 112 110 107 105 103 102 101 100 100 100 102 103 104 107 109 111 113 115 118 120 122 125 127 129 132 134 136 138 140 142 143 143 142 140 138 136 133 131 129 127 126 125 124 123 122 121 121 121 121 121 120 120 120 120 120 120 120 120 119 119 118 118 117 116 115 115 115 115 115 115 114 113 112 111 110 109 108 107 105 103 100 96 91 86 81 76 71 67 62 58 53 49 46 43 40 38 37 35 34 34 33 33 33 33 33 33 33 33 33 33 33 33 33 33 33 33 33 33 33 33 33 33 33 33 33 33 33 33 32 32 31 31 30 30 30 30 30 30 30 30 30 30 30 30 30 30 30 30 30 30 30 30 30 31 32 33 35 37 38 39 40 41 41 41 41 41 41 41 40 39 37 36 34 33 32 26 
38 31 26 22 19 18 17 17 17 17 16 16 16 16 16 16 16 16 16 16 16 16 16 16 16 16 16 16 16 16 16 16 16 16 16 16 16 16 16 16 16 16 16 16 16 16 16 17 18 20 22 26 30 34 39 45 50 56 63 69 76 83 90 97 104 110 115 119 123 126 128 129 129 129 129 129 129 129 129 129 129 129 129 129 129 129 129 130 131 132 133 135 136 138 140 142 144 145 146 147 147 146 144 142 139 136 133 130 128 125 122 120 118 116 114 113 113 112 112 112 113 114 115 117 119 121 123 125 127 129 131 133 134 136 138 139 141 142 143 144 144 143 141 139 137 135 132 130 128 127 126 125 124 123 122 122 122 122 122 121 120 120 120 120 120 120 120 120 119 119 118 118 117 116 115 115 115 115 115 115 115 114 113 112 111 110 109 107 104 100 96 91 86 81 76 72 67 63 58 54 50 46 43 41 39 37 36 34 34 33 33 33 33 33 33 33 33 33 33 33 33 33 33 33 33 33 33 33 33 33 33 33 33 33 33 33 33 33 32 32 31 31 30 30 30 30 30 30 30 30 30 30 30 30 30 30 30 30 30 30 30 30 30 31 33 35 37 39 41 42 43 44 44 44 44 44 44 44 43 41 39 37 36 35 35 36 
29 27 24 21 19 18 17 17 17 16 16 16 16 16 16 16 16 16 16 16 16 16 16 16 16 16 16 16 16 16 16 16 16 16 16 16 16 16 16 16 16 16 16 16 16 16 16 16 17 18 20 23 26 30 35 40 45 50 56 63 69 76 83 90 96 103 109 115 120 124 127 129 130 130 130 130 130 130 130 130 130 130 130 130 130 130 130 130 131 132 133 134 136 137 139 141 142 144 145 146 147 147 146 145 143 141 139 137 135 133 131 129 128 126 125 124 124 124 124 124 124 125 126 127 128 130 131 133 134 136 137 139 140 141 142 143 144 144 144 144 143 141 139 137 135 133 131 129 128 127 126 125 124 123 123 123 123 122 122 121 120 120 120 120 120 120 120 120 119 119 118 118 117 116 115 115 115 115 115 115 115 115 114 113 112 111 109 106 102 97 91 86 81 77 72 68 63 59 54 50 47 44 41 39 38 36 35 34 33 33 33 33 33 33 33 33 33 33 33 33 33 33 33 33 33 33 33 33 33 33 33 33 33 33 33 33 33 33 32 32 31 31 30 30 30 30 30 30 30 30 30 30 30 30 30 30 30 30 30 30 30 30 30 32 34 36 39 42 44 46 47 48 48 48 48 48 48 48 46 43 41 39 37 37 37 36 
28 25 22 20 19 18 17 17 16 16 16 16 16 16 16 16 16 16 16 16 16 16 16 16 16 16 16 16 16 16 16 16 16 16 16 16 16 16 16 16 16 16 16 16 16 16 16 16 16 17 18 21 23 27 31 35 40 45 50 56 62 69 76 82 89 95 102 109 115 120 124 127 129 130 130 130 130 130 130 130 130 130 130 130 130 130 130 131 132 132 133 134 135 136 138 139 141 142 143 144 145 146 146 146 145 144 143 141 140 139 138 137 136 135 134 134 133 133 133 133 133 133 134 135 136 137 138 139 140 141 142 143 143 144 144 145 145 144 143 142 140 139 137 135 134 132 130 128 127 126 125 124 124 124 124 124 123 122 122 121 120 120 120 120 120 120 120 120 119 119 118 118 117 116 115 115 115 115 115 115 115 115 114 113 112 110 107 103 98 92 86 81 76 72 68 64 59 55 51 47 44 41 39 38 37 35 34 33 33 33 33 33 33 33 33 33 33 33 33 33 33 33 33 33 33 33 33 33 33 33 34 34 34 34 34 34 34 34 33 33 32 32 31 30 30 30 30 30 30 30 30 30 30 30 30 30 30 30 30 30 30 30 31 32 35 37 41 45 48 50 52 53 53 53 53 53 52 51 48 45 42 40 38 39 43 56 
27 24 21 20 19 17 17 16 16 16 16 16 16 16 16 16 16 16 16 16 16 16 16 16 16 16 16 16 16 16 16 16 16 16 16 16 16 16 16 16 16 16 16 16 16 16 16 16 16 16 17 19 21 24 28 31 35 40 45 50 56 62 68 75 81 88 94 101 108 114 119 123 126 128 130 131 131 131 131 131 131 131 131 131 131 131 131 132 132 132 133 134 135 136 137 138 139 140 141 142 143 144 145 145 145 145 145 144 143 143 142 142 141 141 141 140 140 140 140 140 140 140 140 140 141 141 142 143 143 144 144 145 145 145 145 145 144 142 141 140 138 137 135 134 133 131 129 128 127 126 125 125 125 125 124 124 123 122 122 121 120 120 120 120 120 120 120 120 119 119 118 118 117 116 115 115 115 115 115 115 115 115 114 112 110 107 103 98 92 87 81 76 72 68 64 60 55 51 48 45 42 39 38 37 36 34 33 33 33 33 33 33 33 33 33 33 33 33 33 33 33 33 33 33 33 33 33 33 34 34 35 36 36 36 36 36 36 36 35 35 34 33 32 31 30 30 30 30 30 30 30 30 30 30 30 30 30 30 30 30 30 30 31 33 35 38 43 47 51 54 56 57 58 58 58 57 55 53 50 46 43 40 39 39 40 44 
27 23 21 20 18 17 16 16 16 16 16 16 16 16 16 16 16 16 16 16 16 16 16 16 16 16 16 16 16 16 16 16 16 16 16 16 16 16 16 16 16 16 16 16 16 16 16 16 16 16 16 17 19 22 25 28 31 35 40 44 49 55 61 67 74 80 86 93 100 106 112 117 121 125 128 130 131 131 131 131 131 131 131 131 131 131 132 132 132 133 133 134 135 136 137 138 139 140 140 141 142 143 144 144 144 144 145 145 145 145 145 145 145 145 144 144 144 144 144 144 144 144 144 144 144 144 144 145 145 145 145 145 145 144 144 143 141 140 139 138 136 135 133 132 131 130 128 127 126 126 126 126 126 125 124 124 123 122 122 121 120 120 120 120 120 120 120 120 119 119 118 118 117 116 115 115 115 115 115 115 115 114 112 110 107 103 98 92 86 81 76 71 67 63 59 55 52 48 45 42 40 38 37 36 35 33 33 33 33 33 33 33 33 33 33 33 33 33 33 33 33 33 33 33 33 33 33 33 34 35 36 37 38 39 39 39 39 39 38 37 36 35 33 32 30 30 30 30 30 30 30 30 30 30 30 30 30 30 30 30 30 30 31 33 36 39 44 49 53 56 59 61 62 62 61 60 58 55 51 47 43 40 39 38 36 29 
28 23 21 19 18 17 16 16 16 16 16 16 16 16 16 16 16 16 16 16 16 16 16 16 16 16 16 16 16 16 16 16 16 16 16 16 16 16 16 16 16 16 16 16 16 16 16 16 16 16 16 16 18 20 22 25 28 31 35 39 43 48 54 60 66 72 79 85 92 98 104 110 116 121 125 128 130 131 131 131 131 131 131 131 131 132 132 132 133 133 134 134 135 136 137 138 139 139 140 140 141 142 143 143 143 143 144 144 144 145 145 145 146 146 145 145 145 145 145 145 145 145 145 145 145 145 145 145 145 144 144 143 143 142 141 140 138 137 136 135 134 133 132 131 130 129 128 127 126 126 126 126 126 125 124 124 123 122 122 121 120 120 120 120 120 120 120 120 119 119 118 118 117 116 115 115 115 115 115 114 113 111 109 106 102 97 91 86 81 76 71 66 62 58 55 51 48 45 43 40 38 37 36 35 34 33 33 33 33 33 33 33 33 33 33 33 33 33 33 33 33 33 33 33 33 33 33 33 35 36 38 39 40 41 42 43 43 43 42 40 38 36 34 32 31 30 30 30 30 30 30 30 30 30 30 30 30 30 30 30 30 30 31 33 36 40 44 49 54 58 61 63 64 64 63 61 59 56 52 47 43 40 39 38 37 32 
23 22 20 19 18 17 16 16 16 16 16 16 16 16 16 16 16 16 16 16 16 16 16 16 16 16 16 16 16 16 16 16 16 16 16 16 16 16 16 16 16 16 16 16 16 16 16 16 16 16 16 16 17 18 20 22 25 27 30 34 38 43 48 54 59 65 71 78 84 90 96 102 109 115 120 124 127 129 130 131 132 132 132 132 132 132 132 133 133 134 134 134 135 136 137 138 138 139 139 139 140 141 142 142 142 142 143 143 143 143 143 144 145 145 144 144 144 144 144 144 144 144 144 144 144 144 143 143 143 142 141 140 139 138 137 136 135 134 133 133 132 131 130 129 129 128 127 127 126 126 126 126 126 125 124 124 123 122 122 121 120 120 120 120 120 120 120 120 119 119 118 118 117 116 115 115 115 115 114 112 110 107 104 100 95 90 85 80 75 70 66 62 58 54 51 48 45 43 41 39 37 36 35 34 33 33 33 33 33 33 33 33 33 33 33 33 33 33 33 33 33 33 33 33 33 33 33 34 35 37 39 41 43 44 46 47 47 47 46 44 41 38 35 33 31 30 30 30 30 30 30 30 30 30 30 30 30 30 30 30 30 30 31 33 36 40 44 49 54 58 61 63 64 64 63 61 58 55 51 47 43 40 39 39 42 55 
20 22 20 19 18 17 16 16 16 16 16 16 16 16 16 16 16 16 16 16 16 16 16 16 16 16 16 16 16 16 16 16 16 16 16 16 16 16 16 16 16 16 16 16 16 16 16 16 16 16 16 16 16 17 18 20 22 24 27 30 34 38 43 48 53 58 64 70 76 82 88 94 101 107 113 118 122 125 127 130 132 133 133 133 133 133 133 133 134 134 134 134 135 136 137 137 138 138 138 139 139 140 140 140 141 141 141 141 141 141 141 142 142 142 142 142 142 142 142 142 142 142 142 142 142 142 141 140 139 138 137 136 136 135 134 133 133 132 132 131 130 130 129 129 128 128 127 127 126 126 126 126 126 125 124 124 123 122 122 121 120 120 120 120 120 120 120 120 119 119 118 118 117 116 115 115 114 113 111 108 105 101 97 92 87 83 78 73 69 65 61 57 54 50 47 45 43 41 39 38 36 35 34 33 33 33 33 33 33 33 33 33 33 33 33 33 33 33 33 33 33 33 33 33 33 33 33 34 36 38 40 43 45 47 49 50 50 50 49 47 44 40 37 34 31 30 30 30 30 30 30 30 30 30 30 30 30 30 30 30 30 30 31 33 36 39 43 48 53 57 60 62 63 63 62 60 57 53 49 46 43 40 38 37 38 41 
34 26 22 19 18 17 16 16 16 16 16 16 16 16 16 16 16 16 16 16 16 16 16 16 16 16 16 16 16 16 16 16 16 16 16 16 16 16 16 16 16 16 16 16 16 16 16 16 16 16 16 16 16 16 17 18 20 22 24 27 30 33 37 42 47 52 57 63 68 74 80 86 92 98 104 110 115 119 123 127 130 132 133 133 133 134 134 134 134 134 134 135 136 136 136 137 137 137 138 138 138 138 138 139 139 139 139 139 139 139 140 140 140 140 140 140 140 140 140 140 140 140 140 140 140 139 138 137 136 135 134 134 134 133 132 132 132 132 131 130 130 129 129 129 128 128 127 127 126 126 126 126 126 125 124 124 123 122 122 121 120 120 120 120 120 120 120 120 119 119 118 118 117 116 115 114 112 109 106 102 98 94 90 85 80 76 72 67 63 60 56 53 50 47 44 42 41 39 38 37 35 34 33 33 33 33 33 33 33 33 33 33 33 33 33 33 33 33 33 33 33 33 33 33 33 33 33 34 36 38 41 44 47 50 52 53 53 52 51 49 46 42 38 34 31 30 30 30 30 30 30 30 30 30 30 30 30 30 30 30 30 30 31 32 35 38 42 46 51 55 58 60 61 61 60 58 55 51 48 45 42 40 38 36 34 29 
40 28 23 20 18 16 16 16 16 16 16 16 16 16 16 16 16 16 16 16 16 16 16 16 16 16 16 16 16 16 16 16 16 16 16 16 16 16 16 16 16 16 16 16 16 16 16 16 16 16 16 16 16 16 16 17 18 20 21 23 26 29 33 37 41 46 51 56 61 66 72 78 84 90 96 101 107 112 117 122 126 129 131 132 133 134 134 135 135 135 135 136 136 136 136 137 137 137 137 137 137 137 137 138 138 138 138 138 138 138 138 138 138 138 138 138 138 138 138 138 138 138 138 138 137 137 136 135 134 133 133 133 132 132 132 132 132 132 131 130 130 129 129 129 128 128 127 127 126 126 126 126 126 125 124 124 123 122 122 121 120 120 120 120 120 120 120 120 119 119 118 118 117 115 113 111 108 104 99 95 91 87 83 78 74 70 66 62 58 55 52 49 46 44 42 40 39 38 37 36 34 33 33 33 33 33 33 33 33 33 33 33 33 33 33 33 33 33 33 33 33 33 33 33 33 33 33 34 36 39 42 45 49 52 54 55 55 54 52 50 46 42 38 34 31 30 30 30 30 30 30 30 30 30 30 30 30 30 30 30 30 30 30 31 34 37 40 44 48 52 55 57 58 58 57 55 52 49 46 44 41 39 38 36 33 28 
26 25 22 20 17 16 16 16 16 16 16 16 16 16 16 16 16 16 16 16 16 16 16 16 16 16 16 16 16 16 16 16 16 16 16 16 16 16 16 16 16 16 16 16 16 16 16 16 16 16 16 16 16 16 16 16 17 18 19 21 23 26 29 32 36 40 45 49 54 59 65 70 76 82 87 93 98 103 109 115 120 124 127 129 131 133 134 135 135 136 137 137 137 137 137 137 137 137 137 137 137 137 137 137 137 137 137 137 137 137 137 137 137 137 137 137 137 137 137 137 137 137 137 136 136 136 135 134 133 133 133 132 132 132 132 132 132 132 131 130 130 129 129 129 128 128 127 127 126 126 126 126 126 125 124 124 123 122 122 121 120 120 120 120 120 120 120 120 119 119 118 117 115 112 109 106 102 97 92 88 84 80 76 71 67 63 60 57 53 50 48 46 43 41 40 38 37 36 35 34 33 33 33 33 33 33 33 33 33 33 33 33 33 33 33 33 33 33 33 33 33 33 33 33 33 33 33 34 36 39 42 46 50 53 55 56 56 55 53 50 46 42 38 34 31 30 30 30 30 30 30 30 30 30 30 30 30 30 30 30 30 30 30 31 33 35 38 42 45 49 52 53 54 54 53 51 49 47 44 42 41 39 39 38 36 29 
25 24 22 19 17 16 16 16 16 16 16 16 16 16 16 16 16 16 16 16 16 16 16 16 16 16 16 16 16 16 16 16 16 16 16 16 16 16 16 16 16 16 16 16 16 16 16 16 16 16 16 16 16 16 16 16 16 17 18 19 21 23 25 28 31 35 39 43 48 52 57 62 68 73 79 84 89 95 100 106 112 117 121 124 127 130 132 134 135 136 137 138 138 138 138 138 138 138 138 137 137 137 137 137 136 136 136 136 136 136 136 136 136 136 136 136 136 136 136 136 136 136 136 135 135 135 135 134 133 133 133 132 132 132 132 132 132 132 131 130 130 129 129 129 128 128 127 127 126 126 126 126 126 125 124 124 123 122 122 121 120 120 120 120 120 120 120 119 118 117 116 114 111 107 103 99 95 90 85 81 77 73 69 65 61 57 54 52 49 47 45 43 41 39 38 37 36 35 34 33 33 33 33 33 33 33 33 33 33 33 33 33 33 33 33 33 33 33 33 33 33 33 33 33 33 33 33 34 36 39 42 46 50 52 54 55 55 54 52 49 45 41 38 34 31 30 30 30 30 30 30 30 30 30 30 30 30 30 30 30 30 30 30 30 32 34 36 39 42 45 48 49 49 49 48 47 46 44 43 41 40 40 40 42 46 57 
26 24 21 19 17 16 16 16 16 16 16 16 16 16 16 16 16 16 16 16 16 16 16 16 16 16 16 16 16 16 16 16 16 16 16 16 16 16 16 16 16 16 16 16 16 16 16 16 16 16 16 16 16 16 16 16 16 16 17 18 19 20 22 24 27 30 34 38 42 46 51 55 60 65 70 75 81 86 92 97 103 108 113 117 121 125 128 131 133 134 136 137 138 138 139 139 138 138 138 137 137 137 136 136 135 135 135 135 135 135 135 135 135 135 135 135 135 135 135 135 135 135 135 135 135 135 135 134 133 133 133 132 132 132 132 132 132 132 131 130 130 129 129 129 128 128 127 127 127 127 127 126 126 125 124 124 123 122 122 121 120 120 120 120 119 119 118 117 115 114 112 109 105 100 96 92 88 83 78 74 70 66 62 58 55 52 49 47 45 43 42 40 39 37 36 35 34 33 33 33 33 33 33 33 33 33 33 33 33 33 33 33 33 33 33 33 33 33 33 33 33 33 33 33 33 33 33 34 36 39 42 46 49 51 52 53 53 52 50 47 44 40 37 34 31 30 30 30 30 30 30 30 30 30 30 30 30 30 30 30 30 30 30 30 31 33 35 37 39 41 43 44 44 44 44 44 43 42 41 40 40 40 41 44 51 68 
25 25 22 19 17 16 16 16 16 16 16 16 16 16 16 16 16 16 16 16 16 16 16 16 16 16 16 16 16 16 16 16 16 16 16 16 16 16 16 16 16 16 16 16 16 16 16 16 16 16 16 16 16 16 16 16 16 16 16 17 18 19 20 22 24 27 30 33 37 41 45 49 53 58 63 67 72 78 83 88 94 99 104 109 114 118 122 126 129 131 133 134 136 137 138 138 138 138 138 137 137 136 135 135 134 134 134 134 134 134 134 134 134 134 134 134 134 134 134 134 134 134 134 134 134 134 134 134 133 133 133 132 132 132 132 132 132 132 131 130 130 129 129 129 128 128 127 127 127 127 127 126 126 125 124 124 123 122 122 121 120 120 119 118 117 116 115 113 111 109 106 102 97 93 89 85 81 76 71 67 63 59 56 53 50 47 45 43 42 41 39 38 37 36 35 34 33 33 33 33 33 33 33 33 33 33 33 33 33 33 33 33 33 33 33 33 33 33 33 33 33 33 33 33 33 33 33 34 35 38 41 44 47 49 50 50 50 49 47 45 42 39 37 34 31 30 30 30 30 30 30 30 30 30 30 30 30 30 30 30 30 30 30 30 30 31 33 35 36 38 39 40 40 40 40 41 41 40 40 39 40 40 41 43 46 50 
40 30 24 20 17 16 16 16 16 16 16 16 16 16 16 16 16 16 16 16 16 16 16 16 16 16 16 16 16 16 16 16 16 16 16 16 16 16 16 16 16 16 16 16 16 16 16 16 16 16 16 16 16 16 16 16 16 16 16 16 17 18 19 20 22 24 26 29 32 36 39 43 47 51 55 60 64 69 74 80 85 90 95 100 105 110 115 119 123 126 128 130 132 134 135 136 136 137 137 137 136 135 134 134 133 133 133 133 133 133 133 133 133 133 133 133 133 133 133 133 133 133 133 133 133 133 133 133 133 133 133 132 132 132 132 132 132 131 131 130 130 129 129 129 128 128 127 127 127 127 127 126 126 125 124 124 123 122 121 120 119 118 116 115 113 112 110 107 105 102 98 94 89 85 81 77 73 69 65 61 57 54 51 48 45 43 42 41 40 39 37 36 35 34 34 33 33 33 33 33 33 33 33 33 33 33 33 33 33 33 33 33 33 33 33 33 33 33 33 33 33 33 33 33 33 33 33 33 34 36 39 41 44 46 47 47 47 46 44 42 40 38 36 34 31 30 30 30 30 30 30 30 30 30 30 30 30 30 30 30 30 30 30 30 30 30 31 33 34 35 36 37 37 37 38 38 39 39 39 39 40 40 41 43 42 32 
44 31 24 20 17 16 16 16 16 16 16 16 16 16 16 16 16 16 16 16 16 16 16 16 16 16 16 16 16 16 16 16 16 16 16 16 16 16 16 16 16 16 16 16 16 16 16 16 16 16 16 16 16 16 16 16 16 16 16 16 16 17 18 19 20 22 23 25 28 31 34 37 41 45 49 53 57 61 66 71 76 81 86 91 96 101 106 111 115 119 122 124 127 129 131 132 133 134 135 135 134 134 133 133 132 132 132 132 132 132 132 132 132 132 132 132 132 132 132 132 132 132 132 132 132 132 132 132 132 132 132 132 132 132 131 131 131 130 130 129 129 128 128 128 128 128 127 127 127 127 127 126 126 125 124 123 122 120 119 117 115 114 112 110 108 106 103 100 97 93 89 85 81 77 73 69 66 62 59 56 52 49 46 44 42 41 40 39 38 37 36 35 34 34 33 33 33 33 33 33 33 33 33 33 33 33 33 33 33 33 33 33 33 33 33 33 33 33 33 33 33 33 33 33 33 33 33 33 34 35 37 39 41 42 43 43 43 42 41 40 39 37 35 33 31 30 30 30 30 30 30 30 30 30 30 30 30 30 30 30 30 30 30 30 30 30 31 32 33 34 35 35 35 36 36 37 38 38 38 39 40 41 42 45 50 67 
32 27 22 19 17 16 16 16 16 16 16 16 16 16 16 16 16 16 16 16 16 16 16 16 16 16 16 16 16 16 16 16 16 16 16 16 16 16 16 16 16 16 16 16 16 16 16 16 16 16 16 16 16 16 16 16 16 16 16 16 16 16 17 18 19 20 21 23 25 27 30 33 36 39 43 46 50 54 58 63 68 73 78 83 87 92 97 102 106 110 114 117 120 123 125 127 128 130 131 131 131 131 131 131 131 131 131 130 130 130 131 131 131 131 132 132 132 132 132 132 132 132 132 132 132 132 132 132 132 132 132 131 131 131 130 130 130 129 129 128 128 127 127 127 127 127 127 127 127 127 127 126 125 124 122 121 119 117 115 112 110 108 106 103 101 98 95 92 88 85 81 77 74 70 66 63 60 57 54 51 48 45 43 41 40 39 38 38 37 36 35 34 34 33 33 33 33 33 33 33 33 33 33 33 33 33 33 33 33 33 33 33 33 33 33 33 33 33 33 33 33 33 33 33 33 33 33 33 33 34 35 37 38 39 39 39 39 39 39 38 37 36 35 33 31 30 30 30 30 30 30 30 30 30 30 30 30 30 30 30 30 30 30 30 30 30 31 32 33 33 34 34 35 35 36 37 37 38 38 39 40 42 44 46 46 35 
30 25 21 18 17 16 16 16 16 16 16 16 16 16 16 16 16 16 16 16 16 16 16 16 16 16 16 16 16 16 16 16 16 16 16 16 16 16 16 16 16 16 16 16 16 16 16 16 16 16 16 16 16 16 16 16 16 16 16 16 16 16 16 17 18 19 20 21 23 24 26 29 31 34 37 40 43 47 51 55 60 65 70 74 79 83 88 92 96 100 104 108 112 115 117 120 122 124 125 125 126 126 127 127 127 128 128 128 128 128 129 129 129 130 131 131 131 131 132 132 133 133 133 133 132 132 132 132 132 132 131 130 130 130 129 129 129 128 128 127 127 126 126 126 126 126 126 126 126 125 125 124 122 121 119 117 114 112 109 106 103 100 98 95 92 89 86 83 80 77 74 70 67 64 60 57 54 51 49 46 44 42 41 39 38 38 38 37 36 35 35 34 34 33 33 33 33 33 33 33 33 33 33 33 33 33 33 33 33 33 33 33 33 33 33 33 33 33 33 33 33 33 33 33 33 33 33 33 33 33 34 35 36 36 36 36 36 36 36 36 36 35 34 33 31 30 30 30 30 30 30 30 30 30 30 30 30 30 30 30 30 30 30 30 30 30 31 32 32 33 33 34 35 35 36 37 37 38 38 39 41 44 47 50 53 55 
21 22 20 18 17 16 16 16 16 16 16 16 16 16 16 16 16 16 16 16 16 16 16 16 16 16 16 16 16 16 16 16 16 16 16 16 16 16 16 16 16 16 16 16 16 16 16 16 16 16 16 16 16 16 16 16 16 16 16 16 16 16 16 16 17 18 19 20 21 22 24 26 28 30 32 35 38 41 44 48 52 57 61 66 70 74 79 83 87 91 95 99 102 105 108 111 114 116 117 118 119 120 121 121 122 123 123 124 124 125 126 126 127 128 129 129 129 130 131 131 132 132 132 132 132 132 132 132 131 131 130 129 129 129 128 128 128 127 127 126 126 125 125 125 124 124 124 123 123 122 121 120 118 116 113 111 108 105 102 99 96 93 90 87 84 81 78 75 72 69 67 64 61 58 55 52 49 47 45 43 41 40 39 38 37 37 37 37 36 35 35 35 35 34 34 34 34 34 34 34 34 34 34 34 34 34 33 33 33 33 33 33 33 33 33 33 33 33 33 33 33 33 33 33 33 33 33 33 33 33 34 34 34 34 34 34 34 34 34 34 34 34 34 33 31 30 30 30 30 30 30 30 30 30 30 30 30 30 30 30 30 30 30 30 30 30 31 32 32 33 33 34 35 35 36 37 37 38 38 40 42 45 49 55 63 80 
32 24 20 18 17 16 16 16 16 16 16 16 16 16 16 16 16 16 16 16 16 16 16 16 16 16 16 16 16 16 16 16 16 16 15 15 15 15 15 15 15 15 15 15 15 15 15 15 15 15 15 15 15 15 15 15 15 15 15 15 15 15 15 15 16 17 18 19 20 21 22 23 25 27 29 31 33 36 38 41 45 50 54 58 62 66 70 74 78 82 86 89 92 95 98 101 104 106 108 109 110 112 113 114 115 116 117 118 119 120 121 122 123 124 125 125 126 127 128 128 129 129 130 130 130 130 131 131 130 130 129 128 128 128 127 127 127 126 125 124 124 123 122 122 121 120 120 119 118 117 116 114 112 109 106 103 100 97 94 91 88 85 82 79 77 74 71 68 65 63 61 58 55 53 50 48 46 44 42 40 39 38 37 37 37 37 37 37 36 35 35 35 35 35 35 35 35 35 35 35 35 35 35 35 35 34 34 33 33 33 33 33 33 33 33 33 33 33 33 33 33 33 33 33 33 33 33 33 33 33 33 33 33 33 33 33 33 33 33 33 33 33 33 33 31 30 30 30 30 30 30 30 30 30 30 30 30 30 30 30 30 30 30 30 30 30 31 32 32 33 33 34 35 35 36 37 37 38 39 41 43 47 52 58 65 72 
25 23 20 18 17 16 16 16 16 16 16 16 16 16 16 16 16 16 16 16 16 16 16 16 16 16 16 16 16 16 16 16 16 15 15 15 15 15 15 15 15 15 15 15 15 15 15 15 15 15 15 15 15 15 15 15 15 15 15 15 15 15 15 15 15 16 17 18 19 20 21 22 23 24 26 28 30 32 34 36 39 44 48 52 55 59 63 66 70 73 77 80 83 86 88 91 93 95 97 99 100 102 103 104 105 107 108 109 111 112 113 115 116 117 119 120 121 122 123 123 124 125 126 126 126 127 128 128 127 127 126 125 125 125 124 124 124 123 122 121 120 119 118 117 116 115 114 113 112 110 109 107 104 101 98 95 92 89 86 83 80 78 75 73 70 68 65 62 60 58 55 53 51 48 46 44 42 41 39 38 37 37 36 36 36 36 36 36 36 36 36 36 36 36 36 36 36 36 36 36 36 36 36 35 35 35 34 34 34 34 34 33 33 33 33 33 33 33 33 33 33 33 33 33 33 33 33 33 33 33 33 33 33 33 33 33 33 33 33 33 33 33 33 33 31 31 31 31 31 30 30 30 30 30 30 30 30 30 30 30 30 30 30 30 30 30 31 32 32 33 33 34 35 35 36 37 37 38 39 41 44 48 53 60 67 68 
29 23 20 18 17 16 16 16 16 16 16 16 16 16 16 16 16 16 16 16 16 16 16 16 16 16 16 16 16 16 16 16 15 15 15 15 15 15 15 15 15 15 15 15 15 15 15 15 15 15 15 15 15 15 15 15 15 15 15 15 15 15 15 15 15 15 16 17 18 19 20 21 22 23 24 25 27 29 30 32 35 39 42 46 49 52 56 59 62 65 68 71 74 76 79 81 83 85 87 89 90 92 93 94 95 97 98 100 102 103 104 106 107 109 111 112 113 114 116 117 118 119 120 120 121 122 123 123 122 122 121 120 120 120 119 119 119 118 116 115 114 112 111 110 108 107 106 105 104 102 100 98 95 92 89 87 84 82 79 76 74 72 69 67 64 62 60 57 55 53 51 49 47 45 43 41 40 39 37 36 36 36 36 36 36 36 36 36 36 36 36 36 37 37 37 37 37 37 37 37 37 37 36 35 35 35 35 35 35 35 34 34 33 33 33 33 33 33 33 33 33 33 33 33 33 33 33 33 33 33 33 33 33 33 33 33 33 33 33 33 33 33 33 32 32 32 32 32 31 30 30 30 30 30 30 30 30 30 30 30 30 30 30 30 30 30 31 32 32 33 33 34 35 35 36 36 37 37 39 41 44 49 55 64 76 94 
28 23 20 18 17 16 16 16 16 16 16 16 16 16 16 16 16 16 16 16 16 16 16 16 16 16 16 16 16 16 16 15 15 15 15 15 15 15 15 15 15 15 15 15 15 15 15 15 15 15 15 15 15 15 15 15 15 15 15 15 15 15 15 15 15 15 16 17 18 19 20 21 22 22 23 24 25 26 28 30 32 35 38 41 44 46 49 52 55 58 60 63 65 67 70 72 74 76 77 79 80 82 83 84 85 87 88 90 92 94 95 97 98 100 102 103 104 105 107 108 109 111 112 113 114 115 116 116 115 115 114 113 113 113 112 112 112 111 109 107 106 104 103 102 100 99 97 96 94 92 90 88 86 84 81 79 77 75 72 70 68 66 63 61 59 57 55 52 50 48 46 45 43 42 41 39 38 37 36 36 36 36 36 36 36 36 36 36 37 37 37 37 38 39 39 39 39 39 39 39 38 37 36 36 36 36 36 36 36 35 35 34 33 33 33 33 33 33 33 33 33 33 33 33 33 33 33 33 33 33 33 33 33 33 33 33 33 33 33 33 33 33 33 32 32 32 32 32 31 30 30 30 30 30 30 30 30 30 30 30 30 30 30 30 30 30 31 32 32 33 33 34 34 35 35 36 36 37 38 41 45 50 56 65 79 108 
25 22 20 18 17 16 16 16 16 16 16 16 16 16 16 16 16 16 16 16 16 16 16 16 16 16 16 16 16 16 15 15 15 15 15 15 15 15 15 15 15 15 15 15 15 15 15 15 15 15 15 15 15 15 15 15 15 15 15 15 15 15 15 15 15 15 16 17 18 19 20 21 21 21 22 23 24 25 26 28 30 32 34 36 39 41 43 46 48 51 53 55 57 59 61 63 65 66 67 69 70 72 73 74 76 77 79 81 83 85 86 88 89 91 93 94 95 96 97 98 99 101 102 104 105 106 107 107 106 106 106 105 105 104 104 103 103 102 100 99 98 96 95 94 92 90 88 86 85 83 81 79 77 75 73 71 69 67 65 63 61 59 57 55 53 52 50 48 46 44 43 42 40 39 38 37 36 36 35 35 35 35 35 35 35 36 36 37 38 38 38 38 39 40 41 42 42 42 42 41 40 38 37 36 36 36 36 36 36 36 35 34 33 33 33 33 33 33 33 33 33 33 33 33 33 33 33 33 33 33 33 33 33 33 33 33 33 33 33 33 33 33 33 32 32 32 32 32 31 30 30 30 30 30 30 30 30 30 30 30 30 30 30 30 30 30 31 32 32 33 33 33 34 34 35 35 36 36 38 41 45 50 56 63 68 57 
23 22 20 18 17 16 16 16 16 16 16 16 16 16 16 16 16 16 16 16 16 16 16 16 16 16 16 16 16 15 15 15 15 15 15 15 15 15 15 15 15 15 15 15 15 15 15 15 15 15 15 15 15 15 15 15 15 15 15 15 15 15 15 15 15 15 16 17 18 19 20 20 20 20 21 22 23 24 25 26 28 29 31 33 35 37 39 41 43 45 47 48 50 52 53 55 56 57 58 60 61 62 63 65 66 68 70 72 74 76 77 79 80 82 83 84 85 86 87 88 89 91 92 93 94 95 96 96 96 96 96 96 96 95 95 94 93 92 91 90 89 88 87 85 83 81 79 78 77 75 73 71 69 67 65 64 62 60 58 57 55 53 52 50 49 47 46 44 43 41 40 39 38 37 36 36 35 35 35 35 35 35 35 35 35 36 36 37 38 39 39 39 40 42 43 44 44 44 44 43 41 39 37 36 36 36 36 36 36 36 35 34 33 33 33 33 33 33 33 33 33 33 33 33 33 33 33 33 33 33 33 33 33 33 33 33 33 33 33 33 33 33 33 32 32 32 32 32 31 30 30 30 30 30 30 30 30 30 30 30 30 30 30 30 30 30 31 31 32 32 32 33 33 34 34 35 35 35 37 40 44 49 55 64 76 94 
25 23 20 18 17 16 16 16 16 16 16 16 16 16 16 16 16 16 16 16 16 16 16 16 16 16 16 16 15 15 15 15 15 15 15 15 15 15 15 15 15 15 15 15 15 15 15 15 15 15 15 15 15 15 15 15 15 15 15 15 15 15 15 15 15 15 16 17 18 19 19 19 19 19 20 21 22 23 24 25 26 27 28 29 31 33 34 36 37 39 41 42 43 45 46 48 49 50 51 52 53 54 54 55 57 59 61 63 65 67 68 70 71 72 73 74 75 76 77 78 80 81 82 83 84 85 86 86 86 86 86 86 86 86 86 85 84 83 82 81 80 79 78 77 75 73 72 71 69 68 66 64 62 60 59 58 56 54 53 52 50 49 48 46 45 44 42 41 40 39 38 37 36 35 35 35 34 34 34 34 34 34 34 35 35 36 36 37 38 39 39 40 41 43 44 45 45 45 44 43 41 39 37 36 36 36 36 36 36 36 35 34 34 34 33 33 33 33 33 33 33 33 33 33 33 33 33 33 33 33 33 33 33 33 33 33 33 33 33 33 33 33 33 33 33 33 33 32 31 30 30 30 30 30 30 30 30 30 30 30 30 30 30 30 30 30 31 31 32 32 32 33 33 33 34 34 34 35 36 38 42 46 52 61 78 118 
27 26 22 19 17 16 16 16 16 16 16 16 16 16 16 16 16 16 16 16 16 16 16 16 16 16 16 15 15 15 15 15 15 15 15 15 15 15 15 15 15 15 15 15 15 15 15 15 15 15 15 15 15 15 15 15 15 15 15 15 15 15 15 15 15 15 16 17 18 18 18 18 18 18 19 20 21 22 23 24 24 25 26 27 28 29 30 32 33 34 35 36 37 39 40 41 42 43 43 44 45 46 46 47 48 50 52 54 56 58 59 61 62 63 64 65 66 67 68 69 71 72 73 74 75 76 77 77 77 77 77 77 77 77 77 77 76 75 74 73 72 71 70 69 68 66 65 64 63 62 60 58 56 55 54 53 51 50 49 47 46 45 44 43 42 41 39 38 37 36 36 35 35 34 34 34 34 34 34 34 34 34 34 35 35 36 36 37 38 39 39 40 41 43 44 44 44 44 43 42 40 39 37 36 36 36 36 36 36 36 35 35 34 34 34 34 33 33 33 33 33 33 33 33 33 33 33 33 33 33 33 33 33 33 33 33 33 33 33 33 33 33 33 33 33 33 33 32 31 30 30 30 30 30 30 30 30 30 30 30 30 30 31 31 31 31 32 32 33 33 33 33 33 33 34 34 34 34 35 37 40 43 47 53 59 60 
54 33 24 19 17 16 16 16 16 16 16 16 16 16 16 16 16 16 16 16 16 16 16 16 16 16 15 15 15 15 15 15 15 15 15 15 15 15 15 15 15 15 15 15 15 15 15 15 15 15 15 15 15 15 15 15 15 15 15 15 15 15 15 15 15 15 16 17 17 17 17 17 17 17 18 19 20 21 22 22 22 23 24 25 26 26 27 28 29 30 31 32 33 34 35 35 35 36 36 37 38 39 39 39 40 41 43 45 47 49 51 53 54 55 56 57 58 59 60 61 63 64 65 66 67 68 69 69 69 69 69 69 69 69 69 69 68 67 66 65 64 63 62 61 60 59 58 57 56 55 54 53 51 50 49 48 47 46 45 43 42 41 40 39 38 38 37 36 35 35 34 34 34 34 34 34 34 34 34 34 34 34 34 35 35 36 36 37 38 39 39 40 41 42 43 43 43 42 41 41 40 39 37 36 36 36 36 36 36 36 36 35 34 34 34 34 34 34 33 33 33 33 33 33 33 33 33 33 33 33 33 33 33 33 33 33 33 33 34 34 34 34 34 34 34 34 33 32 31 30 30 30 30 30 30 30 30 30 30 30 31 31 32 32 33 33 34 34 34 34 34 34 34 34 34 34 34 34 34 35 37 40 42 45 45 38 
39 28 22 18 16 16 16 16 16 16 16 16 16 16 16 16 16 16 16 16 16 16 16 16 16 15 15 15 15 15 15 15 15 15 15 15 15 15 15 15 15 15 15 15 15 15 15 15 15 15 15 15 15 15 15 15 15 15 15 15 15 15 15 15 15 15 16 16 16 16 16 16 16 16 17 18 19 20 20 20 21 21 22 23 23 24 24 25 26 26 27 28 29 29 30 30 30 30 30 31 32 33 33 33 33 34 36 38 40 42 44 46 47 48 49 50 51 52 53 54 56 57 58 59 60 61 62 62 62 62 62 62 62 62 62 62 61 60 59 58 57 56 55 54 53 53 52 51 50 49 48 47 46 45 44 43 43 42 41 40 39 38 37 36 36 36 35 34 34 34 33 33 33 33 34 34 34 34 34 34 34 34 34 35 35 36 36 37 38 39 39 40 41 41 41 41 41 41 41 40 39 38 37 37 37 37 37 37 37 37 36 35 34 34 34 35 35 35 34 34 33 33 33 33 33 33 33 33 33 33 33 33 33 33 33 33 33 33 34 35 35 35 35 35 35 35 34 33 32 31 31 30 30 30 30 30 30 30 30 30 31 32 33 34 35 36 36 36 36 36 36 36 36 35 34 34 33 33 33 34 35 37 38 39 39 40 
12 20 19 17 16 16 16 16 16 16 16 16 16 16 16 16 16 16 16 16 16 16 16 16 15 15 15 15 15 15 15 15 15 15 15 15 15 15 15 15 15 15 15 15 15 15 15 15 15 15 15 15 15 15 15 15 15 15 15 15 15 15 15 15 15 15 15 15 15 15 15 15 15 15 16 17 18 18 18 19 19 20 20 20 21 21 22 22 22 23 24 24 25 25 25 25 25 25 25 26 27 28 28 29 29 30 31 33 35 37 38 40 41 42 43 44 45 46 47 48 50 51 52 53 54 55 56 56 56 56 56 56 56 56 56 56 55 54 53 52 51 50 49 48 48 48 47 46 45 44 43 43 42 41 40 40 39 39 38 37 37 36 35 35 35 34 34 33 33 33 33 33 33 34 34 34 34 34 34 34 34 34 34 35 35 36 37 38 39 39 39 40 40 40 40 40 40 40 40 40 39 38 37 37 37 37 37 37 37 37 36 35 34 34 35 36 36 36 36 35 34 33 33 33 33 33 33 33 33 33 33 33 33 33 33 33 33 33 34 35 36 36 36 37 37 37 36 35 34 33 32 31 30 30 30 30 30 30 30 31 32 33 35 36 37 39 39 39 39 39 39 38 37 36 35 34 32 32 32 32 33 34 35 35 34 27 
29 21 18 16 16 16 16 16 16 16 16 16 16 16 16 16 16 16 16 16 16 16 16 15 15 15 15 15 15 15 15 15 15 15 15 15 15 15 15 15 15 15 15 15 15 15 15 15 15 15 15 15 15 15 15 15 15 15 15 15 15 15 15 15 15 15 15 15 15 15 15 15 15 15 15 16 17 17 17 18 18 18 18 18 19 19 19 19 19 20 21 21 21 21 21 21 21 21 21 22 23 24 25 26 27 28 29 30 31 33 34 35 36 37 38 39 40 41 42 43 45 46 47 48 49 50 51 51 51 51 51 51 51 51 51 51 50 49 48 47 46 45 44 44 44 43 43 42 41 40 40 39 39 38 38 37 37 36 36 35 35 35 34 34 34 33 33 32 32 32 32 33 33 34 34 34 34 34 34 34 34 34 34 35 35 36 37 38 39 39 39 39 39 39 39 39 39 39 39 39 39 38 37 37 37 37 37 37 37 37 36 35 34 34 35 36 37 38 38 37 35 34 33 33 33 33 33 33 33 33 33 33 33 33 33 33 33 34 35 36 37 37 37 38 39 39 38 37 36 35 33 32 30 30 30 30 30 30 30 31 33 34 36 38 40 42 43 43 43 43 42 40 39 37 35 33 31 31 31 31 31 32 33 34 36 42 
21 18 17 16 16 16 16 16 16 16 16 16 16 16 16 16 16 16 16 16 16 16 15 15 15 15 15 15 15 15 15 15 15 15 15 15 15 15 15 15 15 15 15 15 15 15 15 15 15 15 15 15 15 15 15 15 15 15 15 15 15 15 15 15 15 15 15 15 15 15 15 15 15 15 15 15 16 17 17 17 17 17 17 17 17 17 17 17 17 18 18 18 18 18 18 18 18 18 19 20 21 22 23 24 25 26 27 28 29 30 31 32 33 34 35 36 37 38 39 40 41 42 43 44 45 46 47 47 47 47 47 47 47 47 47 47 46 45 44 43 42 41 41 41 40 40 40 39 38 38 37 37 37 36 36 35 35 34 34 34 34 34 33 33 33 32 32 31 31 32 32 33 33 34 34 34 34 34 34 34 34 34 34 35 35 36 37 39 40 40 39 39 39 39 39 39 39 39 39 39 39 38 37 37 37 37 37 37 37 37 36 35 35 35 35 36 38 39 39 38 36 34 33 33 33 33 33 33 33 33 33 33 33 33 33 33 33 34 35 36 37 38 38 39 40 41 41 40 39 37 35 33 31 30 30 30 30 30 30 31 33 35 38 40 43 45 46 46 46 45 44 42 40 37 35 32 30 30 30 30 30 31 32 33 35 42 
15 16 16 16 16 16 16 16 16 16 16 16 16 16 16 16 16 16 16 16 16 15 15 15 15 15 15 15 15 15 15 15 15 15 15 15 15 15 15 15 15 15 15 15 15 15 15 15 15 15 15 15 15 15 15 15 15 15 15 15 15 15 15 15 15 15 15 15 15 15 15 15 15 15 15 15 16 17 17 17 17 17 17 17 16 16 16 16 16 16 16 16 16 16 16 16 16 16 17 18 19 20 21 22 23 24 25 26 27 28 29 30 31 32 33 34 35 36 36 37 38 39 40 41 42 43 44 44 44 44 44 44 44 44 44 44 43 42 41 40 39 39 39 38 38 38 37 37 36 36 35 35 35 34 34 33 33 32 32 32 32 32 32 32 32 31 31 31 31 32 32 33 34 34 34 34 34 34 34 34 34 34 34 35 35 36 37 39 40 39 39 39 39 39 39 39 39 39 39 39 39 38 37 37 37 37 37 37 37 37 36 36 35 35 35 36 38 39 39 38 36 34 33 33 33 33 33 33 33 33 33 33 33 33 33 33 34 35 36 37 38 39 40 41 42 44 45 44 42 39 36 34 31 30 30 30 30 30 30 32 34 36 39 42 45 47 48 48 47 46 44 41 39 36 34 31 29 29 29 29 29 30 31 32 32 29 
18 17 16 16 16 16 16 16 16 16 16 16 16 16 16 16 16 16 16 16 15 15 15 15 15 15 15 15 15 15 15 15 15 15 15 15 15 15 15 15 15 15 15 15 15 15 15 15 15 15 15 15 15 15 15 15 15 15 15 15 15 15 15 15 15 15 15 15 15 15 15 15 15 15 15 15 15 16 17 17 18 18 17 16 15 15 15 15 15 15 15 15 15 15 15 15 15 15 15 16 17 18 19 20 21 22 23 24 25 26 27 28 29 30 31 32 33 33 33 34 35 36 37 38 39 40 41 41 41 41 41 41 41 42 42 42 41 40 39 38 37 37 37 36 36 36 35 35 34 34 33 33 33 32 32 31 31 31 31 31 31 31 31 31 31 30 30 31 31 32 32 33 34 34 34 34 34 34 34 34 34 34 34 35 35 36 37 38 39 38 38 38 38 38 38 38 38 38 38 38 38 38 37 37 37 37 37 37 37 37 37 36 35 35 35 36 37 37 37 36 34 33 33 33 33 33 33 33 33 33 33 33 33 33 33 33 34 35 36 37 38 39 41 42 44 47 48 47 45 41 37 34 31 30 30 30 30 30 31 32 34 37 41 44 46 47 48 48 47 45 42 39 37 35 33 30 28 28 28 28 28 29 30 32 32 27 
24 19 17 16 16 16 16 16 16 16 16 16 16 16 16 16 16 16 16 15 15 15 15 15 15 15 15 15 15 15 15 15 15 15 15 15 15 15 15 15 15 15 15 15 15 15 15 15 15 15 15 15 15 15 15 15 15 15 15 15 15 15 15 15 15 15 15 15 15 15 15 15 15 15 15 15 15 16 17 17 18 18 16 15 15 15 15 15 15 15 15 15 15 15 15 15 15 15 15 15 15 16 17 18 19 20 21 22 23 24 25 26 27 28 29 30 30 30 31 31 32 33 34 35 36 37 38 38 38 38 38 38 38 39 40 40 40 39 37 36 35 35 35 34 34 34 33 33 32 32 31 31 31 30 30 29 29 29 29 29 29 29 29 29 30 30 30 31 31 32 32 33 34 34 34 34 34 34 34 34 34 34 34 35 35 36 37 37 37 37 37 37 37 37 37 37 37 37 37 37 37 37 37 37 37 37 37 37 37 37 37 36 35 35 35 35 35 35 34 34 33 33 33 33 33 33 33 33 33 33 33 33 33 33 33 34 35 36 37 38 39 40 42 44 46 49 50 49 47 43 38 35 32 30 30 30 30 30 31 32 34 37 41 44 46 47 47 46 45 42 40 37 35 33 31 29 27 27 27 27 27 29 31 34 36 38 
23 19 17 16 16 16 16 16 16 16 16 16 16 16 16 16 16 16 15 15 15 15 15 15 15 15 15 15 15 15 15 15 15 15 15 15 15 15 15 15 15 15 15 15 15 15 15 15 15 15 15 15 15 15 15 15 15 15 15 15 15 15 15 15 15 15 15 15 15 15 15 15 15 15 15 15 15 15 16 17 17 17 15 15 15 15 15 15 15 15 15 15 15 15 15 15 15 15 15 15 15 15 15 16 17 18 19 20 21 22 23 24 25 26 27 27 27 28 28 29 29 30 31 32 33 34 35 35 35 35 35 35 35 36 37 38 38 37 35 34 33 33 33 32 32 32 31 31 30 30 29 29 29 28 28 28 28 28 28 28 28 28 28 29 29 30 30 31 31 32 33 34 35 35 35 35 35 35 35 35 35 35 35 35 35 36 36 36 36 36 36 37 37 37 37 37 37 37 37 37 37 37 37 37 37 37 37 37 37 37 37 36 35 35 35 34 34 33 33 33 33 33 33 33 33 33 33 33 33 33 33 33 33 33 33 34 35 36 37 38 39 40 42 44 47 50 51 50 48 44 39 35 32 30 30 30 30 30 30 31 33 36 39 42 44 45 45 44 42 39 37 35 33 31 30 28 26 26 26 26 27 29 32 36 43 60 
17 17 16 16 16 16 16 16 16 16 16 16 16 16 16 16 16 15 15 15 15 15 15 15 15 15 15 15 15 15 15 15 15 15 15 15 15 15 15 15 15 15 15 15 15 15 15 15 15 15 15 15 15 15 15 15 15 15 15 15 15 15 15 15 15 15 15 15 15 15 15 15 15 15 15 15 15 15 15 15 15 15 15 15 15 15 15 15 15 15 15 15 15 15 15 15 15 15 15 15 15 15 15 15 15 16 17 18 19 20 21 22 23 24 24 24 25 25 26 26 27 27 28 29 30 31 32 32 32 32 32 32 32 33 35 36 36 34 32 31 30 30 30 30 30 30 29 29 28 28 27 27 27 27 27 27 27 27 27 27 27 28 28 29 29 30 30 31 31 32 33 34 35 36 36 36 37 37 37 37 37 36 35 35 35 35 35 36 36 36 36 37 37 37 37 37 37 38 38 38 38 38 38 38 38 38 38 38 38 38 37 36 35 35 34 34 33 33 33 33 33 33 33 33 33 33 33 33 33 33 33 33 33 33 33 34 35 36 37 38 39 40 42 44 47 50 51 50 48 44 39 35 32 30 30 30 30 30 30 31 32 34 36 38 40 41 41 40 38 36 34 33 31 29 28 27 25 25 25 25 26 29 32 37 41 36 
19 18 17 16 16 16 16 16 16 16 16 16 16 16 16 16 15 15 15 15 15 15 15 15 15 15 15 15 15 15 15 15 15 15 15 15 15 15 15 15 15 15 15 15 15 15 15 15 15 15 15 15 15 15 15 15 15 15 15 15 15 15 15 15 15 15 15 15 15 15 15 15 15 15 15 15 15 15 15 15 15 15 15 15 15 15 15 15 15 15 15 15 15 15 15 15 15 15 15 15 15 15 15 15 15 15 15 16 17 18 19 20 21 21 21 22 22 23 23 24 24 25 25 26 27 28 29 29 29 29 29 29 29 30 32 33 33 31 29 28 28 28 28 28 28 28 27 27 26 26 25 25 25 25 25 25 26 26 26 27 27 28 28 29 29 30 30 31 31 32 33 34 35 36 37 37 38 39 39 39 38 37 35 35 35 35 35 36 36 36 36 37 37 37 37 37 37 38 39 39 40 40 40 40 40 40 40 40 39 38 37 36 35 34 34 33 33 33 33 33 33 33 33 33 33 33 33 33 33 33 33 33 33 33 33 34 35 36 37 38 39 40 42 44 46 49 50 49 47 43 39 35 32 30 30 30 30 30 30 30 31 33 34 35 36 37 37 36 35 33 32 31 29 28 27 26 24 24 24 24 26 28 32 39 51 77 
22 19 18 17 16 16 16 16 16 16 16 16 16 16 16 15 15 15 15 15 15 15 15 15 15 15 15 15 15 15 15 15 15 15 15 15 15 15 15 15 15 15 15 15 15 15 15 15 15 15 15 15 15 15 15 15 15 15 15 15 15 15 15 15 15 15 15 15 15 15 15 15 15 15 15 15 15 15 15 15 15 15 15 15 15 15 15 15 15 15 15 15 15 15 15 15 15 15 15 15 15 15 15 15 15 15 15 15 15 16 17 18 18 18 19 19 20 20 21 21 22 22 22 23 24 25 26 26 26 26 26 26 26 27 28 29 29 27 26 25 25 25 25 25 25 25 25 25 24 24 24 24 24 24 24 25 25 26 26 27 27 28 28 29 29 30 30 31 32 33 34 35 36 37 38 38 39 40 40 40 39 37 35 35 35 35 35 36 36 36 36 37 37 37 37 37 37 38 39 40 41 42 43 43 43 43 43 42 41 39 38 37 35 34 34 33 33 33 33 33 33 33 33 33 33 33 33 33 33 33 33 33 33 33 34 35 36 37 38 39 40 41 42 44 45 47 48 48 46 42 38 35 32 30 30 30 30 30 30 30 30 31 32 33 33 33 33 32 31 30 29 28 27 26 25 24 23 23 23 23 25 27 31 36 47 70 
20 21 20 18 17 16 16 16 16 16 16 16 16 16 15 15 15 15 15 15 15 15 15 15 15 15 15 15 15 15 15 15 15 15 15 15 15 15 15 15 15 15 15 15 15 15 15 15 15 15 15 15 15 15 15 15 15 15 15 15 15 15 15 15 15 15 15 15 15 15 15 15 15 15 15 15 15 15 15 15 15 15 15 15 15 15 15 15 15 15 15 15 15 15 15 15 15 15 15 15 15 15 15 15 15 15 15 15 15 15 15 16 16 16 16 17 17 18 18 19 19 19 19 20 21 22 23 23 23 23 23 23 23 23 24 24 24 24 23 22 22 22 22 22 22 22 22 22 22 22 22 23 23 24 24 25 25 26 26 27 27 28 28 29 29 30 30 31 32 33 34 35 36 37 38 39 40 41 41 40 38 37 35 35 35 35 35 36 36 36 36 37 37 37 37 37 37 38 40 41 43 44 45 46 47 47 46 44 42 40 39 37 35 34 34 33 33 33 33 33 33 33 33 33 33 33 33 33 33 33 33 33 33 34 34 35 36 37 38 39 40 41 42 43 44 45 46 46 44 41 37 35 32 30 30 30 30 30 29 29 29 30 30 30 30 30 30 29 28 27 26 26 25 25 24 23 22 22 22 23 24 26 28 30 31 22 
31 26 23 20 18 17 16 16 16 16 16 16 16 15 15 15 15 15 15 15 15 15 15 15 15 15 15 15 15 15 15 15 15 15 15 15 15 15 15 15 15 15 15 15 15 15 15 15 15 15 15 15 15 15 15 15 15 15 15 15 15 15 15 15 15 15 15 15 15 15 15 15 15 15 15 15 15 15 15 15 15 15 15 15 15 15 15 15 15 15 15 15 15 15 15 15 15 15 15 15 15 15 15 15 15 15 15 15 15 15 15 15 15 15 15 15 15 16 16 16 16 16 17 17 18 19 19 19 19 19 19 19 19 20 20 20 20 20 20 20 20 20 20 20 20 20 20 20 21 21 22 23 23 24 24 25 25 26 26 27 27 28 28 29 29 30 30 31 33 34 35 36 37 38 39 40 41 41 40 39 37 36 35 35 35 35 35 36 36 36 36 37 37 37 37 37 37 38 40 42 44 46 48 49 50 50 49 47 44 41 39 37 35 34 34 33 33 33 33 33 33 33 33 33 33 33 33 33 33 33 33 33 34 34 34 35 36 37 38 39 40 41 42 43 44 44 44 44 42 39 37 35 32 30 30 30 30 29 28 28 28 28 28 28 28 28 27 26 26 25 25 25 24 24 23 22 21 21 21 22 23 25 26 27 26 23 
33 30 26 23 20 18 16 16 16 16 16 16 15 15 15 15 15 15 15 15 15 15 15 15 15 15 15 15 15 15 15 15 15 15 15 15 15 15 15 15 15 15 15 15 15 15 15 15 15 15 15 15 15 15 15 15 15 15 15 15 15 15 15 15 15 15 15 15 15 15 15 15 15 15 15 15 15 15 15 15 15 15 15 15 15 15 15 15 15 15 15 15 15 15 15 15 15 15 15 15 15 15 15 15 15 15 15 15 15 15 15 15 15 15 15 15 15 15 15 15 15 15 15 15 16 16 16 16 16 16 16 16 16 17 17 17 17 17 17 17 17 18 18 18 18 19 19 20 21 21 22 23 23 24 24 25 25 26 26 27 27 28 28 29 29 30 30 31 33 35 37 38 38 38 39 40 40 40 39 37 36 35 35 35 35 35 35 36 36 36 36 37 37 37 37 37 37 38 40 43 45 47 50 51 51 51 50 48 45 42 39 37 35 34 34 33 33 33 33 33 33 33 33 33 33 33 33 33 33 33 33 34 34 34 35 36 37 38 39 40 41 42 42 43 43 43 43 42 40 38 36 34 32 30 30 30 29 28 27 27 27 27 27 27 27 26 25 25 25 24 24 24 23 23 22 21 20 20 21 22 23 25 26 27 24 14 
44 37 31 26 22 19 17 16 16 16 16 15 15 15 15 15 15 15 15 15 15 15 15 15 15 15 15 15 15 15 15 15 15 15 15 15 15 15 15 15 15 15 15 15 15 15 15 15 15 15 15 15 15 15 15 15 15 15 15 15 15 15 15 15 15 15 15 15 15 15 15 15 15 15 15 15 15 15 15 15 15 15 15 15 15 15 15 15 15 15 15 15 15 15 15 15 15 15 15 15 15 15 15 15 15 15 15 15 15 15 15 15 15 15 15 15 15 15 15 15 15 15 15 15 15 15 15 15 15 15 15 15 15 15 15 15 15 15 15 15 16 16 17 17 18 19 19 20 21 21 22 23 23 24 24 25 25 26 26 27 27 28 28 29 29 30 30 31 33 35 37 38 38 38 38 38 38 37 37 36 35 34 34 34 35 35 35 36 36 36 36 37 37 37 37 37 37 38 40 43 46 48 51 52 52 51 50 48 45 41 39 37 35 34 34 33 33 33 33 33 33 33 33 33 33 33 33 33 33 33 34 34 34 35 35 36 37 38 39 40 41 42 42 42 42 42 42 41 39 37 35 33 32 30 30 29 28 27 26 26 26 26 26 26 25 25 24 24 24 23 23 23 22 22 21 20 19 19 20 22 24 26 29 31 30 28 
54 43 35 29 24 20 17 16 16 16 15 15 15 15 15 15 15 15 15 15 15 15 15 15 15 15 15 15 15 15 15 15 15 15 15 15 15 15 15 15 15 15 15 15 15 15 15 15 15 15 15 15 15 15 15 15 15 15 15 15 15 15 15 15 15 15 15 15 15 15 15 15 15 15 15 15 15 15 15 15 15 15 15 15 15 15 15 15 15 15 15 15 15 15 15 15 15 15 15 15 15 15 15 15 15 15 15 15 15 15 15 15 15 15 15 15 15 15 15 15 15 15 15 15 15 15 15 15 15 15 15 15 15 15 15 15 15 15 15 15 15 16 17 17 18 19 19 20 21 21 22 23 23 24 24 25 25 26 26 27 27 28 28 29 29 29 30 31 33 35 36 36 36 36 36 36 36 35 35 35 34 34 34 34 35 35 35 36 36 36 36 37 37 37 37 37 37 38 40 43 46 49 51 51 51 50 48 46 43 40 38 36 35 34 34 33 33 33 33 33 33 33 33 33 33 33 33 33 33 34 34 34 35 35 36 36 37 38 39 40 41 42 42 42 42 42 42 41 39 37 35 33 32 30 29 28 27 26 25 25 25 25 25 24 24 24 23 23 23 22 22 22 21 21 20 19 18 19 20 22 25 29 33 38 40 33 
56 46 38 31 25 21 18 16 16 15 15 15 15 15 15 15 15 15 15 15 15 15 15 15 15 15 15 15 15 15 15 15 15 15 15 15 15 15 15 15 15 15 15 15 15 15 15 15 15 15 15 15 15 15 15 15 15 15 15 15 15 15 15 15 15 15 15 15 15 15 15 15 15 15 15 15 15 15 15 15 15 15 15 15 15 15 15 15 15 15 15 15 15 15 15 15 15 15 15 15 15 15 15 15 15 15 15 15 15 15 15 15 15 15 15 15 15 15 15 15 15 15 15 15 15 15 15 15 15 15 15 15 15 15 15 15 15 15 15 15 15 16 17 17 18 19 19 20 21 21 22 23 23 24 24 25 25 26 26 27 27 28 28 28 28 28 29 30 32 33 33 33 33 33 33 33 33 33 33 33 33 33 34 34 35 35 35 36 36 36 36 37 37 37 37 37 37 38 40 43 46 48 50 50 49 47 45 43 41 39 37 36 35 34 34 33 33 33 33 33 33 33 33 33 33 33 33 33 34 34 34 35 35 36 36 36 37 38 39 40 41 42 43 43 43 43 43 41 39 37 35 33 32 30 29 28 27 26 25 24 24 24 23 23 23 23 22 22 22 21 21 21 20 20 19 18 18 19 20 23 27 32 39 48 60 74 
47 48 41 33 27 22 19 17 16 15 15 15 15 15 15 15 15 15 15 15 15 15 15 15 15 15 15 15 15 15 15 15 15 15 15 15 15 15 15 15 15 15 15 15 15 15 15 15 15 15 15 15 15 15 15 15 15 15 15 15 15 15 15 15 15 15 15 15 15 15 15 15 15 15 15 15 15 15 15 15 15 15 15 15 15 15 15 15 15 15 15 15 15 15 15 15 15 15 15 15 15 15 15 15 15 15 15 15 15 15 15 15 15 15 15 15 15 15 15 15 15 15 15 15 15 15 15 15 15 15 15 15 15 15 15 15 15 15 15 15 15 16 17 17 18 19 19 20 21 21 22 23 23 24 24 25 25 26 26 27 27 27 27 27 27 27 28 29 30 30 30 30 30 30 31 31 31 32 32 32 33 33 34 34 35 35 35 36 36 36 36 37 37 37 37 37 37 38 40 42 45 47 48 47 46 44 43 41 39 38 36 35 35 34 34 33 33 33 33 33 33 33 33 33 33 33 33 34 34 34 35 35 36 36 36 37 38 39 40 41 42 43 44 44 44 44 44 42 40 37 35 33 32 30 29 28 27 26 25 24 23 23 22 22 22 22 21 21 21 20 20 20 19 19 18 17 17 18 20 23 28 34 43 56 80 129 
79 59 45 35 28 23 19 17 15 15 15 15 15 15 15 15 15 15 15 15 15 15 15 15 15 15 15 15 15 15 15 15 15 15 15 15 15 15 15 15 15 15 15 15 15 15 15 15 15 15 15 15 15 15 15 15 15 15 15 15 15 15 15 15 15 15 15 15 15 15 15 15 15 15 15 15 15 15 15 15 15 15 15 15 15 15 15 15 15 15 15 15 15 15 15 15 15 15 15 15 15 15 15 15 15 15 15 15 15 15 15 15 15 15 15 15 15 15 15 15 15 15 15 15 15 15 15 15 15 15 15 15 15 15 15 15 15 15 15 15 15 16 17 17 18 19 19 20 21 21 22 23 23 24 24 25 25 26 26 26 26 26 26 26 26 26 27 27 27 27 27 28 28 29 30 30 31 31 32 32 33 33 34 34 35 35 35 36 36 36 36 37 37 37 37 37 37 38 39 41 44 45 45 44 43 42 41 39 38 37 35 34 34 34 34 33 33 33 33 33 33 33 33 33 33 33 34 34 34 35 35 36 36 36 37 37 38 39 40 41 42 43 44 45 46 46 45 43 40 37 35 33 32 30 29 28 27 26 25 24 23 22 21 21 21 21 20 20 20 19 19 19 18 18 17 17 17 18 20 23 27 34 43 56 76 106 
96 64 46 35 28 23 19 16 15 15 15 15 15 15 15 15 15 15 15 15 15 15 15 15 15 15 15 15 15 15 15 15 15 15 15 15 15 15 15 15 15 15 15 15 15 15 15 15 15 15 15 15 15 15 15 15 15 15 15 15 15 15 15 15 15 15 15 15 15 15 15 15 15 15 15 15 15 15 15 15 15 15 15 15 15 15 15 15 15 15 15 15 15 15 15 15 15 15 15 15 15 15 15 15 15 15 15 15 15 15 15 15 15 15 15 15 15 15 15 15 15 15 15 15 15 15 15 15 15 15 15 15 15 15 15 15 15 15 15 15 15 16 17 17 18 19 19 20 21 21 22 23 23 24 24 25 25 25 25 25 25 25 25 25 25 25 25 25 25 25 26 27 28 29 30 30 31 31 32 32 33 33 34 34 35 35 35 35 35 35 36 36 36 36 36 36 36 37 38 40 42 42 41 41 40 39 38 37 36 35 34 34 34 34 34 33 33 33 33 33 33 33 33 33 33 34 34 34 35 35 36 36 36 37 37 38 39 40 41 42 43 44 45 46 47 47 46 44 40 37 35 33 32 30 29 28 27 26 25 24 23 22 21 20 20 20 19 19 19 18 18 18 17 17 17 17 17 18 19 22 26 32 39 49 62 77 
73 55 42 33 26 22 18 16 15 15 15 15 15 15 15 15 15 15 15 15 15 15 15 15 15 15 15 15 15 15 15 15 15 15 15 15 15 15 15 15 15 15 15 15 15 15 15 15 15 15 15 15 15 15 15 15 15 15 15 15 15 15 15 15 15 15 15 15 15 15 15 15 15 15 15 15 15 15 15 15 15 15 15 15 15 15 15 15 15 15 15 15 15 15 15 15 15 15 15 15 15 15 15 15 15 15 15 15 15 15 15 15 15 15 15 15 15 15 15 15 15 15 15 15 15 15 15 15 15 15 15 15 15 15 15 15 15 15 15 15 15 16 17 17 18 19 19 20 21 21 22 23 24 24 24 24 24 24 24 24 24 24 24 24 24 24 24 24 24 25 26 27 28 29 30 30 31 31 32 32 33 33 34 34 34 34 34 34 34 35 35 35 35 35 35 35 35 36 37 38 39 39 39 38 38 37 36 35 34 34 33 33 33 33 33 33 34 34 34 34 34 34 34 34 34 35 35 35 35 36 36 36 37 37 38 39 39 40 42 43 44 45 46 47 48 48 47 44 40 37 35 33 32 30 29 28 27 26 25 24 23 22 21 20 19 19 18 18 18 17 17 17 17 17 17 17 17 17 18 21 24 28 34 40 46 51 
43 41 35 29 24 20 17 15 15 15 15 15 15 15 15 15 15 15 15 15 15 15 15 15 15 15 15 15 15 15 15 15 15 15 15 15 15 15 15 15 15 15 15 15 15 15 15 15 15 15 15 15 15 15 15 15 15 15 15 15 15 15 15 15 15 15 15 15 15 15 15 15 15 15 15 15 15 15 15 15 15 15 15 15 15 15 15 15 15 15 15 15 15 15 15 15 15 15 15 15 15 15 15 15 15 15 15 15 15 15 15 15 15 15 15 15 15 15 15 15 15 15 15 15 15 15 15 15 15 15 15 15 15 15 15 15 15 15 15 15 15 16 17 17 18 19 19 20 21 21 22 23 24 24 24 24 24 24 24 24 24 24 24 24 24 24 24 24 24 25 26 27 28 29 30 30 31 31 32 32 32 33 33 33 33 33 33 33 34 34 34 34 34 34 34 34 34 35 36 36 36 36 36 36 36 35 35 34 33 33 33 33 33 33 33 33 34 35 35 36 36 36 36 36 36 37 37 37 36 36 36 37 37 38 39 39 39 40 42 44 45 46 47 48 49 48 47 44 40 37 35 33 32 30 29 28 27 26 25 24 23 22 21 20 19 18 17 17 17 17 17 17 17 17 17 17 17 17 18 20 22 25 29 32 33 25 
34 32 29 25 22 19 16 15 15 15 15 15 15 15 15 15 15 15 15 15 15 15 15 15 15 15 15 15 15 15 15 15 15 15 15 15 15 15 15 15 15 15 15 15 15 15 15 15 15 15 15 15 15 15 15 15 15 15 15 15 15 15 15 15 15 15 15 15 15 15 15 15 15 15 15 15 15 15 15 15 15 15 15 15 15 15 15 15 15 15 15 15 15 15 15 15 15 15 15 15 15 15 15 15 15 15 15 15 15 15 15 15 15 15 15 15 15 15 15 15 15 15 15 15 15 15 15 15 15 15 15 15 15 15 15 15 15 15 15 15 15 16 17 17 18 19 19 20 21 22 23 24 25 25 25 25 25 25 25 25 25 25 25 25 25 25 25 25 25 25 26 27 28 29 29 30 30 31 31 31 32 32 32 32 32 32 33 33 33 33 33 33 33 33 33 33 33 34 34 34 34 34 34 34 34 34 34 33 33 33 33 33 33 33 33 34 35 36 37 38 38 39 39 39 39 39 39 38 37 37 37 37 38 39 39 39 40 41 42 44 46 47 48 49 49 48 46 43 40 37 35 33 32 30 29 28 27 26 25 24 23 22 21 20 19 18 17 17 17 17 17 17 17 17 17 17 17 17 17 18 20 22 25 27 29 29 
23 25 24 22 20 18 16 15 15 15 15 15 15 15 15 15 15 15 15 15 15 15 15 15 15 15 15 15 15 15 15 15 15 15 15 15 15 15 15 15 15 15 15 15 15 15 15 15 15 15 15 15 15 15 15 15 15 15 15 15 15 15 15 15 15 15 15 15 15 15 15 15 15 15 15 15 15 15 15 15 15 15 15 15 15 15 15 15 15 15 15 15 15 15 15 15 15 15 15 15 15 15 15 15 15 15 15 15 15 15 15 15 15 15 15 15 15 16 15 15 15 15 15 15 15 15 15 15 15 15 15 15 15 15 15 15 15 15 15 15 15 16 17 17 18 19 19 20 21 22 23 24 25 25 25 25 25 25 25 25 25 25 25 25 26 26 26 26 26 26 26 27 28 28 29 29 30 30 30 31 31 31 31 31 31 32 32 32 32 32 33 33 33 33 33 32 32 32 32 32 32 32 32 32 32 32 32 32 32 32 32 32 32 33 33 34 35 37 38 39 40 42 43 43 42 41 40 39 38 38 38 38 39 39 39 40 40 41 42 44 46 47 48 48 47 46 44 42 39 37 35 33 32 30 29 28 27 26 25 24 23 22 21 20 19 18 17 17 17 17 17 17 17 17 17 17 17 17 17 17 18 20 22 25 29 39 
15 21 21 19 18 17 15 15 15 15 15 15 15 15 15 15 15 15 15 15 15 15 15 15 15 15 15 15 15 15 15 15 15 15 15 15 15 15 15 15 15 15 15 15 15 15 15 15 15 15 15 15 15 15 15 15 15 15 15 15 15 15 15 15 15 15 15 15 15 15 15 15 15 15 15 15 15 15 15 15 15 15 15 15 15 15 15 15 15 15 15 15 15 15 15 15 15 15 15 15 15 15 15 15 15 15 15 15 15 15 15 15 15 15 15 15 15 16 16 15 15 15 15 15 15 15 15 15 15 15 15 15 15 15 15 15 15 15 15 15 15 16 17 17 18 19 19 20 21 22 23 24 25 25 25 25 25 25 25 25 25 25 25 26 26 27 28 28 28 28 27 27 27 28 28 29 29 29 30 30 30 30 30 30 31 31 31 31 31 31 32 33 33 33 32 31 31 31 31 31 31 31 31 31 31 31 31 31 31 31 31 32 32 33 34 35 36 38 39 41 42 44 46 46 45 43 42 40 39 39 39 39 39 39 40 40 41 41 42 44 45 46 46 45 44 43 42 40 38 36 34 33 32 30 29 28 27 26 25 24 23 22 21 20 19 18 17 17 17 17 17 17 17 17 17 17 17 17 17 17 17 18 20 22 23 22 
30 23 20 18 17 16 15 15 15 15 15 15 15 15 15 15 15 15 15 15 15 15 15 15 15 15 15 15 15 15 15 15 15 15 15 15 15 15 15 15 15 15 15 15 15 15 15 15 15 15 15 15 15 15 15 15 15 15 15 15 15 15 15 15 15 15 15 15 15 15 15 15 15 15 15 15 15 15 15 15 15 15 15 15 15 15 15 15 15 15 15 15 15 15 15 15 15 15 15 15 15 15 15 15 15 15 15 15 15 15 15 15 15 15 15 15 15 15 15 15 15 15 15 15 15 15 15 15 15 15 15 15 15 15 15 15 15 15 15 15 15 16 17 17 18 19 19 20 22 23 24 25 26 26 26 26 26 26 26 26 26 26 26 26 26 27 29 30 30 29 28 27 27 27 28 28 28 29 29 29 29 29 29 30 30 30 30 30 30 30 31 32 32 32 31 30 30 30 30 30 30 30 30 30 30 30 30 30 31 31 31 32 32 33 35 36 37 39 40 42 44 46 48 48 47 45 43 41 40 40 40 40 40 40 40 41 41 41 42 43 44 44 44 43 42 41 40 39 37 35 34 33 32 30 29 28 27 26 25 24 23 22 21 20 19 18 17 17 17 17 17 17 17 17 17 17 17 17 17 17 17 18 19 20 20 14 
23 21 19 17 16 15 15 15 15 15 15 15 15 15 15 15 15 15 15 15 15 15 15 15 15 15 15 15 15 15 15 15 15 15 15 15 15 15 15 15 15 15 15 15 15 15 15 15 15 15 15 15 15 15 15 15 15 15 15 15 15 15 15 15 15 15 15 15 15 15 15 15 15 15 15 15 15 15 15 15 15 15 15 15 15 15 15 15 15 15 15 15 15 15 15 15 15 15 15 15 15 15 15 15 15 15 15 15 15 15 15 15 15 15 15 15 15 15 15 15 15 15 15 15 15 15 15 15 15 15 15 15 15 15 15 15 15 15 15 15 15 16 17 17 18 19 19 20 22 24 25 26 27 28 28 28 28 28 28 28 27 27 26 26 26 27 29 30 30 29 28 27 27 27 27 27 28 28 28 28 28 28 29 29 29 29 29 29 29 29 30 31 31 31 30 29 29 29 29 29 29 29 29 29 29 29 30 30 31 31 31 32 33 34 36 37 38 40 41 43 46 48 49 49 48 46 44 42 41 41 41 41 41 41 41 41 41 42 42 43 43 43 43 42 41 40 39 38 37 36 35 34 32 31 30 29 28 27 26 25 24 23 22 21 20 19 18 17 17 17 17 17 17 17 17 17 17 17 17 17 17 18 19 21 23 24 
26 21 18 17 16 15 15 15 15 15 15 15 15 15 15 15 15 15 15 15 15 15 15 15 15 15 15 15 15 15 15 15 15 15 15 15 15 15 15 15 15 15 15 15 15 15 15 15 15 15 15 15 15 15 15 15 15 15 15 15 15 15 15 15 15 15 15 15 15 15 15 15 15 15 15 15 15 15 15 15 15 15 15 15 15 15 15 15 15 15 15 15 15 15 15 15 15 15 15 15 15 15 15 15 15 15 15 15 15 15 15 15 15 15 15 15 15 15 15 15 15 15 15 15 15 15 15 15 15 15 15 15 15 15 15 15 15 15 15 15 16 16 17 17 18 19 19 20 22 24 25 27 29 30 31 31 31 31 30 29 28 27 27 27 27 27 28 28 28 28 28 27 27 27 27 27 27 27 27 27 27 28 28 28 28 28 28 28 28 28 29 29 29 29 29 29 29 29 29 29 29 29 29 29 29 29 30 30 31 31 31 32 34 35 37 38 39 41 42 44 47 48 49 48 47 46 45 43 43 42 42 42 42 42 42 42 42 42 42 43 43 43 43 42 41 40 39 38 37 36 35 34 33 32 31 30 29 28 27 26 25 24 23 22 21 20 19 18 17 17 17 17 17 17 17 17 17 17 17 17 17 18 19 22 28 47 
22 19 18 17 16 15 15 15 15 15 15 15 15 15 15 15 15 15 15 15 15 15 15 15 15 15 15 15 15 15 15 15 15 15 15 15 15 15 15 15 15 15 15 15 15 15 15 15 15 15 15 15 15 15 15 15 15 15 15 15 15 15 15 15 15 15 15 15 15 15 15 15 15 15 15 15 15 15 15 15 15 15 15 15 15 15 15 15 15 15 15 15 15 15 15 15 15 15 15 15 15 15 15 15 15 15 15 15 15 15 15 15 15 15 15 15 15 15 15 15 15 15 15 15 15 15 15 15 15 15 15 15 15 15 15 15 15 15 15 16 16 17 17 18 18 19 20 21 22 24 25 27 30 32 33 34 34 33 32 30 28 27 27 27 27 27 27 27 27 27 27 27 27 27 27 27 27 27 27 27 27 27 27 27 27 27 27 27 27 28 28 28 28 28 28 28 28 28 28 28 28 28 28 28 29 29 30 30 31 31 31 33 34 36 38 39 40 42 43 45 47 48 48 48 47 46 45 45 44 44 44 44 44 44 44 43 43 43 43 43 43 43 43 43 42 41 40 39 38 37 36 35 34 33 32 31 30 29 28 27 26 25 24 23 22 21 20 19 18 17 17 17 17 17 17 17 17 17 17 17 17 18 19 20 20 12 
15 18 18 17 16 15 15 15 15 15 15 15 15 15 15 15 15 15 15 15 15 15 15 15 15 15 15 15 15 15 15 15 15 15 15 15 15 15 15 15 15 15 15 15 15 15 15 15 15 15 15 15 15 15 15 15 15 15 15 15 15 15 15 15 15 15 15 15 15 15 15 15 15 15 15 15 15 15 15 15 15 15 15 15 15 15 15 15 15 15 15 15 15 16 16 16 16 16 16 16 16 16 16 16 16 16 16 16 16 16 16 16 16 16 16 16 16 16 16 16 16 16 16 16 16 16 16 16 16 16 16 16 16 16 16 16 16 16 16 16 17 17 18 18 19 20 21 22 23 24 25 27 30 32 34 35 35 34 32 30 28 28 28 28 28 28 28 28 28 28 28 28 28 28 28 28 28 28 28 28 28 28 28 28 28 28 28 28 28 28 28 28 28 28 28 28 28 28 28 28 28 28 28 28 29 29 30 30 31 31 32 33 35 37 39 40 41 43 44 46 47 48 48 48 48 47 47 46 46 46 46 46 46 46 45 45 45 45 44 44 44 44 44 44 44 43 42 41 40 39 39 38 36 35 34 32 31 30 29 28 27 26 25 24 23 22 21 20 19 18 17 17 17 17 17 17 17 17 17 17 17 18 19 20 20 20 
21 20 19 18 17 16 15 15 15 15 15 15 15 15 15 15 15 15 15 15 15 15 15 15 15 15 15 15 15 15 15 15 15 15 15 15 15 15 15 15 15 15 15 15 15 15 15 15 15 15 15 15 15 15 15 15 15 15 15 15 15 15 15 15 15 15 15 15 15 15 15 15 15 15 15 15 15 15 15 15 15 15 15 15 15 15 15 15 16 16 16 16 17 18 18 18 18 18 18 18 18 18 18 18 18 17 17 17 17 17 17 17 17 17 17 17 17 17 17 17 17 17 17 17 17 17 17 17 17 17 17 17 17 17 17 17 17 17 17 17 17 18 18 19 20 21 22 23 24 25 26 27 29 31 33 34 34 33 31 30 29 28 28 28 28 28 28 28 28 28 28 28 28 28 28 28 28 28 28 28 28 28 28 28 28 28 28 28 28 28 28 28 28 28 28 28 28 28 28 28 28 28 28 28 29 29 30 30 31 31 32 34 36 38 40 41 42 44 45 47 48 49 49 50 50 49 49 48 48 48 48 48 48 47 47 47 47 46 46 46 46 46 46 46 46 46 45 44 43 43 42 41 40 38 37 35 33 32 31 30 29 28 27 26 25 24 23 22 21 20 19 18 17 17 17 17 17 17 17 17 18 19 20 21 22 20 
29 24 21 19 18 17 16 15 15 15 15 15 15 15 15 15 15 15 15 15 15 15 15 15 15 15 15 15 15 15 15 15 15 15 15 15 15 15 15 15 15 15 15 15 15 15 15 15 15 15 15 15 15 15 15 15 15 15 15 15 15 15 15 15 15 15 15 15 15 15 15 15 15 15 15 15 15 15 15 15 15 15 15 16 16 16 16 17 18 18 18 19 20 21 21 21 21 21 21 21 20 20 20 20 19 19 19 18 18 18 18 18 18 18 18 18 18 18 18 18 18 18 18 18 18 18 18 18 18 18 18 18 18 18 18 18 18 18 18 18 18 18 19 20 21 22 23 24 25 26 26 27 29 30 31 31 31 31 30 29 29 28 28 28 28 28 28 28 28 28 28 28 28 28 28 28 28 28 28 28 29 29 29 29 29 29 29 29 29 29 29 29 29 29 29 29 29 29 29 29 29 29 29 29 29 29 30 30 31 31 33 35 37 39 40 42 43 45 47 49 50 51 52 53 53 52 52 51 51 51 51 51 50 49 49 49 49 48 48 48 48 48 48 49 49 49 49 48 48 47 47 46 44 42 41 39 37 35 33 32 31 30 29 28 27 26 25 24 23 22 21 20 19 18 17 17 17 17 17 18 19 20 21 24 29 41 
37 29 24 21 19 18 17 16 15 15 15 15 15 15 15 15 15 15 15 15 15 15 15 15 15 16 16 15 15 15 15 15 15 15 15 15 15 15 15 15 15 15 15 15 15 15 15 15 15 15 15 15 15 15 15 15 15 15 16 16 16 16 16 16 16 16 16 16 16 16 16 16 16 16 16 15 15 15 15 16 16 16 17 17 18 18 19 20 21 21 22 23 24 25 25 25 25 25 24 24 23 23 22 22 21 21 21 20 20 20 20 20 20 20 20 20 20 20 20 20 20 20 20 20 20 20 20 20 20 20 20 20 19 19 19 19 19 19 19 19 19 19 20 21 22 23 24 25 26 26 27 27 28 29 30 30 30 30 29 29 29 29 29 29 29 29 29 29 29 29 29 29 29 29 29 29 29 29 29 30 30 31 31 31 31 31 31 31 31 31 31 31 31 31 31 31 31 31 31 31 30 30 30 29 29 29 30 30 31 32 34 36 38 39 41 43 44 46 48 51 53 54 56 57 57 56 56 55 55 55 55 55 54 53 52 52 52 51 50 50 50 51 52 53 53 54 54 54 53 53 53 52 50 48 46 44 41 39 37 35 34 33 32 31 30 29 28 27 26 25 24 22 21 19 18 17 17 17 18 19 20 21 23 26 30 38 
54 34 26 22 20 19 18 17 16 15 15 15 15 15 15 15 15 15 15 15 15 15 16 16 17 18 18 17 16 16 16 16 16 16 16 16 16 16 16 16 15 15 15 15 15 15 15 15 15 15 15 15 15 15 15 15 16 17 18 18 17 17 17 17 17 17 17 17 17 17 17 17 17 17 16 16 16 16 17 17 18 19 19 20 21 22 23 24 24 25 26 27 28 30 31 31 30 30 29 28 27 26 25 25 24 24 24 23 23 23 22 22 22 22 22 22 22 22 22 22 22 22 23 23 23 23 23 23 24 24 24 23 22 21 21 20 20 20 20 20 20 20 21 22 23 24 25 26 26 27 27 28 29 29 29 29 29 29 29 29 29 30 30 30 30 30 30 30 30 30 30 30 31 31 31 32 32 32 32 32 33 34 34 34 34 34 34 34 35 35 35 35 35 35 35 34 34 33 33 33 32 31 31 30 30 30 30 30 31 33 35 37 38 40 42 44 45 48 51 54 57 59 61 62 62 61 61 60 60 60 60 60 59 58 57 56 56 55 54 53 53 54 56 58 59 60 60 60 60 60 60 59 57 55 52 49 46 44 42 40 38 37 35 34 33 32 31 30 29 29 28 26 24 22 20 18 18 18 19 20 21 23 25 27 27 19 
36 29 24 22 21 20 19 18 17 16 16 16 16 16 16 16 16 16 16 16 16 17 18 19 20 21 21 20 19 18 17 17 17 17 17 17 18 18 18 18 17 16 16 15 15 15 15 15 15 15 15 15 15 15 16 17 19 20 21 21 20 19 18 18 18 18 19 19 19 20 20 19 19 18 17 17 17 18 19 20 21 22 23 24 25 26 27 28 28 29 30 32 34 36 38 38 37 36 34 32 31 30 29 28 27 27 28 28 28 27 26 25 24 24 24 24 24 24 24 24 25 26 27 27 28 28 28 28 29 29 29 27 26 25 24 23 22 21 21 21 21 22 23 24 25 25 26 26 27 27 28 29 29 30 29 29 28 28 28 29 30 31 32 32 32 32 32 32 32 32 32 32 33 34 35 36 36 36 36 36 37 38 38 38 38 38 38 39 40 40 40 39 39 39 38 37 37 36 36 35 34 33 32 31 31 30 30 30 31 34 37 39 40 41 43 45 47 50 54 58 62 65 67 68 68 68 67 66 65 65 66 66 65 64 63 62 61 59 58 58 58 59 61 64 66 67 67 67 67 68 68 67 65 63 60 56 52 49 47 45 43 42 40 38 36 35 34 34 34 34 33 31 28 25 22 20 19 19 20 21 23 25 28 31 33 27 
20 22 22 22 22 21 20 19 18 17 17 18 18 17 17 17 17 17 17 18 18 19 20 22 24 26 26 24 22 20 19 18 18 18 19 20 21 22 22 21 20 19 18 17 16 16 16 16 16 16 16 16 16 16 17 20 23 25 26 25 23 21 20 20 20 21 22 22 23 24 24 23 22 20 18 18 18 19 21 23 25 26 27 28 29 30 31 32 33 34 35 37 40 44 47 47 45 43 40 37 35 34 33 32 31 31 33 34 34 33 31 29 27 26 26 26 26 26 26 27 28 30 32 33 34 33 33 33 35 37 36 33 31 29 27 26 25 24 23 23 23 24 26 27 28 28 28 28 28 28 29 30 31 32 30 29 28 28 28 30 32 34 35 34 34 34 35 36 36 35 34 34 35 37 39 40 41 40 40 40 41 43 43 42 42 43 44 45 46 46 45 44 44 44 43 42 41 40 40 39 38 37 35 33 32 31 30 30 32 36 40 42 43 44 45 46 48 51 57 63 69 73 74 75 75 76 74 72 71 72 73 73 72 71 70 68 67 65 65 65 66 67 69 72 75 75 74 74 75 77 78 77 75 73 69 64 59 55 52 50 48 48 47 43 40 38 38 39 40 40 40 37 33 28 24 21 20 20 21 22 25 28 32 37 47 79 
18 20 21 22 24 23 21 20 19 19 20 21 21 20 19 18 18 18 19 21 22 22 23 26 29 34 34 30 27 23 21 20 19 19 21 23 26 28 29 27 24 22 20 19 18 18 18 18 17 17 17 17 17 17 19 23 28 31 33 31 27 24 23 22 23 24 26 27 28 29 29 28 26 23 20 19 20 22 25 28 30 31 31 33 34 34 35 37 38 39 40 43 48 55 60 58 55 51 47 43 41 39 38 36 35 35 38 40 42 41 36 33 30 29 28 28 29 29 29 31 33 36 39 41 42 40 38 38 41 48 46 40 37 34 31 29 28 28 26 25 26 28 31 31 32 33 32 29 29 29 30 31 34 36 33 29 27 27 28 30 35 40 40 38 37 37 39 41 41 39 37 37 38 40 44 47 48 46 44 44 47 50 49 45 45 48 50 51 53 53 51 49 49 50 49 47 46 46 46 44 42 42 39 36 35 32 31 31 32 38 45 48 48 48 48 47 48 52 60 69 79 84 83 83 83 87 84 79 78 80 81 81 81 79 78 76 74 73 73 74 76 78 79 83 87 87 82 81 83 87 91 91 87 85 79 73 66 61 59 55 53 55 57 50 44 41 41 45 49 49 50 47 39 31 25 22 20 20 22 23 27 32 36 40 39 29 
17 19 20 22 31 27 23 21 20 21 23 25 26 23 21 20 19 20 21 25 28 24 27 30 32 50 46 35 33 25 23 23 19 20 23 26 33 37 39 34 28 25 24 22 21 20 20 21 20 18 18 18 18 18 20 25 35 40 44 39 30 27 26 24 26 28 32 32 33 36 36 34 31 27 21 20 21 26 29 36 36 37 36 40 40 37 38 43 44 45 43 48 55 70 80 73 66 61 54 48 49 43 44 40 37 37 46 49 54 54 41 37 32 35 29 31 35 32 32 35 37 43 48 50 53 48 42 41 46 69 62 46 44 39 37 32 30 34 28 25 28 32 41 35 36 40 37 29 30 31 32 33 39 45 36 29 25 24 28 28 38 52 47 41 38 39 45 48 48 43 39 39 39 44 50 57 58 52 47 46 54 62 58 47 47 54 57 57 62 64 59 55 55 58 57 53 51 54 54 49 47 50 45 37 40 31 33 32 27 39 57 57 53 53 53 48 45 50 62 74 94 102 92 91 89 108 100 85 86 91 92 92 92 87 87 84 83 83 83 85 90 93 90 97 103 104 88 86 89 97 109 110 99 101 90 83 71 66 69 59 55 62 78 58 45 42 43 53 62 58 65 64 46 32 25 22 19 19 26 23 28 37 41 48 44 57 
20 19 21 17 51 33 26 22 19 22 29 30 37 27 22 23 19 24 22 31 42 22 31 36 19 89 66 32 47 22 25 30 17 21 25 25 44 48 57 42 31 28 31 24 26 21 21 27 24 20 19 19 19 18 19 23 47 53 65 54 27 29 31 22 31 31 43 36 38 47 46 43 37 35 18 20 18 34 30 52 41 45 38 51 50 37 38 53 50 54 40 52 54 90 117 88 75 73 61 47 64 43 55 46 37 33 60 57 72 81 39 45 28 50 23 32 48 33 33 41 37 51 61 59 73 58 42 40 33 121 90 42 56 43 47 34 29 52 29 20 31 32 66 32 39 57 47 23 33 33 34 31 46 71 36 29 21 18 34 17 39 85 58 43 36 39 55 58 61 47 39 44 36 47 57 75 77 57 48 42 61 86 76 38 42 66 67 60 76 82 66 57 59 73 69 58 52 65 68 51 48 66 54 27 57 21 38 38 5 36 87 70 56 60 63 48 34 44 64 73 122 138 95 100 77 160 125 79 92 108 107 104 108 92 102 93 92 96 94 97 109 118 94 116 126 140 80 88 90 104 140 142 99 130 97 101 70 64 93 59 46 60 137 61 38 40 38 63 88 57 91 99 51 28 22 24 15 11 43 15 26 49 45 70 33 64 
